/* XPM */
static const char *quicksilver64[] = {
/* columns rows colors chars-per-pixel */
"64 64 141 2 ",
"   c #000000",
".  c #0A0303",
"X  c #070708",
"o  c #070808",
"O  c #0C0C0C",
"+  c #0F0F10",
"@  c #0F1010",
"#  c #131414",
"$  c #1C1D1E",
"%  c #230C0A",
"&  c #290E0C",
"*  c #1E1F20",
"=  c #1F2021",
"-  c #222425",
";  c #242728",
":  c #26292B",
">  c #2A2C2D",
",  c #2C2E30",
"<  c #2E3032",
"1  c #343436",
"2  c #383A3B",
"3  c #491A15",
"4  c #5F211C",
"5  c #63221C",
"6  c #762922",
"7  c #792B23",
"8  c #3A3E41",
"9  c #3E4244",
"0  c #414446",
"q  c #424649",
"w  c #464A4C",
"e  c #474C50",
"r  c #4B4E51",
"t  c #4D5255",
"y  c #4F5458",
"u  c #515456",
"i  c #555758",
"p  c #55595C",
"a  c #595B5E",
"s  c #595E62",
"d  c #5E6164",
"f  c #606365",
"g  c #646769",
"h  c #65696D",
"j  c #696C6E",
"k  c #646B70",
"l  c #6C7277",
"z  c #6E7479",
"x  c #70767A",
"c  c #75787A",
"v  c #7B7D7F",
"b  c #892F28",
"n  c #8E3129",
"m  c #95342B",
"M  c #99352C",
"N  c #A3392E",
"B  c #A53A30",
"V  c #AF3C32",
"C  c #B13D33",
"Z  c #C64539",
"A  c #CC463A",
"S  c #CE483B",
"D  c #D64A3E",
"F  c #D84B3E",
"G  c #767C80",
"H  c #797D81",
"J  c #7D8286",
"K  c #7D858D",
"L  c #82878B",
"P  c #82898E",
"I  c #868D92",
"U  c #898E91",
"Y  c #879097",
"T  c #8C9195",
"R  c #8A949B",
"E  c #919397",
"W  c #91969C",
"Q  c #96999C",
"!  c #989C9F",
"~  c #939BA1",
"^  c #9AA1A6",
"/  c #9BA4AC",
"(  c #9FA9AF",
")  c #9BA7B0",
"_  c #9EA9B2",
"`  c #A0A6AA",
"'  c #A2A9AE",
"]  c #A2ACB5",
"[  c #ACAFB2",
"{  c #A4AFB8",
"}  c #ACB3B7",
"|  c #A6B1BA",
" . c #AAB5BD",
".. c #B4B9BD",
"X. c #ACB7C0",
"o. c #AEB9C1",
"O. c #B2BCC4",
"+. c #B6C0C7",
"@. c #B9C1C7",
"#. c #B6C1C8",
"$. c #BAC4CB",
"%. c #BEC8CF",
"&. c #C0C7CC",
"*. c #C3CDD4",
"=. c #C9CFD3",
"-. c #C7D0D6",
";. c #CCD1D6",
":. c #CCD4DB",
">. c #CFD8DE",
",. c #D0D9DF",
"<. c #D4DCE2",
"1. c #DADFE4",
"2. c #D8DFE5",
"3. c #D8DFE4",
"4. c #D9E0E5",
"5. c #DAE1E6",
"6. c #DBE2E7",
"7. c #DCE1E5",
"8. c #DCE1E6",
"9. c #DDE2E6",
"0. c #DCE2E7",
"q. c #DAE1E6",
"w. c #DDE3E8",
"e. c #DEE4E9",
"r. c #DFE4E9",
"t. c #DEE4E9",
"y. c #E0E5EA",
"u. c #E0E6EA",
"i. c #E1E7EB",
"p. c #E3E7EB",
"a. c #E2E7EC",
"s. c #E0E6EA",
"d. c #E3E8EC",
"f. c #E4E8EC",
"g. c #E4E9ED",
"h. c #E5E9ED",
"j. c #E5EAEE",
"k. c #E6EAEE",
"l. c #E7EBEF",
"z. c None",
"x. c black",
/* pixels */
"z.z.z.z.z.z.z.z.z.z.z.z.z.z.z.z.z.z.z.z.z.z.z.z.z.z.z.z.z.z.z.z.z.z.z.z.z.z.z.z.z.z.z.z.z.z.z.z.z.z.z.z.z.z.z.z.z.z.z.z.z.z.z.z.",
"z.z.z.z.z.z.z.z.z.z.z.z.z.z.z.z.z.z.z.z.z.z.z.z.z.z.z.z.z.z.z.z.z.z.z.z.z.z.z.z.z.z.z.z.z.z.z.z.z.z.z.z.z.z.z.z.z.z.z.z.z.z.z.z.",
"z.z.z.z.z.z.z.z.z.z.z.z.z.z.z.z.z.z.z.z.z.z.z.z.z.z.z.D D F F F F F F D F z.z.z.z.z.z.z.z.z.z.z.z.z.z.z.z.z.z.z.z.z.z.z.z.z.z.z.",
"z.z.z.z.z.z.z.z.z.z.z.z.z.z.z.z.z.z.z.z.z.z.z.F F F F D Z V B M M B V Z D F F F F z.z.z.z.z.z.z.z.z.z.z.z.z.z.z.z.z.z.z.z.z.z.z.",
"z.z.z.z.z.z.z.z.z.z.z.z.z.z.z.z.z.z.z.z.D F F S m 3 .                     . 3 M S F F F z.z.z.z.z.z.z.z.z.z.z.z.z.z.z.z.z.z.z.z.",
"z.z.z.z.z.z.z.z.z.z.z.z.z.z.z.z.z.z.F F D m %                                     % m D F F z.z.z.z.z.z.z.z.z.z.z.z.z.z.z.z.z.z.",
"z.z.z.z.z.z.z.z.z.z.z.z.z.z.z.z.F F D 6               # 1 i d j j d u 1 #               6 D F F z.z.z.z.z.z.z.z.z.z.z.z.z.z.z.z.",
"z.z.z.z.z.z.z.z.z.z.z.z.z.z.z.F F n           O i E =.y.y.y.e.e.w.8.6.6.6.&.U t O           b F F z.z.z.z.z.z.z.z.z.z.z.z.z.z.z.",
"z.z.z.z.z.z.z.z.z.z.z.z.z.F F A %         1 Q 8.d.a.y.y.y.e.e.w.8.6.6.6.2.2.3.<.;.T <         % A F F z.z.z.z.z.z.z.z.z.z.z.z.z.",
"z.z.z.z.z.z.z.z.z.z.z.z.F F N         1 [ l.l.d.a.y.y.y.e.e.w.8.6.6.6.2.2.3.<.<.<.<.<.^ <         n F F z.z.z.z.z.z.z.z.z.z.z.z.",
"z.z.z.z.z.z.z.z.z.z.z.F F 5       # T l.l.l.d.a.y.y.y.e.e.w.8.6.6.6.2.2.3.<.<.<.<.<.<.,.>.J +       4 F F z.z.z.z.z.z.z.z.z.z.z.",
"z.z.z.z.z.z.z.z.z.z.F D 3       2 ;.l.l.l.d.;.g w J 8.e.w.8.6.6.6.2.2.3.<.,.H 0 d %.,.>.>.>.O.1       3 F F z.z.z.z.z.z.z.z.z.z.",
"z.z.z.z.z.z.z.z.z.F F 3       g l.l.l.l.d.1.-       a w.8.6.6.6.2.2.3.<.<.p       * -.>.>.>.>.-.p       3 F F z.z.z.z.z.z.z.z.z.",
"z.z.z.z.z.z.z.z.F F 5       v l.l.l.l.d.a.!           ..6.6.6.2.2.3.<.<.}           T >.>.>.:.-.*.h       5 F F z.z.z.z.z.z.z.z.",
"z.z.z.z.z.z.z.z.F m       v l.l.l.l.d.a.y.Q           : ;.6.2.2.3.<.<.*.-           U >.>.:.:.*.*.*.h       M F z.z.z.z.z.z.z.z.",
"z.z.z.z.z.z.z.F A       g l.l.l.d.d.a.y.y.,.O           - ' 2.3.<.<.` -           O *.>.:.:.*.*.*.*.%.t       A F z.z.z.z.z.z.z.",
"z.z.z.z.z.z.F F %     2 y.l.l.l.a.a.y.y.y.e.c               = 9 9 =               l >.:.:.*.*.*.*.%.%.#.,     % F F z.z.z.z.z.z.",
"z.z.z.z.z.z.F n     # ;.l.l.l.d.a.y.y.y.e.e.2.1                                 < :.:.:.*.*.*.*.%.%.$.#.] O     m F z.z.z.z.z.z.",
"z.z.z.z.z.F D       T l.l.l.d.a.y.y.y.e.e.w.8.=.-                             = @.:.:.*.*.*.*.%.%.$.#.#.O.l       D F z.z.z.z.z.",
"z.z.z.z.z.F 6     1 l.l.l.d.a.y.y.y.e.e.w.8.6.6.W                           X T :.:.*.*.*.*.%.%.$.#.#.O.O.o.:     7 F z.z.z.z.z.",
"z.z.z.z.F D       [ l.l.d.a.y.y.y.e.e.w.8.6.6.` X                             X ~ *.*.*.*.%.%.$.#.#.O.O.O.o.K       D F z.z.z.z.",
"z.z.z.z.F m     1 l.l.d.a.y.y.y.e.e.w.8.6.6.@.O                                 + } *.*.%.%.$.#.#.O.O.O.o.X. .:     M F z.z.z.z.",
"z.z.z.z.F &     Q l.d.a.y.y.y.e.e.w.8.6.6.6.w             # d L L s #             0 *.%.%.$.#.#.O.O.O.o.X. . .l     % F z.z.z.z.",
"z.z.z.F S     O 8.d.a.y.y.y.e.e.w.8.6.6.6.}             a -.,.>.>.>.*.p             ^ %.$.#.#.O.O.O.o.X. . .| _ o     S F z.z.z.",
"z.z.z.F m     i d.a.y.y.y.e.e.w.8.6.6.6.2.f           p <.,.>.>.>.>.>.:.u           p $.#.#.O.O.O.o.X. . .| | ] 8     M F z.z.z.",
"z.z.z.F 3     E a.y.y.y.e.e.w.8.6.6.6.2.2.=         # -.,.>.>.>.>.>.:.:.$.@         $ #.#.O.O.O.o.X. . .| | ] ] k     3 F z.z.z.",
"z.z.z.F .     =.y.y.y.e.e.w.8.6.6.6.2.2.<.          a ,.>.>.>.>.>.:.:.*.*.t           O.O.O.O.o.X. . .| | ] ] _ R     . F z.z.z.",
"z.z.D D     # y.y.y.e.e.w.8.6.6.6.2.2.3.%.          J >.>.>.>.>.:.:.*.*.*.z           ] O.O.o.X. . .| | ] ] _ _ ) O     D F z.z.",
"z.z.F Z     1 y.y.e.e.w.8.6.6.6.2.2.3.<.%.          G >.>.>.>.:.:.*.*.*.*.l           ] O.o.X. . .| | ] ] _ _ ) ) ;     Z F z.z.",
"z.z.F C     u y.e.e.w.8.6.6.6.2.2.3.<.<.,.          u >.>.>.:.:.*.*.*.*.%.r           o.o.X. . .| | ] ] _ _ ) ) _ 8     C F z.z.",
"z.z.F N     f e.e.w.8.6.6.6.2.2.3.<.<.<.<.-         O %.:.:.-.*.*.*.*.%. .O         = o.X. . .| | ] ] _ _ ) ) _ ] w     B F z.z.",
"z.z.F m     j e.w.8.6.6.6.2.2.3.<.<.<.<.<.g           w :.:.*.*.*.*.%.$.9           p X. . .| | ] ] _ _ ) ) _ ] ] t     M F z.z.",
"z.z.F m     j w.8.6.6.6.2.2.3.<.<.<.<.<.<.}             q O.*.*.*.%. .9             ~  . .| | ] ] _ _ ) ) _ ] ] { y     M F z.z.",
"z.z.F N     d 8.6.6.6.2.2.3.<.<.<.<.<.<.>.>.r             O q w w 0 o             q  . .| | ] ] _ _ ) ) _ ] ] { | w     B F z.z.",
"z.z.F C     u 6.6.6.2.2.3.<.<.<.<.<.<.>.>.>.@.#                                 # /  .| | ] ] _ _ ) ) _ ] ] { |  .9     C F z.z.",
"z.z.F Z     1 6.6.2.2.3.<.<.<.<.<.<.,.>.>.>.>.' o                             X Y  .| | ] ] _ _ ) ) _ ] ] { |  . .:     Z F z.z.",
"z.z.D D     # 6.2.2.3.<.<.<.<.<.,.>.>.>.>.>.>.:.( #                         # Y  .| | ] ] _ _ ) ) _ ] ] { |  . .o.O     D F z.z.",
"z.z.z.F .     &.3.3.<.<.<.<.<.<.>.>.>.>.>.>.:.:.*.O.r                     w /  .| | ] ] _ _ ) ) _ ] ] { |  . .o./     . F z.z.z.",
"z.z.z.F 3     U 3.<.<.<.<.<.<.,.>.>.>.>.>.:.:.*.*.*.*.' d o         o s ~  . .| | ] ] _ _ ) ) _ ] ] { |  . .o.O.z     3 F z.z.z.",
"z.z.z.F m     t <.<.<.<.<.<.,.>.>.>.>.>.:.:.*.*.*.*.%.%.$.,         > X. . .| | ] ] _ _ ) ) _ ] ] { |  . .o.O.O.0     M F z.z.z.",
"z.z.z.F S     O ;.<.<.<.<.,.>.>.>.>.>.:.:.*.*.*.*.%.%.$.#.,         >  . .| | ] ] _ _ ) ) _ ] ] { |  . .o.O.O. .o     S F z.z.z.",
"z.z.z.z.F &     T <.<.<.,.>.>.>.>.>.:.-.*.*.J s s s p p p #         # y t t t t t k / ) _ ] ] { |  . .o.O.O.O.G     & F z.z.z.z.",
"z.z.z.z.F m     , <.<.,.>.>.>.>.>.:.:.*.*.2                                         < _ ] ] { |  . .o.O.O.O.+.>     M F z.z.z.z.",
"z.z.z.z.F D       ^ ,.>.>.>.>.>.:.:.*.*.~                                             K ] { |  . .o.O.O.O.+.I     . D F z.z.z.z.",
"z.z.z.z.z.F 6     < >.>.>.>.>.:.:.*.*.*.P                                             z { |  . .o.O.O.O.+.@.:     7 F z.z.z.z.z.",
"z.z.z.z.z.F D       J >.>.>.:.-.*.*.*.*.O.O                                         o / |  . .o.O.O.O.+.#.z     . D D z.z.z.z.z.",
"z.z.z.z.z.z.F n     + O.>.:.-.*.*.*.*.%.%.W ; X                                   - K |  . .o.O.O.O.+.#.] O     m F z.z.z.z.z.z.",
"z.z.z.z.z.z.D F %     , *.:.*.*.*.*.%.%.$.#.#.O.O.O.o.X. .>         : _ ) ) _ ] ] { |  . .o.O.O.O.+.#.#.>     % F F z.z.z.z.z.z.",
"z.z.z.z.z.z.z.F A       p *.*.*.*.%.%.$.#.#.O.O.O.o.X. . .>         : ) ) _ ] ] { |  . .o.O.O.O.+.#.$.t       A F z.z.z.z.z.z.z.",
"z.z.z.z.z.z.z.z.F M       h *.*.%.%.$.#.#.O.O.O.o.X. . .| :         : ) _ ] ] { |  . .o.O.O.O.+.#.$.d       M F z.z.z.z.z.z.z.z.",
"z.z.z.z.z.z.z.z.F F 5       s %.%.$.#.#.O.O.O.o.X. . .| | <         , _ ] ] { |  . .o.O.O.O.+.#.$.h       5 F F z.z.z.z.z.z.z.z.",
"z.z.z.z.z.z.z.z.z.F F 3       t #.#.#.O.O.O.o.X. . .| | ] d         s ] ] { |  . .o.O.O.O.+.#.+.t       3 F F z.z.z.z.z.z.z.z.z.",
"z.z.z.z.z.z.z.z.z.z.F F 3       : ( O.O.O.o.X. . .| | ] ] _ e o o e _ ] { |  . .o.O.O.O.+.#.{ >       3 F F z.z.z.z.z.z.z.z.z.z.",
"z.z.z.z.z.z.z.z.z.z.z.F F 5       O l o.o.X. . .| | ] ] _ _ ) ) _ ] ] { |  . .o.O.O.O.+.@.z O       5 F F z.z.z.z.z.z.z.z.z.z.z.",
"z.z.z.z.z.z.z.z.z.z.z.z.F F N         : K  . .| | ] ] _ _ ) ) _ ] ] { |  . .o.O.O.O.+.I :         n F F z.z.z.z.z.z.z.z.z.z.z.z.",
"z.z.z.z.z.z.z.z.z.z.z.z.z.F F A %         ; l _ ] ] _ _ ) ) _ ] ] { |  . .o.O.O. .G :         % A F F z.z.z.z.z.z.z.z.z.z.z.z.z.",
"z.z.z.z.z.z.z.z.z.z.z.z.z.z.z.F F m           o 8 k R ) ) _ ] ] { |  . .o./ z 0 o         . m F F z.z.z.z.z.z.z.z.z.z.z.z.z.z.z.",
"z.z.z.z.z.z.z.z.z.z.z.z.z.z.z.z.F F D 7 .             O ; 8 w t t w 9 : O             . 7 D F F z.z.z.z.z.z.z.z.z.z.z.z.z.z.z.z.",
"z.z.z.z.z.z.z.z.z.z.z.z.z.z.z.z.z.z.F F D M &                                     & M D F F z.z.z.z.z.z.z.z.z.z.z.z.z.z.z.z.z.z.",
"z.z.z.z.z.z.z.z.z.z.z.z.z.z.z.z.z.z.z.z.F F F S M 3 .                     . 3 M S F F F z.z.z.z.z.z.z.z.z.z.z.z.z.z.z.z.z.z.z.z.",
"z.z.z.z.z.z.z.z.z.z.z.z.z.z.z.z.z.z.z.z.z.z.z.F F F F D Z C B M M B C Z D F F F F z.z.z.z.z.z.z.z.z.z.z.z.z.z.z.z.z.z.z.z.z.z.z.",
"z.z.z.z.z.z.z.z.z.z.z.z.z.z.z.z.z.z.z.z.z.z.z.z.z.z.z.F F F F F F F F F F z.z.z.z.z.z.z.z.z.z.z.z.z.z.z.z.z.z.z.z.z.z.z.z.z.z.z.",
"z.z.z.z.z.z.z.z.z.z.z.z.z.z.z.z.z.z.z.z.z.z.z.z.z.z.z.z.z.z.z.z.z.z.z.z.z.z.z.z.z.z.z.z.z.z.z.z.z.z.z.z.z.z.z.z.z.z.z.z.z.z.z.z.",
"z.z.z.z.z.z.z.z.z.z.z.z.z.z.z.z.z.z.z.z.z.z.z.z.z.z.z.z.z.z.z.z.z.z.z.z.z.z.z.z.z.z.z.z.z.z.z.z.z.z.z.z.z.z.z.z.z.z.z.z.z.z.z.z."
};
