/* XPM */
static const char *quicksilver16[] = {
/* columns rows colors chars-per-pixel */
"16 16 110 2 ",
"   c black",
".  c #010101",
"X  c #020202",
"o  c #0D0E0F",
"O  c #0E0E0F",
"+  c #0E0F0F",
"@  c #0E0F10",
"#  c #111213",
"$  c #111313",
"%  c #121314",
"&  c #251C1B",
"*  c #241C1C",
"=  c #261E1E",
"-  c #261F1F",
";  c #1F2021",
":  c #202223",
">  c #212223",
",  c #212324",
"<  c #232425",
"1  c #2B2324",
"2  c #2C2424",
"3  c #2D2526",
"4  c #292D2F",
"5  c #2A2D2F",
"6  c #2B2D2F",
"7  c #2B2F30",
"8  c #2C2F31",
"9  c #2F3133",
"0  c #2F3235",
"q  c #333637",
"w  c #353739",
"e  c #34383B",
"r  c #36383A",
"t  c #36393A",
"y  c #37393B",
"u  c #363A3D",
"i  c #373B3E",
"p  c #38393B",
"a  c #3A3B3D",
"s  c #383B3E",
"d  c #3B3C3D",
"f  c #3B3D3E",
"g  c #5D211A",
"h  c #5F211C",
"j  c #60211C",
"k  c #7D2B24",
"l  c #7D2C24",
"z  c #7F2C24",
"x  c #3A3D40",
"c  c #3E4144",
"v  c #414142",
"b  c #424446",
"n  c #484848",
"m  c #50555A",
"M  c #575C5F",
"N  c #5B6063",
"B  c #5A6166",
"V  c #5C6165",
"C  c #626669",
"Z  c #6A6D6F",
"A  c #6F7173",
"S  c #71767A",
"D  c #802C25",
"F  c #A83A30",
"G  c #AD3B32",
"H  c #AE3B32",
"J  c #AC3C31",
"K  c #AD3D31",
"L  c #AE3C32",
"P  c #AF3C33",
"I  c #7B8389",
"U  c #7B838A",
"Y  c #899095",
"T  c #8C9398",
"R  c #8E979F",
"E  c #94999E",
"W  c #8D98A0",
"Q  c #979CA0",
"!  c #939DA6",
"~  c #969EA4",
"^  c #9BA7B0",
"/  c #A2ADB6",
"(  c #A3AEB7",
")  c #AAB1B5",
"_  c #AAB5BE",
"`  c #ABB6BE",
"'  c #B0B7BC",
"]  c #B0B8BE",
"[  c #B3BDC4",
"{  c #B2BDC5",
"}  c #B9BDC1",
"|  c #B9C3CB",
" . c #BFC4C8",
".. c #BAC4CC",
"X. c #C0C4C8",
"o. c #C4CBD0",
"O. c #C2CCD3",
"+. c #C8CED3",
"@. c #C9CFD5",
"#. c #C9D2D9",
"$. c #CAD3DA",
"%. c #CFD7DE",
"&. c #D2D8DB",
"*. c #D2DAE0",
"=. c #D6DDE3",
"-. c #D9E0E5",
";. c #DDE3E8",
":. c #E0E6EA",
">. c #E3E8EC",
",. c None",
/* pixels */
",.,.,.,.,.,.,.,.,.,.,.,.,.,.,.,.",
",.,.,.,.G g 3 d a 3 g G ,.,.,.,.",
",.,.,.k n } &.;.-.@.) v k ,.,.,.",
",.,.k A >.Z > +.o.; C $.N l ,.,.",
",.J n >.:. .+ X X + ] O.| y F ,.",
",.g X.:.;.Q X < , X Y ..{ R j ,.",
",.3 :.;.-.b y %.$.q x { _ ( - ,.",
",.d ;.-.=.b w $.O.9 a _ ( ^ 5 ,.",
",.a -.=.*.E X , > X U ( ^ ( 7 ,.",
",.1 =.*.%.$.T % $ U ( ^ ( _ - ,.",
",.g ' %.$.S c % $ i B ( _ ~ j ,.",
",.G v $.O.V 0 @ + 5 m _ { p J ,.",
",.,.k N | { _ i y ( _ { M D ,.,.",
",.,.,.l y R ( W ! _ ~ p l ,.,.,.",
",.,.,.,.J h & 5 8 - j J ,.,.,.,.",
",.,.,.,.,.,.,.,.,.,.,.,.,.,.,.,."
};
