/* XPM */
static const char *quicksilver32[] = {
/* columns rows colors chars-per-pixel */
"32 32 247 2 ",
"   c black",
".  c #010101",
"X  c #020100",
"o  c #030101",
"O  c #020202",
"+  c gray2",
"@  c #050506",
"#  c #050606",
"$  c #060707",
"%  c #070707",
"&  c #080302",
"*  c #070708",
"=  c gray3",
"-  c #080909",
";  c #090909",
":  c #0A0A0B",
">  c #111112",
",  c #111212",
"<  c #121314",
"1  c #121414",
"2  c #131415",
"3  c #141516",
"4  c #3A1511",
"5  c #3C1511",
"6  c #3D1511",
"7  c #3F1612",
"8  c #202224",
"9  c #232526",
"0  c #232527",
"q  c #2C2D2E",
"w  c #2F3031",
"e  c #303132",
"r  c #323436",
"t  c #323537",
"y  c #333637",
"u  c #363739",
"i  c #34383B",
"p  c #383B3D",
"a  c #383C3F",
"s  c #401612",
"d  c #68251E",
"f  c #69251E",
"g  c #6D251F",
"h  c #6D2620",
"j  c #6D2720",
"k  c #6E2620",
"l  c #6F2620",
"z  c #722821",
"x  c #3C3F42",
"c  c #3D4042",
"v  c #424445",
"b  c #414447",
"n  c #45484B",
"m  c #44494C",
"M  c #46494C",
"N  c #484D50",
"B  c #4B4E51",
"V  c #4D5052",
"C  c #4C5053",
"Z  c #4E5153",
"A  c #4A5054",
"S  c #4D5154",
"D  c #4D5256",
"F  c #505457",
"G  c #515558",
"H  c #525659",
"J  c #52575A",
"K  c #53575A",
"L  c #52575C",
"P  c #53585B",
"I  c #53595E",
"U  c #54585C",
"Y  c #555A5E",
"T  c #545A5F",
"R  c #565C5F",
"E  c #585C5F",
"W  c #585C60",
"Q  c #5D5E60",
"!  c #5C6164",
"~  c #5C6267",
"^  c #5D6367",
"/  c #5F6569",
"(  c #5E656A",
")  c #5F676C",
"_  c #606366",
"`  c #62666A",
"'  c #65686B",
"]  c #646A6D",
"[  c #6A6B6D",
"{  c #696C6E",
"}  c #6A6C6E",
"|  c #6A6D6F",
" . c #6B6D6F",
".. c #636B71",
"X. c #656C71",
"o. c #666C71",
"O. c #656C72",
"+. c #676E72",
"@. c #676E73",
"#. c #6E7073",
"$. c #71797F",
"%. c #757A7D",
"&. c #802C24",
"*. c #812D25",
"=. c #822D25",
"-. c #832D25",
";. c #9A352C",
":. c #9B352C",
">. c #9E372D",
",. c #9F372D",
"<. c #AE3C32",
"1. c #AF3C32",
"2. c #AE3D32",
"3. c #AF3D32",
"4. c #B03C32",
"5. c #B03D32",
"6. c #B13D33",
"7. c #B23D33",
"8. c #CB463A",
"9. c #CB473A",
"0. c #D0483B",
"q. c #D1483B",
"w. c #D0483C",
"e. c #D1483C",
"r. c #D1493C",
"t. c #D2483C",
"y. c #D2493C",
"u. c #D74B3D",
"i. c #D74A3E",
"p. c #D74B3F",
"a. c #D74C3E",
"s. c #D84A3D",
"d. c #D84B3D",
"f. c #D94B3D",
"g. c #D84B3E",
"h. c #D94B3E",
"j. c #D94A3F",
"k. c #D84C3E",
"l. c #D84C3F",
"z. c #747B81",
"x. c #747C81",
"c. c #757C82",
"v. c #747C83",
"b. c #7A7E80",
"n. c #798085",
"m. c #788086",
"M. c #798087",
"N. c #7A8388",
"B. c #7C8388",
"V. c #7C858C",
"C. c #80868B",
"Z. c #83888B",
"A. c #878B8D",
"S. c #868C91",
"D. c #8B8F93",
"F. c #8A9094",
"G. c #889096",
"H. c #8B9398",
"J. c #8C9298",
"K. c #8F959A",
"L. c #919599",
"P. c #91969A",
"I. c #91989D",
"U. c #969B9E",
"Y. c #949EA5",
"T. c #979FA5",
"R. c #959FA6",
"E. c #9B9FA3",
"W. c #999FA5",
"Q. c #9BA0A5",
"!. c #9DA0A4",
"~. c #9DA1A4",
"^. c #9CA3A7",
"/. c #9DA4A9",
"(. c #9FA6AB",
"). c #9AA6AF",
"_. c #9CA6AD",
"`. c #9FA8AE",
"'. c #9EA8AF",
"]. c #9BA7B0",
"[. c #9EA8B0",
"{. c #9EA9B2",
"}. c #9FAAB3",
"|. c #A3A8AB",
" X c #A2AAB0",
".X c #A1ACB5",
"XX c #A2ADB6",
"oX c #A3AEB7",
"OX c #A4AFB7",
"+X c #A7B2BA",
"@X c #AAB5BE",
"#X c #ABB6BE",
"$X c #B2B9BE",
"%X c #AEB9C1",
"&X c #B0B9C1",
"*X c #B0BAC2",
"=X c #B2BDC5",
"-X c #B4BEC5",
";X c #B5BFC5",
":X c #B7BEC4",
">X c #B6BFC6",
",X c #B7C0C7",
"<X c #B9C1C7",
"1X c #B6C0C8",
"2X c #B6C1C8",
"3X c #B7C1C8",
"4X c #B9C2C9",
"5X c #B8C2CA",
"6X c #BDC4C9",
"7X c #BFC4C8",
"8X c #BDC4CB",
"9X c #BAC4CC",
"0X c #BEC8CF",
"qX c #C2CCD3",
"wX c #C5CED6",
"eX c #C6CFD7",
"rX c #CACFD3",
"tX c #CBCFD3",
"yX c #CCCFD3",
"uX c #C7D0D5",
"iX c #C7D0D7",
"pX c #C8D1D7",
"aX c #CDD0D4",
"sX c #CAD3DA",
"dX c #CFD3D8",
"fX c #CED5D9",
"gX c #CDD6DD",
"hX c #CFD7DE",
"jX c #D0D9DF",
"kX c #D2DAE0",
"lX c #D4DCE2",
"zX c #D5DCE2",
"xX c #D6DDE3",
"cX c #D8DEE3",
"vX c #D8DFE4",
"bX c #D9E0E5",
"nX c #DBE2E7",
"mX c #DDE3E8",
"MX c #DEE3E8",
"NX c #DFE4E9",
"BX c #E0E6EA",
"VX c #E2E6EA",
"CX c #E3E7EB",
"ZX c #E2E7EC",
"AX c #E4E9ED",
"SX c #E6EAEE",
"DX c None",
/* pixels */
"DXDXDXDXDXDXDXDXDXDXDXDXDXDXDXDXDXDXDXDXDXDXDXDXDXDXDXDXDXDXDXDX",
"DXDXDXDXDXDXDXDXDXDXDXDXh.u.y.9.9.y.u.h.DXDXDXDXDXDXDXDXDXDXDXDX",
"DXDXDXDXDXDXDXDXDXDX0.:.5             5 :.0.DXDXDXDXDXDXDXDXDXDX",
"DXDXDXDXDXDXDXDXy.j     w #.A.!.E.Z.} q     f y.DXDXDXDXDXDXDXDX",
"DXDXDXDXDXDXa.2.& ; } rXZXBXNXMXnXnXvXxX7X_ + & 2.h.DXDXDXDXDXDX",
"DXDXDXDXDXu.&.  v aXSX7X|.MXMXnXnXvXxXQ.$XjX:Xp   &.u.DXDXDXDXDX",
"DXDXDXDXa.&.  Q BXSXdX;   b.nXnXvXxX%.  ; 7XhXpX^   &.h.DXDXDXDX",
"DXDXDXDX2.  [ SXSXZXrX+   ; U.vXxXL.;   + <XsXeXqXP   2.DXDXDXDX",
"DXDXDXy.& v BXSXZXBXNX}       ; ;       ` sXeXqX0X4Xt & y.DXDXDX",
"DXDXDXf * yXSXZXBXNXMXcXu             t uXeXqX0X9X1X`.+ j DXDXDX",
"DXDX0.  } SXZXBXNXMXnXL.                S.qX0X9X1X=X%XD   y.DXDX",
"DXDX:.  rXZXBXNXMXnXfX>     Z (.(.N     > :X9X1X=X%X@XY.  >.DXDX",
"DXu.4 e ZXBXNXMXnXnXD.    Z jXhXhXsXm     M.1X=X%X@X+XoX8 5 h.DX",
"DXu.  #.BXNXMXnXnXvX'     !.hXhXsXeXI.    R =X%X@X+XoX{.A   u.DX",
"DX0.  A.NXMXnXnXvXxX'     W.hXsXeXqXH.    T %X@X+XoX{.].(   y.DX",
"DX9.  !.MXnXnXvXxXxXF.    n sXeXqX0Xc     z.@X+XoX{.].{.$.  9.DX",
"DX9.  E.nXnXvXxXxXkXuX2     v C.B.x     < oX+XoX{.].{.oXv.  9.DX",
"DX0.  Z.nXvXxXxXkXjXhXK.                M.+XoX{.].{.oX+X@.  y.DX",
"DXu.  } vXxXxXkXjXhXhXsXJ.3         2 M.+XoX{.].{.oX+X@XT   u.DX",
"DXh.5 q xXxXkXjXhXhXsXeXqX1XD     N OX+XoX{.].{.oX+X@X&X0 s h.DX",
"DXDX:.  7XkXjXhXhXsXeXY.H.F.J     D N.M.V.).{.oX+X@X&X`.  >.DXDX",
"DXDX0.  _ jXhXhXsXeX]                     L oX+X@X&X:XJ   y.DXDX",
"DXDXDXj + :XhXsXeXqXF                     m +X@X&X:X X+ z DXDXDX",
"DXDXDXy.& p pXeXqX0X&X@.( ^ a     i I T ^ {.@X&X:X:Xt & y.DXDXDX",
"DXDXDXDX6.  E qX0X9X1X=X%X@X@.    ) {.oX+X@X&X:X4XJ   6.DXDXDXDX",
"DXDXDXDXh.&.  Z 1X1X=X%X@X+Xv.    $.oX+X@X&X:X,XW   &.l.DXDXDXDX",
"DXDXDXDXDXu.&.  t _.%X@X+XoX{...@.oX+X@X&X:X Xt   &.u.DXDXDXDXDX",
"DXDXDXDXDXDXh.6.& + D Y.oX{.].{.oX+X@X&X`.J + & 6.l.DXDXDXDXDXDX",
"DXDXDXDXDXDXDXDXy.j     8 A ( $.v.@.T 0     g y.DXDXDXDXDXDXDXDX",
"DXDXDXDXDXDXDXDXDXDXy.>.5             5 >.y.DXDXDXDXDXDXDXDXDXDX",
"DXDXDXDXDXDXDXDXDXDXDXDXl.h.y.9.9.y.u.l.DXDXDXDXDXDXDXDXDXDXDXDX",
"DXDXDXDXDXDXDXDXDXDXDXDXDXDXDXDXDXDXDXDXDXDXDXDXDXDXDXDXDXDXDXDX"
};
