/* XPM */
static const char *quicksilver256[] = {
/* columns rows colors chars-per-pixel */
"256 256 180 2 ",
"   c #000000",
".  c #0C0403",
"X  c #070808",
"o  c #0B0B0C",
"O  c #070708",
"+  c #120605",
"@  c #160807",
"#  c #1C0A08",
"$  c #180907",
"%  c #0E0F10",
"&  c #0F1011",
"*  c #131414",
"=  c #171819",
"-  c #1B1C1D",
";  c #151718",
":  c #220C0A",
">  c #2B0F0C",
",  c #32110E",
"<  c #371310",
"1  c #3C1511",
"2  c #2E100D",
"3  c #1D1E20",
"4  c #1F2122",
"5  c #222425",
"6  c #252728",
"7  c #26292A",
"8  c #2A2C2D",
"9  c #2D2F31",
"0  c #2E3132",
"q  c #323335",
"w  c #353739",
"e  c #36393B",
"r  c #3A3C3E",
"t  c #421713",
"y  c #4A1A16",
"u  c #461814",
"i  c #511C17",
"p  c #551E18",
"a  c #581F1A",
"s  c #5D201B",
"d  c #62221C",
"f  c #6A251E",
"g  c #712721",
"h  c #752922",
"j  c #7B2B23",
"k  c #6E2620",
"l  c #3C3F40",
"z  c #3E4144",
"x  c #414445",
"c  c #434649",
"v  c #46494C",
"b  c #4A4D4F",
"n  c #4B4F51",
"m  c #474C50",
"M  c #4D5154",
"N  c #4F5559",
"B  c #515456",
"V  c #525659",
"C  c #55595C",
"Z  c #5A5C5E",
"A  c #575C61",
"S  c #5A5E61",
"D  c #5C6165",
"F  c #5F656A",
"G  c #626669",
"H  c #656A6D",
"J  c #696C6E",
"K  c #606466",
"L  c #696E72",
"P  c #656C72",
"I  c #6C7174",
"U  c #6E757A",
"Y  c #72777B",
"T  c #747A7E",
"R  c #797C7F",
"E  c #832D26",
"W  c #8D3128",
"Q  c #873027",
"!  c #92332A",
"~  c #98342C",
"^  c #A3392E",
"/  c #A53A30",
"(  c #AB3B31",
")  c #B43E34",
"_  c #BB4136",
"`  c #C24337",
"'  c #C34438",
"]  c #CB463A",
"[  c #CF483C",
"{  c #D54A3D",
"}  c #D84B3E",
"|  c #767C81",
" . c #797E82",
".. c #7C8186",
"X. c #7D848A",
"o. c #7F8990",
"O. c #82868A",
"+. c #84898D",
"@. c #85888B",
"#. c #838C92",
"$. c #8A8E92",
"%. c #879097",
"&. c #8C9195",
"*. c #8C959B",
"=. c #91969B",
"-. c #94999D",
";. c #939598",
":. c #8E99A0",
">. c #949DA3",
",. c #999EA3",
"<. c #949FA8",
"1. c #9BA1A5",
"2. c #96A0A9",
"3. c #9AA6AF",
"4. c #9FA8AF",
"5. c #9BA7B0",
"6. c #9EA9B2",
"7. c #A2A6AA",
"8. c #A2A9AE",
"9. c #A5A8AB",
"0. c #A2ADB6",
"q. c #A9AFB3",
"w. c #A4AFB8",
"e. c #A6B0B7",
"r. c #ACB1B6",
"t. c #A6B1B9",
"y. c #AAB5BD",
"u. c #AEB8BF",
"i. c #B4B9BD",
"p. c #B2B6BA",
"a. c #ACB7C0",
"s. c #AEB9C1",
"d. c #B2BDC4",
"f. c #BABEC2",
"g. c #B6C0C7",
"h. c #BCC1C5",
"j. c #B6C1C8",
"k. c #BBC4CC",
"l. c #BEC8CF",
"z. c #BFC9D0",
"x. c #C3C9CE",
"c. c #C1C5C9",
"v. c #C3CCD4",
"b. c #CACED2",
"n. c #C6D0D7",
"m. c #CBD1D6",
"M. c #C7D1D8",
"N. c #CCD5DC",
"B. c #CFD8DE",
"V. c #D1D7DB",
"C. c #D0D9DF",
"Z. c #D4DCE2",
"A. c #D8DFE5",
"S. c #D8DFE4",
"D. c #D9E0E5",
"F. c #DAE1E6",
"G. c #DBE2E7",
"H. c #DBE0E4",
"J. c #DCE2E7",
"K. c #DDE2E6",
"L. c #DBE1E6",
"P. c #DDE3E8",
"I. c #DCE3E8",
"U. c #DEE4E9",
"Y. c #DFE4E9",
"T. c #DFE5EA",
"R. c #DEE4E9",
"E. c #E0E5EA",
"W. c #E0E6EA",
"Q. c #E1E6EB",
"!. c #E2E7EB",
"~. c #E2E7EC",
"^. c #E1E6EB",
"/. c #E3E8EC",
"(. c #E4E9ED",
"). c #E5E9ED",
"_. c #E5EAEE",
"`. c #E4E9ED",
"'. c None",
"]. c black",
/* pixels */
"'.'.'.'.'.'.'.'.'.'.'.'.'.'.'.'.'.'.'.'.'.'.'.'.'.'.'.'.'.'.'.'.'.'.'.'.'.'.'.'.'.'.'.'.'.'.'.'.'.'.'.'.'.'.'.'.'.'.'.'.'.'.'.'.'.'.'.'.'.'.'.'.'.'.'.'.'.'.'.'.'.'.'.'.'.'.'.'.'.'.'.'.'.'.'.'.'.'.'.'.'.'.'.'.'.'.'.'.'.'.'.'.'.'.'.'.'.'.'.'.'.'.'.'.'.'.'.'.'.'.'.'.'.'.'.'.'.'.'.'.'.'.'.'.'.'.'.'.'.'.'.'.'.'.'.'.'.'.'.'.'.'.'.'.'.'.'.'.'.'.'.'.'.'.'.'.'.'.'.'.'.'.'.'.'.'.'.'.'.'.'.'.'.'.'.'.'.'.'.'.'.'.'.'.'.'.'.'.'.'.'.'.'.'.'.'.'.'.'.'.'.'.'.'.'.'.'.'.'.'.'.'.'.'.'.'.'.'.'.'.'.'.'.'.'.'.'.'.'.'.'.'.'.'.'.'.",
"'.'.'.'.'.'.'.'.'.'.'.'.'.'.'.'.'.'.'.'.'.'.'.'.'.'.'.'.'.'.'.'.'.'.'.'.'.'.'.'.'.'.'.'.'.'.'.'.'.'.'.'.'.'.'.'.'.'.'.'.'.'.'.'.'.'.'.'.'.'.'.'.'.'.'.'.'.'.'.'.'.'.'.'.'.'.'.'.'.'.'.'.'.'.'.'.'.'.'.'.'.'.'.'.'.'.'.'.'.'.'.'.'.'.'.'.'.'.'.'.'.'.'.'.'.'.'.'.'.'.'.'.'.'.'.'.'.'.'.'.'.'.'.'.'.'.'.'.'.'.'.'.'.'.'.'.'.'.'.'.'.'.'.'.'.'.'.'.'.'.'.'.'.'.'.'.'.'.'.'.'.'.'.'.'.'.'.'.'.'.'.'.'.'.'.'.'.'.'.'.'.'.'.'.'.'.'.'.'.'.'.'.'.'.'.'.'.'.'.'.'.'.'.'.'.'.'.'.'.'.'.'.'.'.'.'.'.'.'.'.'.'.'.'.'.'.'.'.'.'.'.'.'.'.'.'.",
"'.'.'.'.'.'.'.'.'.'.'.'.'.'.'.'.'.'.'.'.'.'.'.'.'.'.'.'.'.'.'.'.'.'.'.'.'.'.'.'.'.'.'.'.'.'.'.'.'.'.'.'.'.'.'.'.'.'.'.'.'.'.'.'.'.'.'.'.'.'.'.'.'.'.'.'.'.'.'.'.'.'.'.'.'.'.'.'.'.'.'.'.'.'.'.'.'.'.'.'.'.'.'.'.'.'.'.'.'.'.'.'.'.'.'.'.'.'.'.'.'.'.'.'.'.'.'.'.'.'.'.'.'.'.'.'.'.'.'.'.'.'.'.'.'.'.'.'.'.'.'.'.'.'.'.'.'.'.'.'.'.'.'.'.'.'.'.'.'.'.'.'.'.'.'.'.'.'.'.'.'.'.'.'.'.'.'.'.'.'.'.'.'.'.'.'.'.'.'.'.'.'.'.'.'.'.'.'.'.'.'.'.'.'.'.'.'.'.'.'.'.'.'.'.'.'.'.'.'.'.'.'.'.'.'.'.'.'.'.'.'.'.'.'.'.'.'.'.'.'.'.'.'.'.'.'.",
"'.'.'.'.'.'.'.'.'.'.'.'.'.'.'.'.'.'.'.'.'.'.'.'.'.'.'.'.'.'.'.'.'.'.'.'.'.'.'.'.'.'.'.'.'.'.'.'.'.'.'.'.'.'.'.'.'.'.'.'.'.'.'.'.'.'.'.'.'.'.'.'.'.'.'.'.'.'.'.'.'.'.'.'.'.'.'.'.'.'.'.'.'.'.'.'.'.'.'.'.'.'.'.'.'.'.'.'.'.'.'.'.'.'.'.'.'.'.'.'.'.'.'.'.'.'.'.'.'.'.'.'.'.'.'.'.'.'.'.'.'.'.'.'.'.'.'.'.'.'.'.'.'.'.'.'.'.'.'.'.'.'.'.'.'.'.'.'.'.'.'.'.'.'.'.'.'.'.'.'.'.'.'.'.'.'.'.'.'.'.'.'.'.'.'.'.'.'.'.'.'.'.'.'.'.'.'.'.'.'.'.'.'.'.'.'.'.'.'.'.'.'.'.'.'.'.'.'.'.'.'.'.'.'.'.'.'.'.'.'.'.'.'.'.'.'.'.'.'.'.'.'.'.'.'.'.",
"'.'.'.'.'.'.'.'.'.'.'.'.'.'.'.'.'.'.'.'.'.'.'.'.'.'.'.'.'.'.'.'.'.'.'.'.'.'.'.'.'.'.'.'.'.'.'.'.'.'.'.'.'.'.'.'.'.'.'.'.'.'.'.'.'.'.'.'.'.'.'.'.'.'.'.'.'.'.'.'.'.'.'.'.'.'.'.'.'.'.'.'.'.'.'.'.'.'.'.'.'.'.'.'.'.'.'.'.'.'.'.'.'.'.'.'.'.'.'.'.'.'.'.'.'.'.'.'.'.'.'.'.'.'.'.'.'.'.'.'.'.'.'.'.'.'.'.'.'.'.'.'.'.'.'.'.'.'.'.'.'.'.'.'.'.'.'.'.'.'.'.'.'.'.'.'.'.'.'.'.'.'.'.'.'.'.'.'.'.'.'.'.'.'.'.'.'.'.'.'.'.'.'.'.'.'.'.'.'.'.'.'.'.'.'.'.'.'.'.'.'.'.'.'.'.'.'.'.'.'.'.'.'.'.'.'.'.'.'.'.'.'.'.'.'.'.'.'.'.'.'.'.'.'.'.'.",
"'.'.'.'.'.'.'.'.'.'.'.'.'.'.'.'.'.'.'.'.'.'.'.'.'.'.'.'.'.'.'.'.'.'.'.'.'.'.'.'.'.'.'.'.'.'.'.'.'.'.'.'.'.'.'.'.'.'.'.'.'.'.'.'.'.'.'.'.'.'.'.'.'.'.'.'.'.'.'.'.'.'.'.'.'.'.'.'.'.'.'.'.'.'.'.'.'.'.'.'.'.'.'.'.'.'.'.'.'.'.'.'.'.'.'.'.'.'.'.'.'.'.'.'.'.'.'.'.'.'.'.'.'.'.'.'.'.'.'.'.'.'.'.'.'.'.'.'.'.'.'.'.'.'.'.'.'.'.'.'.'.'.'.'.'.'.'.'.'.'.'.'.'.'.'.'.'.'.'.'.'.'.'.'.'.'.'.'.'.'.'.'.'.'.'.'.'.'.'.'.'.'.'.'.'.'.'.'.'.'.'.'.'.'.'.'.'.'.'.'.'.'.'.'.'.'.'.'.'.'.'.'.'.'.'.'.'.'.'.'.'.'.'.'.'.'.'.'.'.'.'.'.'.'.'.'.",
"'.'.'.'.'.'.'.'.'.'.'.'.'.'.'.'.'.'.'.'.'.'.'.'.'.'.'.'.'.'.'.'.'.'.'.'.'.'.'.'.'.'.'.'.'.'.'.'.'.'.'.'.'.'.'.'.'.'.'.'.'.'.'.'.'.'.'.'.'.'.'.'.'.'.'.'.'.'.'.'.'.'.'.'.'.'.'.'.'.'.'.'.'.'.'.'.'.'.'.'.'.'.'.'.'.'.'.'.'.'.'.'.'.'.'.'.'.'.'.'.'.'.'.'.'.'.'.'.'.'.'.'.'.'.'.'.'.'.'.'.'.'.'.'.'.'.'.'.'.'.'.'.'.'.'.'.'.'.'.'.'.'.'.'.'.'.'.'.'.'.'.'.'.'.'.'.'.'.'.'.'.'.'.'.'.'.'.'.'.'.'.'.'.'.'.'.'.'.'.'.'.'.'.'.'.'.'.'.'.'.'.'.'.'.'.'.'.'.'.'.'.'.'.'.'.'.'.'.'.'.'.'.'.'.'.'.'.'.'.'.'.'.'.'.'.'.'.'.'.'.'.'.'.'.'.'.",
"'.'.'.'.'.'.'.'.'.'.'.'.'.'.'.'.'.'.'.'.'.'.'.'.'.'.'.'.'.'.'.'.'.'.'.'.'.'.'.'.'.'.'.'.'.'.'.'.'.'.'.'.'.'.'.'.'.'.'.'.'.'.'.'.'.'.'.'.'.'.'.'.'.'.'.'.'.'.'.'.'.'.'.'.'.'.'.'.'.'.'.'.'.'.'.'.'.'.'.'.'.'.'.'.'.'.'.'.'.'.'.'.'.'.'.'.'.'.'.'.'.'.'.'.'.'.'.'.'.'.'.'.'.'.'.'.'.'.'.'.'.'.'.'.'.'.'.'.'.'.'.'.'.'.'.'.'.'.'.'.'.'.'.'.'.'.'.'.'.'.'.'.'.'.'.'.'.'.'.'.'.'.'.'.'.'.'.'.'.'.'.'.'.'.'.'.'.'.'.'.'.'.'.'.'.'.'.'.'.'.'.'.'.'.'.'.'.'.'.'.'.'.'.'.'.'.'.'.'.'.'.'.'.'.'.'.'.'.'.'.'.'.'.'.'.'.'.'.'.'.'.'.'.'.'.'.",
"'.'.'.'.'.'.'.'.'.'.'.'.'.'.'.'.'.'.'.'.'.'.'.'.'.'.'.'.'.'.'.'.'.'.'.'.'.'.'.'.'.'.'.'.'.'.'.'.'.'.'.'.'.'.'.'.'.'.'.'.'.'.'.'.'.'.'.'.'.'.'.'.'.'.'.'.'.'.'.'.'.'.'.'.'.'.'.'.'.'.'.'.'.'.'.'.'.'.'.'.'.'.'.'.'.'.'.'.'.'.'.'.'.'.'.'.'.} } } } } } } } } } } } } } } } } } } } } } '.'.'.'.'.'.'.'.'.'.'.'.'.'.'.'.'.'.'.'.'.'.'.'.'.'.'.'.'.'.'.'.'.'.'.'.'.'.'.'.'.'.'.'.'.'.'.'.'.'.'.'.'.'.'.'.'.'.'.'.'.'.'.'.'.'.'.'.'.'.'.'.'.'.'.'.'.'.'.'.'.'.'.'.'.'.'.'.'.'.'.'.'.'.'.'.'.'.'.'.'.'.'.'.'.'.'.'.'.'.'.'.'.'.'.'.'.",
"'.'.'.'.'.'.'.'.'.'.'.'.'.'.'.'.'.'.'.'.'.'.'.'.'.'.'.'.'.'.'.'.'.'.'.'.'.'.'.'.'.'.'.'.'.'.'.'.'.'.'.'.'.'.'.'.'.'.'.'.'.'.'.'.'.'.'.'.'.'.'.'.'.'.'.'.'.'.'.'.'.'.'.'.'.'.'.'.'.'.'.'.'.'.'.'.'.'.'.'.'.'.'.'.'.'.'.'.'.} } } } } } } } } } } } } } } } } } } } } } } } } } } } } } } } } } } } } } '.'.'.'.'.'.'.'.'.'.'.'.'.'.'.'.'.'.'.'.'.'.'.'.'.'.'.'.'.'.'.'.'.'.'.'.'.'.'.'.'.'.'.'.'.'.'.'.'.'.'.'.'.'.'.'.'.'.'.'.'.'.'.'.'.'.'.'.'.'.'.'.'.'.'.'.'.'.'.'.'.'.'.'.'.'.'.'.'.'.'.'.'.'.'.'.'.'.'.'.'.'.'.'.'.'.'.'.'.",
"'.'.'.'.'.'.'.'.'.'.'.'.'.'.'.'.'.'.'.'.'.'.'.'.'.'.'.'.'.'.'.'.'.'.'.'.'.'.'.'.'.'.'.'.'.'.'.'.'.'.'.'.'.'.'.'.'.'.'.'.'.'.'.'.'.'.'.'.'.'.'.'.'.'.'.'.'.'.'.'.'.'.'.'.'.'.'.'.'.'.'.'.'.'.'.'.'.'.'.'.'.'.'.'.} } } } } } } } } } } } } } } } } } } } } } } } } } } } } } } } } } } } } } } } } } } } } } } } '.'.'.'.'.'.'.'.'.'.'.'.'.'.'.'.'.'.'.'.'.'.'.'.'.'.'.'.'.'.'.'.'.'.'.'.'.'.'.'.'.'.'.'.'.'.'.'.'.'.'.'.'.'.'.'.'.'.'.'.'.'.'.'.'.'.'.'.'.'.'.'.'.'.'.'.'.'.'.'.'.'.'.'.'.'.'.'.'.'.'.'.'.'.'.'.'.'.'.'.'.'.'.'.",
"'.'.'.'.'.'.'.'.'.'.'.'.'.'.'.'.'.'.'.'.'.'.'.'.'.'.'.'.'.'.'.'.'.'.'.'.'.'.'.'.'.'.'.'.'.'.'.'.'.'.'.'.'.'.'.'.'.'.'.'.'.'.'.'.'.'.'.'.'.'.'.'.'.'.'.'.'.'.'.'.'.'.'.'.'.'.'.'.'.'.'.'.'.'.'.'.'.'.'.} } } } } } } } } } } } } } } } } } } } } } } } } } } } } } } } } } } } } } } } } } } } } } } } } } } } } } } } } } '.'.'.'.'.'.'.'.'.'.'.'.'.'.'.'.'.'.'.'.'.'.'.'.'.'.'.'.'.'.'.'.'.'.'.'.'.'.'.'.'.'.'.'.'.'.'.'.'.'.'.'.'.'.'.'.'.'.'.'.'.'.'.'.'.'.'.'.'.'.'.'.'.'.'.'.'.'.'.'.'.'.'.'.'.'.'.'.'.'.'.'.'.'.'.'.'.'.'.",
"'.'.'.'.'.'.'.'.'.'.'.'.'.'.'.'.'.'.'.'.'.'.'.'.'.'.'.'.'.'.'.'.'.'.'.'.'.'.'.'.'.'.'.'.'.'.'.'.'.'.'.'.'.'.'.'.'.'.'.'.'.'.'.'.'.'.'.'.'.'.'.'.'.'.'.'.'.'.'.'.'.'.'.'.'.'.'.'.'.'.'.'.'.'.'.'.} } } } } } } } } } } } } } } } } } } } } } } } } } } } } } } } } } } } } } } } } } } } } } } } } } } } } } } } } } } } } } } } } '.'.'.'.'.'.'.'.'.'.'.'.'.'.'.'.'.'.'.'.'.'.'.'.'.'.'.'.'.'.'.'.'.'.'.'.'.'.'.'.'.'.'.'.'.'.'.'.'.'.'.'.'.'.'.'.'.'.'.'.'.'.'.'.'.'.'.'.'.'.'.'.'.'.'.'.'.'.'.'.'.'.'.'.'.'.'.'.'.'.'.'.'.'.'.",
"'.'.'.'.'.'.'.'.'.'.'.'.'.'.'.'.'.'.'.'.'.'.'.'.'.'.'.'.'.'.'.'.'.'.'.'.'.'.'.'.'.'.'.'.'.'.'.'.'.'.'.'.'.'.'.'.'.'.'.'.'.'.'.'.'.'.'.'.'.'.'.'.'.'.'.'.'.'.'.'.'.'.'.'.'.'.'.'.'.'.'.'.} } } } } } } } } } } } } } } } } } } } } } } } } } } } } } } } } } } } } } } } } } } } } } } } } } } } } } } } } } } } } } } } } } } } } } } } '.'.'.'.'.'.'.'.'.'.'.'.'.'.'.'.'.'.'.'.'.'.'.'.'.'.'.'.'.'.'.'.'.'.'.'.'.'.'.'.'.'.'.'.'.'.'.'.'.'.'.'.'.'.'.'.'.'.'.'.'.'.'.'.'.'.'.'.'.'.'.'.'.'.'.'.'.'.'.'.'.'.'.'.'.'.'.'.'.'.'.'.",
"'.'.'.'.'.'.'.'.'.'.'.'.'.'.'.'.'.'.'.'.'.'.'.'.'.'.'.'.'.'.'.'.'.'.'.'.'.'.'.'.'.'.'.'.'.'.'.'.'.'.'.'.'.'.'.'.'.'.'.'.'.'.'.'.'.'.'.'.'.'.'.'.'.'.'.'.'.'.'.'.'.'.'.'.'.'.'.'.'.} } } } } } } } } } } } } } } } } } } } } } } } } { _ ^ ! h d y , : : . . .     . . . : : , y d h ! ^ _ { } } } } } } } } } } } } } } } } } } } } } } } } } '.'.'.'.'.'.'.'.'.'.'.'.'.'.'.'.'.'.'.'.'.'.'.'.'.'.'.'.'.'.'.'.'.'.'.'.'.'.'.'.'.'.'.'.'.'.'.'.'.'.'.'.'.'.'.'.'.'.'.'.'.'.'.'.'.'.'.'.'.'.'.'.'.'.'.'.'.'.'.'.'.'.'.'.'.'.'.'.'.",
"'.'.'.'.'.'.'.'.'.'.'.'.'.'.'.'.'.'.'.'.'.'.'.'.'.'.'.'.'.'.'.'.'.'.'.'.'.'.'.'.'.'.'.'.'.'.'.'.'.'.'.'.'.'.'.'.'.'.'.'.'.'.'.'.'.'.'.'.'.'.'.'.'.'.'.'.'.'.'.'.'.'.'.'.'.'.} } } } } } } } } } } } } } } } } } } } } { _ ! s , +                                                             + , s ! _ } } } } } } } } } } } } } } } } } } } } } } '.'.'.'.'.'.'.'.'.'.'.'.'.'.'.'.'.'.'.'.'.'.'.'.'.'.'.'.'.'.'.'.'.'.'.'.'.'.'.'.'.'.'.'.'.'.'.'.'.'.'.'.'.'.'.'.'.'.'.'.'.'.'.'.'.'.'.'.'.'.'.'.'.'.'.'.'.'.'.'.'.'.'.'.'.'.",
"'.'.'.'.'.'.'.'.'.'.'.'.'.'.'.'.'.'.'.'.'.'.'.'.'.'.'.'.'.'.'.'.'.'.'.'.'.'.'.'.'.'.'.'.'.'.'.'.'.'.'.'.'.'.'.'.'.'.'.'.'.'.'.'.'.'.'.'.'.'.'.'.'.'.'.'.'.'.'.'.'.'.'.'.} } } } } } } } } } } } } } } } } } } _ j 1 .                                                                                     . 1 j _ } } } } } } } } } } } } } } } } } } } '.'.'.'.'.'.'.'.'.'.'.'.'.'.'.'.'.'.'.'.'.'.'.'.'.'.'.'.'.'.'.'.'.'.'.'.'.'.'.'.'.'.'.'.'.'.'.'.'.'.'.'.'.'.'.'.'.'.'.'.'.'.'.'.'.'.'.'.'.'.'.'.'.'.'.'.'.'.'.'.'.'.'.'.",
"'.'.'.'.'.'.'.'.'.'.'.'.'.'.'.'.'.'.'.'.'.'.'.'.'.'.'.'.'.'.'.'.'.'.'.'.'.'.'.'.'.'.'.'.'.'.'.'.'.'.'.'.'.'.'.'.'.'.'.'.'.'.'.'.'.'.'.'.'.'.'.'.'.'.'.'.'.'.'.'.'.} } } } } } } } } } } } } } } } } { ( d #                                                                                                         # d ( } } } } } } } } } } } } } } } } } } '.'.'.'.'.'.'.'.'.'.'.'.'.'.'.'.'.'.'.'.'.'.'.'.'.'.'.'.'.'.'.'.'.'.'.'.'.'.'.'.'.'.'.'.'.'.'.'.'.'.'.'.'.'.'.'.'.'.'.'.'.'.'.'.'.'.'.'.'.'.'.'.'.'.'.'.'.'.'.'.'.",
"'.'.'.'.'.'.'.'.'.'.'.'.'.'.'.'.'.'.'.'.'.'.'.'.'.'.'.'.'.'.'.'.'.'.'.'.'.'.'.'.'.'.'.'.'.'.'.'.'.'.'.'.'.'.'.'.'.'.'.'.'.'.'.'.'.'.'.'.'.'.'.'.'.'.'.'.'.'.'.} } } } } } } } } } } } } } } } ' E ,                                                                                                                         : g _ } } } } } } } } } } } } } } } } '.'.'.'.'.'.'.'.'.'.'.'.'.'.'.'.'.'.'.'.'.'.'.'.'.'.'.'.'.'.'.'.'.'.'.'.'.'.'.'.'.'.'.'.'.'.'.'.'.'.'.'.'.'.'.'.'.'.'.'.'.'.'.'.'.'.'.'.'.'.'.'.'.'.'.'.'.'.'.",
"'.'.'.'.'.'.'.'.'.'.'.'.'.'.'.'.'.'.'.'.'.'.'.'.'.'.'.'.'.'.'.'.'.'.'.'.'.'.'.'.'.'.'.'.'.'.'.'.'.'.'.'.'.'.'.'.'.'.'.'.'.'.'.'.'.'.'.'.'.'.'.'.'.'.'.'.'.} } } } } } } } } } } } } } } ) a .                                                                                                                                     . a ) } } } } } } } } } } } } } } } '.'.'.'.'.'.'.'.'.'.'.'.'.'.'.'.'.'.'.'.'.'.'.'.'.'.'.'.'.'.'.'.'.'.'.'.'.'.'.'.'.'.'.'.'.'.'.'.'.'.'.'.'.'.'.'.'.'.'.'.'.'.'.'.'.'.'.'.'.'.'.'.'.'.'.'.'.",
"'.'.'.'.'.'.'.'.'.'.'.'.'.'.'.'.'.'.'.'.'.'.'.'.'.'.'.'.'.'.'.'.'.'.'.'.'.'.'.'.'.'.'.'.'.'.'.'.'.'.'.'.'.'.'.'.'.'.'.'.'.'.'.'.'.'.'.'.'.'.'.'.'.'.'.} } } } } } } } } } } } } } _ s .                                                                                                                                                 . s _ } } } } } } } } } } } } } } '.'.'.'.'.'.'.'.'.'.'.'.'.'.'.'.'.'.'.'.'.'.'.'.'.'.'.'.'.'.'.'.'.'.'.'.'.'.'.'.'.'.'.'.'.'.'.'.'.'.'.'.'.'.'.'.'.'.'.'.'.'.'.'.'.'.'.'.'.'.'.'.'.'.'.",
"'.'.'.'.'.'.'.'.'.'.'.'.'.'.'.'.'.'.'.'.'.'.'.'.'.'.'.'.'.'.'.'.'.'.'.'.'.'.'.'.'.'.'.'.'.'.'.'.'.'.'.'.'.'.'.'.'.'.'.'.'.'.'.'.'.'.'.'.'.'.'.'.'.} } } } } } } } } } } } } { E +                                                                                                                                                             . g [ } } } } } } } } } } } } } '.'.'.'.'.'.'.'.'.'.'.'.'.'.'.'.'.'.'.'.'.'.'.'.'.'.'.'.'.'.'.'.'.'.'.'.'.'.'.'.'.'.'.'.'.'.'.'.'.'.'.'.'.'.'.'.'.'.'.'.'.'.'.'.'.'.'.'.'.'.'.'.'.",
"'.'.'.'.'.'.'.'.'.'.'.'.'.'.'.'.'.'.'.'.'.'.'.'.'.'.'.'.'.'.'.'.'.'.'.'.'.'.'.'.'.'.'.'.'.'.'.'.'.'.'.'.'.'.'.'.'.'.'.'.'.'.'.'.'.'.'.'.'.'.'.} } } } } } } } } } } } } ( <                                                                                                                                                                         < ( } } } } } } } } } } } } } '.'.'.'.'.'.'.'.'.'.'.'.'.'.'.'.'.'.'.'.'.'.'.'.'.'.'.'.'.'.'.'.'.'.'.'.'.'.'.'.'.'.'.'.'.'.'.'.'.'.'.'.'.'.'.'.'.'.'.'.'.'.'.'.'.'.'.'.'.'.'.",
"'.'.'.'.'.'.'.'.'.'.'.'.'.'.'.'.'.'.'.'.'.'.'.'.'.'.'.'.'.'.'.'.'.'.'.'.'.'.'.'.'.'.'.'.'.'.'.'.'.'.'.'.'.'.'.'.'.'.'.'.'.'.'.'.'.'.'.'.'.} } } } } } } } } } } } } W +                                                                                                                                                                                 . j } } } } } } } } } } } } } '.'.'.'.'.'.'.'.'.'.'.'.'.'.'.'.'.'.'.'.'.'.'.'.'.'.'.'.'.'.'.'.'.'.'.'.'.'.'.'.'.'.'.'.'.'.'.'.'.'.'.'.'.'.'.'.'.'.'.'.'.'.'.'.'.'.'.'.'.",
"'.'.'.'.'.'.'.'.'.'.'.'.'.'.'.'.'.'.'.'.'.'.'.'.'.'.'.'.'.'.'.'.'.'.'.'.'.'.'.'.'.'.'.'.'.'.'.'.'.'.'.'.'.'.'.'.'.'.'.'.'.'.'.'.'.'.'.} } } } } } } } } } } } [ k                                                                                                                                                                                             s ] } } } } } } } } } } } } '.'.'.'.'.'.'.'.'.'.'.'.'.'.'.'.'.'.'.'.'.'.'.'.'.'.'.'.'.'.'.'.'.'.'.'.'.'.'.'.'.'.'.'.'.'.'.'.'.'.'.'.'.'.'.'.'.'.'.'.'.'.'.'.'.'.'.",
"'.'.'.'.'.'.'.'.'.'.'.'.'.'.'.'.'.'.'.'.'.'.'.'.'.'.'.'.'.'.'.'.'.'.'.'.'.'.'.'.'.'.'.'.'.'.'.'.'.'.'.'.'.'.'.'.'.'.'.'.'.'.'.'.'.'.} } } } } } } } } } } ] y                                                                                                                                                                                                     y ] } } } } } } } } } } } '.'.'.'.'.'.'.'.'.'.'.'.'.'.'.'.'.'.'.'.'.'.'.'.'.'.'.'.'.'.'.'.'.'.'.'.'.'.'.'.'.'.'.'.'.'.'.'.'.'.'.'.'.'.'.'.'.'.'.'.'.'.'.'.'.'.",
"'.'.'.'.'.'.'.'.'.'.'.'.'.'.'.'.'.'.'.'.'.'.'.'.'.'.'.'.'.'.'.'.'.'.'.'.'.'.'.'.'.'.'.'.'.'.'.'.'.'.'.'.'.'.'.'.'.'.'.'.'.'.'.'.} } } } } } } } } } } { s                                                                           * q n H  .$.1.r.h.x.V.V.C.T.T.C.N.N.c.h.q.,.$.R H b 0 *                                                                           y [ } } } } } } } } } } } '.'.'.'.'.'.'.'.'.'.'.'.'.'.'.'.'.'.'.'.'.'.'.'.'.'.'.'.'.'.'.'.'.'.'.'.'.'.'.'.'.'.'.'.'.'.'.'.'.'.'.'.'.'.'.'.'.'.'.'.'.'.'.'.",
"'.'.'.'.'.'.'.'.'.'.'.'.'.'.'.'.'.'.'.'.'.'.'.'.'.'.'.'.'.'.'.'.'.'.'.'.'.'.'.'.'.'.'.'.'.'.'.'.'.'.'.'.'.'.'.'.'.'.'.'.'.'.} } } } } } } } } } } { a                                                                   - c L -.h.S.E.E.E.E.E.E.E.T.T.T.T.T.T.T.T.T.P.P.P.P.P.K.K.K.K.H.H.G.C.i.=.H x -                                                                   a { } } } } } } } } } } } '.'.'.'.'.'.'.'.'.'.'.'.'.'.'.'.'.'.'.'.'.'.'.'.'.'.'.'.'.'.'.'.'.'.'.'.'.'.'.'.'.'.'.'.'.'.'.'.'.'.'.'.'.'.'.'.'.'.'.'.'.'.",
"'.'.'.'.'.'.'.'.'.'.'.'.'.'.'.'.'.'.'.'.'.'.'.'.'.'.'.'.'.'.'.'.'.'.'.'.'.'.'.'.'.'.'.'.'.'.'.'.'.'.'.'.'.'.'.'.'.'.'.'.'.} } } } } } } } } } } h                                                             X r I 7.C.~.E.E.E.E.E.E.E.E.E.E.E.T.T.T.T.T.T.T.T.T.P.P.P.P.P.P.P.K.K.H.H.G.H.H.H.H.H.H.H.m.1.J w X                                                             g } } } } } } } } } } } '.'.'.'.'.'.'.'.'.'.'.'.'.'.'.'.'.'.'.'.'.'.'.'.'.'.'.'.'.'.'.'.'.'.'.'.'.'.'.'.'.'.'.'.'.'.'.'.'.'.'.'.'.'.'.'.'.'.'.'.'.",
"'.'.'.'.'.'.'.'.'.'.'.'.'.'.'.'.'.'.'.'.'.'.'.'.'.'.'.'.'.'.'.'.'.'.'.'.'.'.'.'.'.'.'.'.'.'.'.'.'.'.'.'.'.'.'.'.'.'.'.} } } } } } } } } } } ( +                                                         w Y p.T././.~.~.!.E.E.E.E.E.E.E.E.E.E.T.T.T.T.T.T.T.T.T.P.P.P.P.P.P.P.P.K.H.H.H.H.H.H.H.H.H.H.H.H.A.A.A.Z.q.I q                                                         . ~ } } } } } } } } } } } '.'.'.'.'.'.'.'.'.'.'.'.'.'.'.'.'.'.'.'.'.'.'.'.'.'.'.'.'.'.'.'.'.'.'.'.'.'.'.'.'.'.'.'.'.'.'.'.'.'.'.'.'.'.'.'.'.'.'.",
"'.'.'.'.'.'.'.'.'.'.'.'.'.'.'.'.'.'.'.'.'.'.'.'.'.'.'.'.'.'.'.'.'.'.'.'.'.'.'.'.'.'.'.'.'.'.'.'.'.'.'.'.'.'.'.'.'.'.} } } } } } } } } } ' >                                                     o B -.C./././././.~./.!.!.!.E.E.E.E.E.E.E.E.T.T.T.T.T.T.T.T.T.P.P.P.P.P.K.K.P.P.G.G.H.H.H.H.H.H.H.H.H.H.A.A.A.A.A.A.A.A.b.&.M o                                                     > ' } } } } } } } } } } '.'.'.'.'.'.'.'.'.'.'.'.'.'.'.'.'.'.'.'.'.'.'.'.'.'.'.'.'.'.'.'.'.'.'.'.'.'.'.'.'.'.'.'.'.'.'.'.'.'.'.'.'.'.'.'.'.'.",
"'.'.'.'.'.'.'.'.'.'.'.'.'.'.'.'.'.'.'.'.'.'.'.'.'.'.'.'.'.'.'.'.'.'.'.'.'.'.'.'.'.'.'.'.'.'.'.'.'.'.'.'.'.'.'.'.'.} } } } } } } } } } f                                                   X c ;.H._._./././././././.!.!.!.!.E.E.E.E.E.E.E.T.T.T.T.T.T.T.T.T.P.P.P.P.P.K.K.K.P.G.G.H.H.H.H.H.H.H.H.H.H.A.A.A.A.A.A.A.A.A.A.Z.Z.V.-.M o                                                   f } } } } } } } } } } '.'.'.'.'.'.'.'.'.'.'.'.'.'.'.'.'.'.'.'.'.'.'.'.'.'.'.'.'.'.'.'.'.'.'.'.'.'.'.'.'.'.'.'.'.'.'.'.'.'.'.'.'.'.'.'.'.",
"'.'.'.'.'.'.'.'.'.'.'.'.'.'.'.'.'.'.'.'.'.'.'.'.'.'.'.'.'.'.'.'.'.'.'.'.'.'.'.'.'.'.'.'.'.'.'.'.'.'.'.'.'.'.'.} } } } } } } } } } ` $                                                 r -.K._._._._./././././.~./.E.!.!.!.E.E.E.E.E.E.E.T.T.T.T.T.T.T.T.Y.P.P.P.P.P.K.K.K.K.G.G.G.H.H.H.H.H.H.H.H.H.A.A.A.A.A.A.A.A.A.A.Z.Z.Z.Z.Z.Z.N.$.w                                                 @ ) } } } } } } } } } } '.'.'.'.'.'.'.'.'.'.'.'.'.'.'.'.'.'.'.'.'.'.'.'.'.'.'.'.'.'.'.'.'.'.'.'.'.'.'.'.'.'.'.'.'.'.'.'.'.'.'.'.'.'.'.",
"'.'.'.'.'.'.'.'.'.'.'.'.'.'.'.'.'.'.'.'.'.'.'.'.'.'.'.'.'.'.'.'.'.'.'.'.'.'.'.'.'.'.'.'.'.'.'.'.'.'.'.'.'.'.} } } } } } } } } } p                                               * G h._._._._._._._././././.~.~.!.E.!.!.E.E.E.E.E.E.E.T.T.T.T.T.T.T.T.Y.K.K.P.P.P.K.K.K.K.H.G.G.H.H.H.H.H.H.H.H.H.A.A.A.A.A.A.A.A.A.A.Z.Z.Z.Z.Z.Z.Z.Z.Z.Z.d.G *                                               a } } } } } } } } } } '.'.'.'.'.'.'.'.'.'.'.'.'.'.'.'.'.'.'.'.'.'.'.'.'.'.'.'.'.'.'.'.'.'.'.'.'.'.'.'.'.'.'.'.'.'.'.'.'.'.'.'.'.'.",
"'.'.'.'.'.'.'.'.'.'.'.'.'.'.'.'.'.'.'.'.'.'.'.'.'.'.'.'.'.'.'.'.'.'.'.'.'.'.'.'.'.'.'.'.'.'.'.'.'.'.'.'.'.} } } } } } } } } ' @                                             8 $.K._._._._._._._./././././.~.~.E.E.E.E.E.E.E.E.E.E.E.T.T.T.T.T.T.T.T.T.P.P.P.P.P.K.K.K.K.H.H.H.H.H.H.H.H.H.H.H.H.A.A.A.A.A.A.A.A.A.A.Z.Z.Z.Z.Z.Z.Z.Z.Z.Z.Z.Z.Z.N.&.8                                             @ ` } } } } } } } } } '.'.'.'.'.'.'.'.'.'.'.'.'.'.'.'.'.'.'.'.'.'.'.'.'.'.'.'.'.'.'.'.'.'.'.'.'.'.'.'.'.'.'.'.'.'.'.'.'.'.'.'.'.",
"'.'.'.'.'.'.'.'.'.'.'.'.'.'.'.'.'.'.'.'.'.'.'.'.'.'.'.'.'.'.'.'.'.'.'.'.'.'.'.'.'.'.'.'.'.'.'.'.'.'.'.'.} } } } } } } } } h                                             w 7._._._._._._._._._./././././.~.~.E.E.E.E.E.E.E.E.E.E.E.T.T.T.T.T.T.T.T.T.P.P.P.P.P.K.K.K.K.G.H.H.H.H.H.H.H.H.H.H.H.A.A.A.A.A.A.A.A.A.A.Z.Z.Z.Z.Z.Z.Z.Z.Z.Z.Z.Z.Z.Z.Z.Z.Z.8.z                                             h } } } } } } } } } '.'.'.'.'.'.'.'.'.'.'.'.'.'.'.'.'.'.'.'.'.'.'.'.'.'.'.'.'.'.'.'.'.'.'.'.'.'.'.'.'.'.'.'.'.'.'.'.'.'.'.'.",
"'.'.'.'.'.'.'.'.'.'.'.'.'.'.'.'.'.'.'.'.'.'.'.'.'.'.'.'.'.'.'.'.'.'.'.'.'.'.'.'.'.'.'.'.'.'.'.'.'.'.} } } } } } } } } { >                                           c f._._._._._._._._._._././././././.~.E.E.E.E.E.E.E.E.E.E.E.T.T.T.T.T.T.T.T.T.P.P.P.P.P.K.K.P.P.G.G.G.H.H.H.H.H.H.H.H.H.A.A.A.A.A.A.A.A.A.A.Z.Z.Z.Z.Z.Z.Z.Z.Z.Z.Z.Z.Z.Z.Z.Z.Z.Z.Z.Z.q.l                                           > { } } } } } } } } } '.'.'.'.'.'.'.'.'.'.'.'.'.'.'.'.'.'.'.'.'.'.'.'.'.'.'.'.'.'.'.'.'.'.'.'.'.'.'.'.'.'.'.'.'.'.'.'.'.'.",
"'.'.'.'.'.'.'.'.'.'.'.'.'.'.'.'.'.'.'.'.'.'.'.'.'.'.'.'.'.'.'.'.'.'.'.'.'.'.'.'.'.'.'.'.'.'.'.'.'.} } } } } } } } } ) .                                         l i._._._._._._._._._._._./././././././.E.E.E.E.E.E.E.E.E.E.E.T.T.T.T.T.T.T.T.T.P.P.P.P.P.K.K.K.P.G.G.G.H.H.H.H.H.H.H.H.H.A.A.A.A.A.A.A.A.A.A.Z.Z.Z.Z.Z.Z.Z.Z.Z.Z.Z.Z.Z.Z.Z.Z.Z.Z.Z.Z.Z.Z.Z.8.z                                         . ) } } } } } } } } } '.'.'.'.'.'.'.'.'.'.'.'.'.'.'.'.'.'.'.'.'.'.'.'.'.'.'.'.'.'.'.'.'.'.'.'.'.'.'.'.'.'.'.'.'.'.'.'.'.",
"'.'.'.'.'.'.'.'.'.'.'.'.'.'.'.'.'.'.'.'.'.'.'.'.'.'.'.'.'.'.'.'.'.'.'.'.'.'.'.'.'.'.'.'.'.'.'.'.} } } } } } } } } E                                         0 r._._._._._._._._._._._._./././././.~./.!.E.E.E.E.E.E.E.E.E.E.T.T.T.T.T.T.T.T.T.P.P.P.P.P.K.K.K.K.G.G.G.H.H.H.H.H.H.H.H.H.A.A.A.A.A.A.A.A.A.A.Z.Z.Z.Z.Z.Z.Z.Z.Z.Z.Z.Z.Z.Z.Z.Z.Z.Z.Z.Z.Z.Z.Z.Z.Z.C.1.8                                         g } } } } } } } } } '.'.'.'.'.'.'.'.'.'.'.'.'.'.'.'.'.'.'.'.'.'.'.'.'.'.'.'.'.'.'.'.'.'.'.'.'.'.'.'.'.'.'.'.'.'.'.'.",
"'.'.'.'.'.'.'.'.'.'.'.'.'.'.'.'.'.'.'.'.'.'.'.'.'.'.'.'.'.'.'.'.'.'.'.'.'.'.'.'.'.'.'.'.'.'.'.} } } } } } } } } t                                       * $./._._._._._._._._._._._._./././././.~.~.!.!.E.E.E.E.E.E.E.E.E.T.T.T.T.T.T.T.T.T.P.P.P.P.P.K.K.K.K.H.G.G.H.H.H.H.H.H.H.H.H.A.A.A.A.A.A.A.A.A.A.Z.Z.Z.Z.Z.Z.Z.Z.Z.Z.Z.Z.Z.Z.Z.Z.Z.Z.Z.Z.Z.Z.Z.Z.Z.C.C.C.B.+.*                                       t } } } } } } } } } '.'.'.'.'.'.'.'.'.'.'.'.'.'.'.'.'.'.'.'.'.'.'.'.'.'.'.'.'.'.'.'.'.'.'.'.'.'.'.'.'.'.'.'.'.'.'.",
"'.'.'.'.'.'.'.'.'.'.'.'.'.'.'.'.'.'.'.'.'.'.'.'.'.'.'.'.'.'.'.'.'.'.'.'.'.'.'.'.'.'.'.'.'.'.} } } } } } } } { #                                     O I H._._._._._._._._._._._._._./././././.~.~.E.E.E.E.E.E.E.E.E.E.E.T.T.T.T.T.T.T.T.T.P.P.P.P.P.K.K.K.K.H.H.G.H.H.H.H.H.H.H.H.H.A.A.A.A.A.A.A.A.A.A.Z.Z.Z.Z.Z.Z.Z.Z.Z.Z.Z.Z.Z.Z.Z.Z.Z.Z.Z.Z.Z.Z.Z.Z.Z.C.C.B.C.C.C.b.G O                                     $ [ } } } } } } } } '.'.'.'.'.'.'.'.'.'.'.'.'.'.'.'.'.'.'.'.'.'.'.'.'.'.'.'.'.'.'.'.'.'.'.'.'.'.'.'.'.'.'.'.'.'.",
"'.'.'.'.'.'.'.'.'.'.'.'.'.'.'.'.'.'.'.'.'.'.'.'.'.'.'.'.'.'.'.'.'.'.'.'.'.'.'.'.'.'.'.'.'.} } } } } } } } ' .                                     w c._._._._._._._._._._._._._._./././././.~.~.E.E.E.E.E.E.E.E.E.E.E.T.T.T.T.T.T.T.T.T.P.P.P.P.P.K.K.K.K.H.G.H.H.H.H.H.H.H.H.H.H.A.A.A.A.A.A.A.A.A.A.Z.Z.Z.Z.Z.Z.Z.Z.Z.Z.Z.Z.Z.Z.Z.Z.Z.Z.Z.Z.Z.Z.Z.Z.Z.C.C.B.B.C.C.B.B.B.r.9                                     . ` } } } } } } } } '.'.'.'.'.'.'.'.'.'.'.'.'.'.'.'.'.'.'.'.'.'.'.'.'.'.'.'.'.'.'.'.'.'.'.'.'.'.'.'.'.'.'.'.'.",
"'.'.'.'.'.'.'.'.'.'.'.'.'.'.'.'.'.'.'.'.'.'.'.'.'.'.'.'.'.'.'.'.'.'.'.'.'.'.'.'.'.'.'.'.} } } } } } } } (                                     X R _._._._._._._._._._._._._._._./././././.~.~.E.E.E.E.E.E.E.E.E.E.E.T.T.T.T.T.T.T.T.T.P.P.P.P.P.K.K.K.K.G.G.G.H.H.H.H.H.H.H.H.H.A.A.A.A.A.A.A.A.A.A.Z.Z.Z.Z.Z.Z.Z.Z.Z.Z.Z.Z.Z.Z.Z.Z.Z.Z.Z.C.Z.Z.Z.Z.Z.C.C.B.B.B.C.B.B.B.B.B.B...X                                     ( } } } } } } } } '.'.'.'.'.'.'.'.'.'.'.'.'.'.'.'.'.'.'.'.'.'.'.'.'.'.'.'.'.'.'.'.'.'.'.'.'.'.'.'.'.'.'.'.",
"'.'.'.'.'.'.'.'.'.'.'.'.'.'.'.'.'.'.'.'.'.'.'.'.'.'.'.'.'.'.'.'.'.'.'.'.'.'.'.'.'.'.'.} } } } } } } } Q                                     l b._._._._._._._._._._._._._._._./././././.~.~.E.E.!.E.E.E.E.E.E.E.E.T.T.T.T.T.T.T.T.T.P.P.P.P.P.K.K.K.K.H.G.G.H.H.H.H.H.H.H.H.H.A.A.A.A.A.A.A.A.A.A.Z.Z.Z.Z.Z.Z.Z.Z.Z.Z.Z.Z.Z.Z.Z.Z.Z.Z.Z.C.C.C.Z.Z.Z.C.C.B.B.B.B.B.B.B.B.B.B.B.B.d.w                                     W } } } } } } } } '.'.'.'.'.'.'.'.'.'.'.'.'.'.'.'.'.'.'.'.'.'.'.'.'.'.'.'.'.'.'.'.'.'.'.'.'.'.'.'.'.'.'.",
"'.'.'.'.'.'.'.'.'.'.'.'.'.'.'.'.'.'.'.'.'.'.'.'.'.'.'.'.'.'.'.'.'.'.'.'.'.'.'.'.'.'.} } } } } } } } j                                   O Y _._._._._._._._._._._._._._._._./././././.~.~.E.E.E.!.E.E.E.E.E.E.E.T.T.T.T.T.T.T.T.T.P.P.P.P.P.K.K.P.P.G.G.G.H.H.H.H.H.H.H.H.H.A.A.A.A.A.A.A.A.A.A.Z.Z.Z.Z.Z.Z.Z.Z.Z.Z.Z.Z.Z.Z.Z.Z.Z.Z.Z.Z.C.C.C.C.Z.C.C.C.C.C.C.B.B.B.B.B.B.B.B.B.B.B.T O                                   h } } } } } } } } '.'.'.'.'.'.'.'.'.'.'.'.'.'.'.'.'.'.'.'.'.'.'.'.'.'.'.'.'.'.'.'.'.'.'.'.'.'.'.'.'.'.",
"'.'.'.'.'.'.'.'.'.'.'.'.'.'.'.'.'.'.'.'.'.'.'.'.'.'.'.'.'.'.'.'.'.'.'.'.'.'.'.'.'.} } } } } } } } f                                   6 f._._._._._._._._._._._._._._._._./././././.~.~.E.c.T c 8 3 9 M @.m.E.T.T.T.T.T.T.T.T.T.P.P.P.P.P.K.K.K.P.G.G.G.H.H.H.H.H.H.H.H.H.A.A.A.A.A.A.A.A.A.A.Z.Z.Z.Z.Z.Z.Z.Z.Z.Z.Z.x...b 8 - 7 x I i.Z.C.C.Z.C.C.C.C.C.C.C.B.B.B.B.B.B.B.B.B.B.B.B.B.q.6                                   d } } } } } } } } '.'.'.'.'.'.'.'.'.'.'.'.'.'.'.'.'.'.'.'.'.'.'.'.'.'.'.'.'.'.'.'.'.'.'.'.'.'.'.'.'.",
"'.'.'.'.'.'.'.'.'.'.'.'.'.'.'.'.'.'.'.'.'.'.'.'.'.'.'.'.'.'.'.'.'.'.'.'.'.'.'.'.} } } } } } } } s                                   Z K._._._._._._._._._._._._._._._._./././././.~.~.h.x                 O Z m.T.T.T.T.T.T.T.P.P.P.P.P.K.K.K.K.G.G.G.H.H.H.H.H.H.H.H.H.A.A.A.A.A.A.A.A.A.A.Z.Z.Z.Z.Z.Z.Z.Z.Z.Z.x.C O                 z r.Z.Z.C.C.C.C.C.C.B.B.B.B.B.B.B.B.B.B.B.B.B.B.B.v.n                                   s } } } } } } } } '.'.'.'.'.'.'.'.'.'.'.'.'.'.'.'.'.'.'.'.'.'.'.'.'.'.'.'.'.'.'.'.'.'.'.'.'.'.'.'.",
"'.'.'.'.'.'.'.'.'.'.'.'.'.'.'.'.'.'.'.'.'.'.'.'.'.'.'.'.'.'.'.'.'.'.'.'.'.'.'.} } } } } } } } p                                 O @._._._._._._._._._._._._._._._._._./././././.~.~.O.O                       * 7.T.T.T.T.T.P.P.P.P.P.K.K.K.K.G.G.G.H.H.H.H.H.H.H.H.H.A.A.A.A.A.A.A.A.A.A.Z.Z.Z.Z.Z.Z.Z.Z.Z.Z.,.*                       O  .C.C.C.C.C.C.B.B.B.B.B.B.B.B.B.B.B.B.B.B.B.B.B.N...O                                 p } } } } } } } } '.'.'.'.'.'.'.'.'.'.'.'.'.'.'.'.'.'.'.'.'.'.'.'.'.'.'.'.'.'.'.'.'.'.'.'.'.'.'.",
"'.'.'.'.'.'.'.'.'.'.'.'.'.'.'.'.'.'.'.'.'.'.'.'.'.'.'.'.'.'.'.'.'.'.'.'.'.'.} } } } } } } } d                                 - i._._._._._._._._._._._._._._._._._./././././.~.~.L                             O -.T.T.T.P.P.P.P.P.K.K.P.P.G.G.G.H.H.H.H.H.H.H.H.H.A.A.A.A.A.A.A.A.A.A.Z.Z.Z.Z.Z.Z.Z.Z.Z.Z.&.O                             H C.C.C.C.B.B.B.B.B.B.B.B.B.B.B.B.B.B.N.N.N.N.N.m.8.-                                 a } } } } } } } } '.'.'.'.'.'.'.'.'.'.'.'.'.'.'.'.'.'.'.'.'.'.'.'.'.'.'.'.'.'.'.'.'.'.'.'.'.'.",
"'.'.'.'.'.'.'.'.'.'.'.'.'.'.'.'.'.'.'.'.'.'.'.'.'.'.'.'.'.'.'.'.'.'.'.'.'.} } } } } } } } g                                 w V._._._._._._._._._._._._._._._._._./././././.~.~.$.                                O p.T.P.P.P.P.P.K.K.K.P.G.G.G.H.H.H.H.H.H.H.H.H.A.A.A.A.A.A.A.A.A.A.Z.Z.Z.Z.Z.Z.Z.Z.Z.Z.q.O                                 O.C.C.B.B.B.B.B.B.B.B.B.B.B.B.B.N.N.N.N.m.N.m.m.m.d.8                                 f } } } } } } } } '.'.'.'.'.'.'.'.'.'.'.'.'.'.'.'.'.'.'.'.'.'.'.'.'.'.'.'.'.'.'.'.'.'.'.'.'.",
"'.'.'.'.'.'.'.'.'.'.'.'.'.'.'.'.'.'.'.'.'.'.'.'.'.'.'.'.'.'.'.'.'.'.'.'.} } } } } } } } h                                 b Y._._._._._._._._._._._._._._._._._./././././.~.~.b.o                                   6 S.P.P.P.P.K.K.K.K.G.G.G.H.H.H.H.H.H.H.H.H.A.A.A.A.A.A.A.A.A.A.Z.Z.Z.Z.Z.Z.Z.Z.Z.Z.C.5                                   X j.B.B.B.B.B.B.B.B.B.B.B.B.B.B.N.N.N.m.N.m.m.m.m.m.v.c                                 h } } } } } } } } '.'.'.'.'.'.'.'.'.'.'.'.'.'.'.'.'.'.'.'.'.'.'.'.'.'.'.'.'.'.'.'.'.'.'.'.",
"'.'.'.'.'.'.'.'.'.'.'.'.'.'.'.'.'.'.'.'.'.'.'.'.'.'.'.'.'.'.'.'.'.'.'.'.} } } } } } } Q                                 G _._._._._._._._._._._._._._._._._._./././././.~.~.E.S                                       $.P.P.P.K.K.K.K.H.G.G.H.H.H.H.H.H.H.H.H.A.A.A.A.A.A.A.A.A.A.Z.Z.Z.Z.Z.Z.Z.Z.Z.Z.Z.O.                                      C B.B.B.B.B.B.B.B.B.B.B.B.B.N.N.B.m.m.m.m.m.m.M.m.M.v.H                                 W } } } } } } } '.'.'.'.'.'.'.'.'.'.'.'.'.'.'.'.'.'.'.'.'.'.'.'.'.'.'.'.'.'.'.'.'.'.'.'.",
"'.'.'.'.'.'.'.'.'.'.'.'.'.'.'.'.'.'.'.'.'.'.'.'.'.'.'.'.'.'.'.'.'.'.'.} } } } } } } (                                 @._._._._._._._._._._._._._._._._._._././._._./.~.~.E.S.X                                       - H.P.K.K.K.K.G.G.G.H.H.H.H.H.H.H.H.H.A.A.A.A.A.A.A.A.A.A.Z.Z.Z.Z.Z.Z.Z.Z.Z.Z.Z.C.4                                       O v.B.B.B.B.B.B.B.B.B.B.B.N.N.N.N.N.m.m.m.m.M.M.M.n.n.v.Y                                 ( } } } } } } } '.'.'.'.'.'.'.'.'.'.'.'.'.'.'.'.'.'.'.'.'.'.'.'.'.'.'.'.'.'.'.'.'.'.'.",
"'.'.'.'.'.'.'.'.'.'.'.'.'.'.'.'.'.'.'.'.'.'.'.'.'.'.'.'.'.'.'.'.'.'.} } } } } } } '                                 ;._._._._._._._._._._._._._._._._._._./././._./././.E.E.1.                                          =.K.K.K.K.H.G.G.H.H.H.H.H.H.H.H.H.A.A.A.A.A.A.A.A.A.A.Z.Z.Z.Z.Z.Z.Z.Z.Z.Z.Z.Z.$.                                          *.B.B.B.B.B.B.B.B.B.B.N.N.N.N.N.m.m.m.m.m.m.M.n.n.v.v.v.X.                                ' } } } } } } } '.'.'.'.'.'.'.'.'.'.'.'.'.'.'.'.'.'.'.'.'.'.'.'.'.'.'.'.'.'.'.'.'.'.",
"'.'.'.'.'.'.'.'.'.'.'.'.'.'.'.'.'.'.'.'.'.'.'.'.'.'.'.'.'.'.'.'.'.} } } } } } } { .                             O ,._._._._._._._._._._._._._._._._._._././././././.~.E.E.E.I                                           4 Z.K.K.H.H.G.H.H.H.H.H.H.H.H.H.A.A.A.A.A.A.A.A.A.A.Z.Z.Z.Z.Z.Z.Z.Z.Z.Z.Z.Z.N.-                                           H B.B.B.B.B.B.B.B.B.B.B.B.N.N.m.m.m.m.M.M.M.M.n.M.v.v.v.v.$.O                             . { } } } } } } } '.'.'.'.'.'.'.'.'.'.'.'.'.'.'.'.'.'.'.'.'.'.'.'.'.'.'.'.'.'.'.'.'.",
"'.'.'.'.'.'.'.'.'.'.'.'.'.'.'.'.'.'.'.'.'.'.'.'.'.'.'.'.'.'.'.'.} } } } } } } } #                             O 7._._._._._._._._._._._._._._._._._._././././././.~.E.E.E.E.C                                             I K.H.H.H.H.H.H.H.H.H.H.H.H.A.A.A.A.A.A.A.A.A.A.Z.Z.Z.Z.Z.Z.Z.Z.Z.Z.Z.Z.Z.H                                             B B.B.B.B.B.B.B.B.B.B.B.N.N.m.m.m.m.m.M.M.M.M.M.n.v.v.v.v.v.$.O                             # } } } } } } } } '.'.'.'.'.'.'.'.'.'.'.'.'.'.'.'.'.'.'.'.'.'.'.'.'.'.'.'.'.'.'.'.",
"'.'.'.'.'.'.'.'.'.'.'.'.'.'.'.'.'.'.'.'.'.'.'.'.'.'.'.'.'.'.'.'.} } } } } } } t                             O 7._._._._._._._._._._._._._._._._._._./././././.~./.E.!.!.!.E.B                                             O r.H.G.H.H.H.H.H.H.H.H.H.A.A.A.A.A.A.A.A.A.A.Z.Z.Z.Z.Z.Z.Z.Z.Z.Z.Z.Z.Z.8.                                              n B.B.B.B.B.B.B.N.N.B.N.N.m.m.m.m.m.m.M.m.n.v.n.v.v.v.v.v.v.v.&.O                             t } } } } } } } '.'.'.'.'.'.'.'.'.'.'.'.'.'.'.'.'.'.'.'.'.'.'.'.'.'.'.'.'.'.'.'.",
"'.'.'.'.'.'.'.'.'.'.'.'.'.'.'.'.'.'.'.'.'.'.'.'.'.'.'.'.'.'.'.} } } } } } } j                               -._._._._._._._._._._._._._._._._._._./././././.~.~.!.!.!.!.E.E.G                                               - b.H.H.H.H.H.H.H.H.H.A.A.A.A.A.A.A.A.A.A.Z.Z.Z.Z.Z.Z.Z.Z.Z.Z.Z.Z.Z.k.-                                               S B.B.B.B.B.B.N.N.N.N.N.m.m.m.m.m.m.M.n.M.v.v.v.v.v.v.v.v.v.v.v.+.                              E } } } } } } } '.'.'.'.'.'.'.'.'.'.'.'.'.'.'.'.'.'.'.'.'.'.'.'.'.'.'.'.'.'.'.",
"'.'.'.'.'.'.'.'.'.'.'.'.'.'.'.'.'.'.'.'.'.'.'.'.'.'.'.'.'.'.} } } } } } } )                               &._._._._._._._._._._._._._._._._._._./././././.~.~.E.E.E.E.E.E.E.$.                                                8 N.H.H.H.H.H.H.H.A.A.A.A.A.A.A.A.A.A.Z.Z.Z.Z.Z.Z.Z.Z.Z.Z.Z.Z.Z.v.8                                                 O.B.B.B.B.B.N.N.N.N.N.m.m.m.m.m.m.m.M.n.v.v.v.v.v.v.v.v.v.v.v.v.v. .                              _ } } } } } } } '.'.'.'.'.'.'.'.'.'.'.'.'.'.'.'.'.'.'.'.'.'.'.'.'.'.'.'.'.'.",
"'.'.'.'.'.'.'.'.'.'.'.'.'.'.'.'.'.'.'.'.'.'.'.'.'.'.'.'.'.} } } } } } } { .                             @._._._._._._._._._._._._._._._._._._./././././.~.~.E.E.E.E.E.E.E.E.x.                                                  0 m.H.H.H.H.H.A.A.A.A.A.A.A.A.A.A.Z.Z.Z.Z.Z.Z.Z.Z.Z.Z.Z.Z.Z.b.8                                                   d.B.B.B.B.N.N.N.N.N.N.m.m.m.m.M.M.m.M.M.v.v.v.v.v.v.v.v.v.v.v.v.v.z.I                             . { } } } } } } } '.'.'.'.'.'.'.'.'.'.'.'.'.'.'.'.'.'.'.'.'.'.'.'.'.'.'.'.'.",
"'.'.'.'.'.'.'.'.'.'.'.'.'.'.'.'.'.'.'.'.'.'.'.'.'.'.'.'.'.} } } } } } } >                             J _._._._._._._._._._._._._._._._._._././././././.~.E.E.E.E.E.E.E.E.E.E.w                                                   5 f.H.H.H.A.A.A.A.A.A.A.A.A.A.Z.Z.Z.Z.Z.Z.Z.Z.Z.Z.Z.Z.Z.i.4                                                   q B.B.B.B.N.N.N.N.N.m.m.N.m.m.m.M.M.M.n.v.v.v.v.v.v.v.v.v.v.v.z.v.z.z.l.V                             > } } } } } } } '.'.'.'.'.'.'.'.'.'.'.'.'.'.'.'.'.'.'.'.'.'.'.'.'.'.'.'.'.",
"'.'.'.'.'.'.'.'.'.'.'.'.'.'.'.'.'.'.'.'.'.'.'.'.'.'.'.'.} } } } } } } h                             b _._._._._._._._._._._._._._._._._._./././././././.E.E.E.E.E.E.E.E.E.E.E.,.                                                    o $.H.A.A.A.A.A.A.A.A.A.A.Z.Z.Z.Z.Z.Z.Z.Z.Z.Z.Z.Z.Z.+.X                                                     *.B.B.B.N.N.N.m.N.m.m.m.m.m.m.M.M.M.n.v.v.v.v.v.v.v.v.v.v.v.z.v.z.z.l.k.k.l                             j } } } } } } } '.'.'.'.'.'.'.'.'.'.'.'.'.'.'.'.'.'.'.'.'.'.'.'.'.'.'.'.",
"'.'.'.'.'.'.'.'.'.'.'.'.'.'.'.'.'.'.'.'.'.'.'.'.'.'.'.} } } } } } } '                             q K._._._._._._._._._._._._._._._._._./././././.~./.!.E.E.E.E.E.E.E.E.E.E.T.P.6                                                       r d.A.A.A.A.A.A.A.A.Z.Z.Z.Z.Z.Z.Z.Z.Z.Z.Z.Z.p.r                                                       5 N.B.B.B.N.N.m.N.m.m.m.m.m.m.M.n.n.v.v.v.v.v.v.v.v.v.v.v.v.v.v.z.z.l.k.k.k.d.8                             ` } } } } } } } '.'.'.'.'.'.'.'.'.'.'.'.'.'.'.'.'.'.'.'.'.'.'.'.'.'.'.",
"'.'.'.'.'.'.'.'.'.'.'.'.'.'.'.'.'.'.'.'.'.'.'.'.'.'.'.} } } } } } } @                           - V._._._._._._._._._._._._._._._._._./././././.~.~.!.!.E.E.E.E.E.E.E.E.E.T.T.T.&.                                                          M r.A.A.A.A.A.Z.Z.Z.Z.Z.Z.Z.Z.Z.Z.Z.r.n                                                           +.B.B.B.B.B.m.m.m.m.m.m.m.m.M.n.n.v.v.v.v.v.v.v.v.v.v.v.v.v.v.z.z.l.k.k.k.k.k.r.*                           @ } } } } } } } '.'.'.'.'.'.'.'.'.'.'.'.'.'.'.'.'.'.'.'.'.'.'.'.'.'.'.",
"'.'.'.'.'.'.'.'.'.'.'.'.'.'.'.'.'.'.'.'.'.'.'.'.'.'.} } } } } } } p                           O p._._._._._._._._._._._._._._._._._./././././.~.~.E.E.!.!.E.E.E.E.E.E.E.T.T.T.T.K.8                                                             8 Y r.Z.Z.Z.Z.Z.Z.Z.Z.Z.Z.r.Y 8                                                             8 N.B.B.N.N.m.m.m.m.m.m.m.m.M.M.n.v.v.v.v.v.v.v.v.v.v.v.v.v.v.v.v.z.k.k.k.k.k.k.k.-.O                           a } } } } } } } '.'.'.'.'.'.'.'.'.'.'.'.'.'.'.'.'.'.'.'.'.'.'.'.'.'.",
"'.'.'.'.'.'.'.'.'.'.'.'.'.'.'.'.'.'.'.'.'.'.'.'.'.'.} } } } } } _                             $._._._._._._._._._._._._._._._._././././././.~.~.E.E.E.E.E.E.E.E.E.E.E.T.T.T.T.T.T.7.                                                                  o q M G I I G M q X                                                                   ,.B.B.B.N.m.m.m.m.m.m.m.m.M.M.M.v.v.v.v.v.v.v.v.v.v.v.v.v.v.z.v.z.z.k.k.k.k.k.k.k.k.I                             _ } } } } } } '.'.'.'.'.'.'.'.'.'.'.'.'.'.'.'.'.'.'.'.'.'.'.'.'.'.",
"'.'.'.'.'.'.'.'.'.'.'.'.'.'.'.'.'.'.'.'.'.'.'.'.'.} } } } } } } @                           Z _._._._._._._._._._._._._._._._._./././././././.!.E.E.E.E.E.E.E.E.E.E.T.T.T.T.T.T.T.T.c                                                                                                                                                     x B.N.B.B.N.m.m.m.m.m.m.m.M.m.M.n.v.v.v.v.v.v.v.v.v.v.v.v.v.z.z.l.z.z.k.k.k.k.k.k.k.k.k.c                           @ } } } } } } } '.'.'.'.'.'.'.'.'.'.'.'.'.'.'.'.'.'.'.'.'.'.'.'.'.",
"'.'.'.'.'.'.'.'.'.'.'.'.'.'.'.'.'.'.'.'.'.'.'.'.} } } } } } } f                           6 K._._._._._._._._._._._._._._._._./././././././.!.!.E.E.E.E.E.E.E.E.E.T.T.T.T.T.T.T.T.T.b.o                                                                                                                                                 o d.N.N.B.N.N.m.N.m.m.m.m.M.M.M.n.v.v.v.v.v.v.v.v.v.v.v.z.v.z.z.l.k.z.l.k.k.k.k.k.k.k.k.k.d.3                           g } } } } } } } '.'.'.'.'.'.'.'.'.'.'.'.'.'.'.'.'.'.'.'.'.'.'.'.",
"'.'.'.'.'.'.'.'.'.'.'.'.'.'.'.'.'.'.'.'.'.'.'.'.} } } } } } '                           O f._._._._._._._._._._._._._._._._./././././.~.~.E.E.E.E.E.E.E.E.E.E.E.T.T.T.T.T.T.T.T.T.P.P.$.                                                                                                                                                +.B.N.N.N.N.m.m.N.m.M.M.m.M.n.M.v.v.v.v.v.v.v.v.v.v.v.z.z.l.k.k.k.k.k.k.k.k.k.k.k.k.k.k.k.j.>.O                           ] } } } } } } '.'.'.'.'.'.'.'.'.'.'.'.'.'.'.'.'.'.'.'.'.'.'.'.",
"'.'.'.'.'.'.'.'.'.'.'.'.'.'.'.'.'.'.'.'.'.'.'.} } } } } } } >                           O._._._._._._._._._._._._._._._._./././././.~.~.E.E.E.E.E.E.E.E.E.E.E.T.T.T.T.T.T.T.T.T.P.P.P.K.v                                                                                                                                             c B.B.B.N.N.m.m.m.m.M.M.M.m.M.n.n.v.v.v.v.v.v.v.v.v.v.v.v.l.k.k.k.k.k.k.k.k.k.k.k.k.k.k.k.j.j.j.G                           > } } } } } } } '.'.'.'.'.'.'.'.'.'.'.'.'.'.'.'.'.'.'.'.'.'.'.",
"'.'.'.'.'.'.'.'.'.'.'.'.'.'.'.'.'.'.'.'.'.'.'.} } } } } } ^                           l _._._._._._._._._._._./._._._._./././././.~.~.E.E.E.E.E.E.E.E.E.E.E.T.T.T.T.T.T.T.T.T.P.P.P.P.P.V.5                                                                                                                                         4 v.B.B.N.N.m.m.m.m.m.m.M.M.n.v.v.v.v.v.v.v.v.v.v.v.v.v.v.z.z.l.k.k.k.k.k.k.k.k.k.k.k.k.k.j.j.j.j.d.0                           / } } } } } } '.'.'.'.'.'.'.'.'.'.'.'.'.'.'.'.'.'.'.'.'.'.'.",
"'.'.'.'.'.'.'.'.'.'.'.'.'.'.'.'.'.'.'.'.'.'.} } } } } } } +                         X b._._._._._._._._._._._._._._._./././././.~.~.E.E.E.E.E.E.E.E.E.E.E.T.T.T.T.T.T.T.T.T.P.P.P.P.P.K.K.i.X                                                                                                                                     X r.B.B.N.N.m.m.m.m.m.m.M.M.M.v.v.v.v.v.v.v.v.v.v.v.v.v.v.z.z.l.k.k.k.k.k.k.k.k.k.k.k.k.k.j.j.j.j.j.d.4.X                         . } } } } } } } '.'.'.'.'.'.'.'.'.'.'.'.'.'.'.'.'.'.'.'.'.'.",
"'.'.'.'.'.'.'.'.'.'.'.'.'.'.'.'.'.'.'.'.'.'.} } } } } } h                           @._._._._._._._._._._._._._._._./././././.~./.!.E.E.E.E.E.E.E.E.E.E.T.T.T.T.T.T.T.T.T.P.P.P.P.P.K.K.P.P.8.O                                                                                                                                   >.N.N.N.N.m.m.N.m.M.M.M.M.n.v.v.v.v.v.v.v.v.v.v.v.v.v.v.v.v.z.l.z.k.k.k.k.k.k.k.k.k.k.k.j.j.j.j.j.d.d.d.H                           h } } } } } } '.'.'.'.'.'.'.'.'.'.'.'.'.'.'.'.'.'.'.'.'.'.",
"'.'.'.'.'.'.'.'.'.'.'.'.'.'.'.'.'.'.'.'.'.} } } } } } {                           q _._._._._._._._._._._._._._._./././././.~.~.E.E.E.E.E.E.E.E.E.E.E.T.T.T.T.T.T.T.T.T.P.P.P.P.P.K.K.K.P.G.G.&.                                                                                                                                X.N.N.N.N.m.m.m.m.M.M.M.M.M.v.v.v.v.v.v.v.v.v.v.v.v.v.v.z.v.z.z.z.l.k.k.k.k.k.k.k.k.k.k.j.j.j.j.j.d.d.d.d.d.8                           { } } } } } } '.'.'.'.'.'.'.'.'.'.'.'.'.'.'.'.'.'.'.'.'.",
"'.'.'.'.'.'.'.'.'.'.'.'.'.'.'.'.'.'.'.'.'.} } } } } } a                         O c._._._._._._._._._._._._._._./././././.~.~.E.!.!.E.E.E.E.E.E.E.E.T.T.T.T.T.T.T.T.T.P.P.P.P.P.K.K.K.K.G.G.G.H.O.                                                                                                                            T B.B.N.N.m.m.m.m.M.M.M.M.n.v.v.v.v.v.v.v.v.v.v.v.v.v.v.z.z.l.z.z.l.k.k.k.k.k.k.k.k.k.k.j.j.j.j.j.d.d.d.d.d.d.>.                          s } } } } } } '.'.'.'.'.'.'.'.'.'.'.'.'.'.'.'.'.'.'.'.'.",
"'.'.'.'.'.'.'.'.'.'.'.'.'.'.'.'.'.'.'.'.} } } } } } ]                           I _._._._._._._._._._._._._._./././././.~.~.E.E.!.!.E.E.E.E.E.E.E.T.T.T.T.T.T.T.T.T.P.P.P.P.P.K.K.K.K.H.G.G.H.H.H.&.                                                                                                                        X.B.B.N.N.N.m.m.m.m.m.M.M.M.v.v.v.v.v.v.v.v.v.v.v.v.z.v.z.z.l.k.z.l.k.k.k.k.k.k.k.k.k.k.j.j.j.d.j.d.d.d.d.d.d.d.d.V                           [ } } } } } } '.'.'.'.'.'.'.'.'.'.'.'.'.'.'.'.'.'.'.'.",
"'.'.'.'.'.'.'.'.'.'.'.'.'.'.'.'.'.'.'.'.} } } } } } y                         * S._._._._._._._._._._._._._./././././.~./.!.E.E.!.E.E.E.E.E.E.E.T.T.T.T.T.T.T.T.T.P.P.P.P.P.P.P.P.K.H.H.H.H.H.H.H.H.=.X                                                                                                                 X $.B.B.N.N.m.m.m.m.m.m.M.n.n.n.v.v.v.v.v.v.v.v.v.v.v.v.z.l.k.k.k.k.k.k.k.k.k.k.k.k.k.k.k.j.j.j.j.j.d.d.d.d.d.d.d.d.d.t.*                         p } } } } } } '.'.'.'.'.'.'.'.'.'.'.'.'.'.'.'.'.'.'.'.",
"'.'.'.'.'.'.'.'.'.'.'.'.'.'.'.'.'.'.'.} } } } } } ]                           ;._._._._._._._._._._._._._./././././.~.~.E.!.!.E.E.E.E.E.E.E.E.T.T.T.T.T.T.T.T.T.P.P.P.P.P.P.P.P.K.H.H.H.H.H.H.H.H.H.H.S                                                                                                                 C B.B.N.N.m.m.m.m.m.m.M.M.n.v.n.v.v.v.v.v.v.v.v.v.v.v.v.l.k.k.k.k.k.k.k.k.k.k.k.k.k.k.k.j.j.j.j.j.d.d.d.d.d.d.d.d.d.d.d.I                           ] } } } } } } '.'.'.'.'.'.'.'.'.'.'.'.'.'.'.'.'.'.'.",
"'.'.'.'.'.'.'.'.'.'.'.'.'.'.'.'.'.'.'.} } } } } } y                         8 _._._._._._._._._._._._._./././././.~./.!.!.!.E.E.E.E.E.E.E.E.T.T.T.T.T.T.T.T.T.P.P.P.P.P.K.K.P.P.G.G.H.H.H.H.H.H.H.Z.Z                                                                                                                     Z m.N.m.m.m.m.m.m.M.n.M.n.n.v.v.v.v.v.v.v.v.v.v.v.v.v.z.l.k.k.k.k.k.k.k.k.k.k.k.k.k.j.j.j.j.j.d.d.d.d.d.d.d.d.d.d.d.s.s.5                         i } } } } } } '.'.'.'.'.'.'.'.'.'.'.'.'.'.'.'.'.'.'.",
"'.'.'.'.'.'.'.'.'.'.'.'.'.'.'.'.'.'.} } } } } } {                           r._._._._._._._._._._._._./././././.~.~.!.!.!.!.E.E.E.E.E.E.E.T.T.T.T.T.T.T.T.T.P.P.P.P.P.K.K.K.P.G.G.G.H.H.H.H.H.H.Z.b                                                                                                                         x b.m.m.m.m.m.M.n.n.v.v.v.v.v.v.v.v.v.v.v.v.z.z.v.v.l.k.k.k.k.k.k.k.k.k.k.k.j.k.j.j.j.j.j.j.d.d.d.d.d.d.d.d.d.d.s.s.s.#.                          [ } } } } } } '.'.'.'.'.'.'.'.'.'.'.'.'.'.'.'.'.'.",
"'.'.'.'.'.'.'.'.'.'.'.'.'.'.'.'.'.'.} } } } } } d                         x _._._._._._._._._._._._./././././.~.~.E.E.E.E.E.E.E.E.E.E.E.T.T.T.T.T.T.T.T.T.P.P.P.P.P.K.K.K.K.H.H.G.H.H.H.H.H.H.Z.z                                                                                                                             r v.m.m.m.M.n.n.v.v.v.v.v.v.v.v.v.v.v.v.z.z.l.k.k.k.k.k.k.k.k.k.k.k.k.k.k.k.j.j.j.j.j.d.d.d.d.d.d.d.d.d.d.d.s.s.s.s.s.0                         f } } } } } } '.'.'.'.'.'.'.'.'.'.'.'.'.'.'.'.'.'.",
"'.'.'.'.'.'.'.'.'.'.'.'.'.'.'.'.'.} } } } } } }                           i._._._._._._._._._._._./././././.~.~.E.E.E.E.E.E.E.E.E.E.E.T.T.T.T.T.T.T.T.T.P.P.P.P.P.K.K.K.K.H.H.H.H.H.H.H.H.H.A.B                                                                                                                                 v M.m.M.M.n.v.v.v.v.v.v.v.v.v.v.v.v.z.v.l.k.l.k.k.k.k.k.k.k.k.k.k.k.k.k.j.j.j.j.j.d.d.d.d.d.d.d.d.d.d.d.s.s.s.s.s.s.#.                          } } } } } } } '.'.'.'.'.'.'.'.'.'.'.'.'.'.'.'.'.",
"'.'.'.'.'.'.'.'.'.'.'.'.'.'.'.'.'.} } } } } } E                         c _._._._._._._._._._._./././././.~.~.E.E.E.E.E.E.E.E.E.E.E.T.T.T.T.T.T.T.T.T.P.P.P.P.P.K.K.K.K.G.G.G.H.H.H.H.H.H.H.K                                                                                                                                     V M.M.M.n.v.v.v.v.v.v.v.v.v.v.v.v.v.z.z.l.k.k.k.k.k.k.k.k.k.k.k.j.k.j.j.j.j.j.d.d.d.d.d.d.d.d.d.d.d.s.s.s.s.s.s.a.u.q                         Q } } } } } } '.'.'.'.'.'.'.'.'.'.'.'.'.'.'.'.'.",
"'.'.'.'.'.'.'.'.'.'.'.'.'.'.'.'.'.} } } } } } .                         f._._._._._._._._._._./././././.~.~.E.E.E.E.E.E.E.E.E.E.E.T.T.T.T.T.T.T.T.T.P.P.P.P.P.K.K.K.K.H.G.G.H.H.H.H.H.H.H.T                                                                                                                                         U M.v.v.v.v.v.v.v.v.v.v.v.v.v.v.z.z.l.k.k.k.k.k.k.k.k.k.k.k.j.k.j.j.j.j.j.d.d.d.d.d.d.d.d.d.d.d.s.s.s.s.s.s.a.u.y.%.                        . } } } } } } '.'.'.'.'.'.'.'.'.'.'.'.'.'.'.'.'.",
"'.'.'.'.'.'.'.'.'.'.'.'.'.'.'.'.} } } } } } (                         x _._._._._._._._._._./././././.~.~.E.E.E.!.E.E.E.E.E.E.E.T.T.T.T.T.T.T.T.T.P.P.P.P.P.K.K.P.P.G.G.G.H.H.H.H.H.H.H.r.O                                                                                                                                           ,.v.v.v.v.v.v.v.v.v.v.v.v.v.z.v.z.l.z.l.k.k.k.k.k.k.k.k.k.j.j.j.j.j.j.d.d.d.d.d.d.d.d.d.d.d.s.s.s.s.s.s.a.u.y.y.y.0                         ( } } } } } } '.'.'.'.'.'.'.'.'.'.'.'.'.'.'.'.",
"'.'.'.'.'.'.'.'.'.'.'.'.'.'.'.'.} } } } } } <                         q._._._._._._._._._./././././.~.~.!.E.E.E.E.E.E.E.E.E.E.T.T.T.T.T.T.T.T.T.P.P.P.P.P.K.K.K.P.G.G.G.H.H.H.H.H.H.H.m.-                                                                                                                                             = d.v.v.v.v.v.v.v.v.v.v.v.z.z.z.z.z.l.k.k.k.k.k.k.k.k.k.k.j.j.j.j.j.d.d.d.d.d.d.d.d.d.d.d.s.s.s.s.s.s.a.u.y.y.y.y.X.                        1 } } } } } } '.'.'.'.'.'.'.'.'.'.'.'.'.'.'.'.",
"'.'.'.'.'.'.'.'.'.'.'.'.'.'.'.} } } } } } {                         8 _._._._._._._._._./././././.~./.!.!.!.!.E.E.E.E.E.E.E.T.T.T.T.T.T.T.T.T.P.P.P.P.P.K.K.K.K.G.G.G.H.H.H.H.H.H.H.A.x                                                                                                                                                 l v.v.v.v.v.v.v.v.v.v.z.v.z.k.k.k.k.k.k.k.k.k.k.k.k.k.j.j.j.j.j.d.d.d.d.d.d.d.d.d.d.d.s.s.s.s.s.s.a.u.y.y.y.y.y.y.4                         { } } } } } } '.'.'.'.'.'.'.'.'.'.'.'.'.'.'.",
"'.'.'.'.'.'.'.'.'.'.'.'.'.'.'.} } } } } } h                         ;._._._._._._._._./././././././.!.!.!.!.E.E.E.E.E.E.E.T.T.T.T.T.T.T.T.T.P.P.P.P.P.K.K.K.K.G.G.G.H.H.H.H.H.H.H.H.+.                                                                                                                                                    X.v.v.v.v.v.v.v.v.z.z.l.z.k.k.k.k.k.k.k.k.k.k.k.k.j.j.j.j.j.d.d.d.d.d.d.d.d.d.d.d.s.s.s.s.s.s.a.u.y.y.y.y.y.y.y.L                         j } } } } } } '.'.'.'.'.'.'.'.'.'.'.'.'.'.'.",
"'.'.'.'.'.'.'.'.'.'.'.'.'.'.'.} } } } } } .                       * E._._._._._._._./././././.~./.E.!.!.!.E.E.E.E.E.E.E.T.T.T.T.T.T.T.T.T.P.P.P.P.P.K.K.P.P.G.G.G.H.H.H.H.H.H.H.H.m.*                                                                                                                                                     * d.v.v.v.v.v.v.z.z.l.k.k.k.k.k.k.k.k.k.k.k.k.k.j.j.j.j.j.d.d.d.d.d.d.d.d.d.s.s.s.s.s.s.s.s.a.u.y.y.y.y.y.y.y.y.w.%                       + } } } } } } '.'.'.'.'.'.'.'.'.'.'.'.'.'.'.",
"'.'.'.'.'.'.'.'.'.'.'.'.'.'.} } } } } } _                         J _._._._._._._./././././.~.~.!.E.!.!.E.E.E.E.E.E.E.T.T.T.T.T.T.T.T.T.P.P.P.P.P.K.K.K.P.G.G.G.H.H.H.H.H.H.H.H.H.Z                                                                 O 0 B I ..$.$...I M 9 O                                                                 V v.v.v.v.v.z.z.l.k.k.k.k.k.k.k.k.k.k.k.k.k.j.j.j.j.j.d.d.d.d.d.d.d.d.d.d.d.s.s.s.s.s.s.a.u.y.y.y.y.y.y.y.y.r.t.M                         _ } } } } } } '.'.'.'.'.'.'.'.'.'.'.'.'.'.",
"'.'.'.'.'.'.'.'.'.'.'.'.'.'.} } } } } } s                         x._._._._._._./././././.~.~.E.E.E.E.E.E.E.E.E.E.E.T.T.T.T.T.T.T.T.T.P.P.P.P.P.K.K.K.K.G.G.G.H.H.H.H.H.H.H.H.H.r.                                                            X B ,.m.C.C.C.C.C.C.B.B.B.B.v.-.M X                                                             1.v.v.v.z.z.l.z.z.l.k.k.k.k.k.k.k.k.j.k.j.j.j.j.j.d.d.d.d.d.d.d.d.d.d.d.s.s.s.s.s.s.a.u.y.y.y.y.y.y.y.y.r.t.t.*.                        d } } } } } } '.'.'.'.'.'.'.'.'.'.'.'.'.'.",
"'.'.'.'.'.'.'.'.'.'.'.'.'.'.} } } } } } .                       r _._._._._._./././././.~.~.E.E.E.E.E.E.E.E.E.E.E.T.T.T.T.T.T.T.T.Y.P.P.P.P.P.K.K.K.K.H.G.G.H.H.H.H.H.H.H.H.H.A.c                                                         = T n.Z.Z.C.C.C.C.C.C.B.B.B.B.B.B.B.B.b.Y *                                                         z z.v.z.z.z.z.z.l.k.k.k.k.k.k.k.k.j.k.j.j.j.j.j.d.d.d.d.d.d.d.d.d.d.d.s.s.s.s.s.s.a.u.y.y.y.y.y.y.y.y.r.t.t.t.t.7                       . } } } } } } '.'.'.'.'.'.'.'.'.'.'.'.'.'.",
"'.'.'.'.'.'.'.'.'.'.'.'.'.} } } } } } )                         -._._._._._././././././.~.E.E.E.E.E.E.E.E.E.E.E.T.T.T.T.T.T.T.T.Y.K.P.P.P.P.K.K.K.K.G.G.G.H.H.H.H.H.H.H.H.H.A.i.                                                      X L N.Z.Z.Z.C.C.C.C.C.C.B.B.B.B.B.B.B.B.B.B.B.v.H O                                                       4.l.z.l.k.k.l.k.k.k.k.k.k.k.k.j.j.j.j.j.j.j.d.d.d.d.d.d.d.d.d.d.d.s.s.s.s.s.s.a.u.y.y.y.y.y.y.y.y.t.t.t.t.t.t.I                         _ } } } } } } '.'.'.'.'.'.'.'.'.'.'.'.'.",
"'.'.'.'.'.'.'.'.'.'.'.'.'.} } } } } } p                       o K._._._._./././././././.E.E.E.E.E.E.E.E.E.E.E.T.T.T.T.T.T.T.T.T.P.K.P.P.P.K.K.K.K.H.G.G.H.H.H.H.H.H.H.H.H.A.A.n                                                     8 i.Z.Z.Z.Z.C.C.C.C.C.C.B.B.B.B.B.B.B.B.B.B.B.B.B.B.r.7                                                     c k.l.k.k.l.k.k.k.k.k.k.k.k.k.k.j.j.j.j.j.d.d.d.d.d.d.d.d.d.d.d.s.s.s.s.s.s.a.u.y.y.y.y.y.y.y.y.y.t.t.t.t.t.t.5.X                       s } } } } } } '.'.'.'.'.'.'.'.'.'.'.'.'.",
"'.'.'.'.'.'.'.'.'.'.'.'.'.} } } } } } .                       B _._._._./././././.~./.!.E.E.E.E.E.E.E.E.E.E.T.T.T.T.T.T.T.T.T.P.P.P.P.P.K.K.K.K.H.G.G.H.H.H.H.H.H.H.H.H.A.A.h.                                                    B m.Z.Z.Z.Z.C.C.C.C.C.C.B.B.B.B.B.B.B.B.B.B.B.B.B.B.B.B.v.n                                                     e.k.k.k.k.k.k.k.k.k.k.k.k.k.j.j.j.j.j.d.d.d.d.d.d.d.d.d.d.d.s.s.s.s.s.s.a.u.y.y.y.y.y.y.y.y.r.t.t.t.t.t.t.t.w.e                       . } } } } } } '.'.'.'.'.'.'.'.'.'.'.'.'.",
"'.'.'.'.'.'.'.'.'.'.'.'.} } } } } } '                         1._._._./././././.~.~.!.!.E.E.E.E.E.E.E.E.E.T.T.T.T.T.T.T.T.T.P.P.P.P.P.K.K.K.K.H.H.H.H.H.H.H.H.H.H.H.H.A.A.A.I                                                   G C.Z.Z.Z.Z.C.C.C.C.C.C.B.B.B.B.B.B.B.B.B.B.B.B.B.B.B.B.B.N.m.D                                                   G k.k.k.k.k.k.k.k.k.k.k.k.j.j.j.j.j.d.d.d.d.d.d.d.d.d.d.d.s.s.s.s.s.s.a.u.y.y.y.y.y.y.y.y.r.t.t.t.t.t.t.t.w.w.U                         ' } } } } } '.'.'.'.'.'.'.'.'.'.'.'.'.",
"'.'.'.'.'.'.'.'.'.'.'.'.} } } } } } j                       o K._._./././././.~.~.E.E.E.E.E.E.E.E.E.E.E.T.T.T.T.T.T.T.T.T.P.P.P.P.P.K.K.P.P.G.G.G.H.H.H.H.H.H.H.H.H.A.A.A.A.5                                                 G Z.Z.Z.Z.Z.C.C.C.C.C.C.B.B.B.B.B.B.B.B.B.B.B.B.B.B.N.N.N.N.N.m.m.D                                                 - k.k.k.k.k.k.k.k.k.k.k.j.j.j.j.j.d.d.d.d.d.d.d.d.d.d.d.s.s.s.s.s.s.a.u.y.y.y.y.y.y.y.y.r.t.t.t.t.t.t.t.w.w.w.5.X                       E } } } } } } '.'.'.'.'.'.'.'.'.'.'.'.",
"'.'.'.'.'.'.'.'.'.'.'.'.} } } } } } >                       B _._./././././.~.~.E.E.E.E.E.E.E.E.E.E.E.T.T.T.T.T.T.T.T.T.P.P.P.P.P.K.K.K.P.G.G.G.H.H.H.H.H.H.H.H.H.A.A.A.A.q.                                                b C.Z.Z.Z.Z.C.C.C.C.C.C.B.B.B.B.B.B.B.B.B.B.B.B.B.N.N.N.N.m.N.m.m.m.m.v                                                 >.k.k.k.k.k.k.k.k.k.j.j.j.j.j.d.d.d.d.d.d.d.d.d.d.d.s.s.s.s.s.s.a.u.y.y.y.y.y.y.y.y.r.t.t.t.t.t.t.t.w.w.w.w.w.r                       > } } } } } } '.'.'.'.'.'.'.'.'.'.'.'.",
"'.'.'.'.'.'.'.'.'.'.'.'.} } } } } }                         -._./././././.~.~.E.E.E.E.E.E.E.E.E.E.E.T.T.T.T.T.T.T.T.T.P.P.P.P.P.K.K.K.K.G.G.G.H.H.H.H.H.H.H.H.H.A.A.A.A.A.Z                                               5 m.Z.C.Z.Z.C.C.C.C.C.C.B.B.B.B.B.B.B.B.B.B.B.B.B.B.N.N.N.m.N.m.m.m.m.m.k.4                                               V k.k.k.k.k.k.k.k.j.j.j.j.j.d.d.d.d.d.d.d.d.d.d.d.s.s.s.s.s.s.a.u.y.y.y.y.y.y.y.y.r.t.t.t.t.t.t.t.w.w.w.w.w.w.L                         } } } } } } '.'.'.'.'.'.'.'.'.'.'.'.",
"'.'.'.'.'.'.'.'.'.'.'.} } } } } } (                         C./././././.~.~.E.E.E.E.E.E.E.E.E.E.E.T.T.T.T.T.T.T.T.T.P.P.P.P.P.K.K.K.K.G.G.G.H.H.H.H.H.H.H.H.H.A.A.A.A.A.A.4                                               r.Z.Z.C.Z.C.C.C.C.C.C.B.B.B.B.B.B.B.B.B.B.B.B.B.B.N.N.B.m.m.m.m.m.m.M.m.M.8.                                              - k.k.k.k.k.k.k.j.j.j.j.j.j.d.d.d.d.d.d.d.d.d.d.s.s.s.s.s.s.a.u.y.y.y.y.y.y.y.y.r.t.t.t.t.t.t.t.w.w.w.w.w.w.w.<.                        ( } } } } } } '.'.'.'.'.'.'.'.'.'.'.",
"'.'.'.'.'.'.'.'.'.'.'.} } } } } } d                       w /././././.~.~.E.E.E.!.E.E.E.E.E.E.E.T.T.T.T.T.T.T.T.T.P.P.P.P.P.K.K.K.K.H.H.G.H.H.H.H.H.H.H.H.H.A.A.A.A.A.A.k.                                              D Z.Z.Z.C.C.C.C.C.C.C.B.B.B.B.B.B.B.B.B.B.B.B.B.B.N.N.N.N.N.m.m.m.m.M.M.M.n.n.Z                                               w.k.k.k.k.k.j.j.j.j.j.d.j.d.d.d.d.d.d.d.d.d.s.s.s.s.s.s.a.u.y.y.y.y.y.y.y.y.r.t.t.t.t.t.t.t.w.w.w.w.w.w.w.w.0.5                       f } } } } } } '.'.'.'.'.'.'.'.'.'.'.",
"'.'.'.'.'.'.'.'.'.'.'.} } } } } } #                       Y /./././.~.~.!.E.E.E.E.E.E.E.E.E.E.T.T.T.T.T.T.T.T.T.P.P.P.P.P.K.K.K.K.H.H.H.H.H.H.H.H.H.H.H.H.A.A.A.A.A.A.A.$.                                            o b.Z.Z.Z.C.C.C.B.C.C.B.B.B.B.B.B.B.B.B.B.B.B.B.B.N.N.N.N.N.m.m.m.m.m.m.M.n.n.v.k.o                                             | k.k.k.k.j.j.j.d.j.d.d.d.d.d.d.d.d.d.d.d.s.s.s.s.s.s.a.u.y.y.y.y.y.y.y.y.r.t.t.t.t.t.t.t.w.w.w.w.w.w.0.6.0.6.N                       : } } } } } } '.'.'.'.'.'.'.'.'.'.'.",
"'.'.'.'.'.'.'.'.'.'.'.} } } } } }                         i./././.~./.!.!.!.!.E.E.E.E.E.E.E.T.T.T.T.T.T.T.T.T.P.P.P.P.P.K.K.K.K.G.G.H.H.H.H.H.H.H.H.H.H.A.A.A.A.A.A.A.A.B                                             H Z.Z.Z.C.C.B.C.C.C.B.B.B.B.B.B.B.B.B.B.B.B.B.B.B.B.B.N.N.m.m.m.m.M.M.M.M.n.v.v.v.D                                             v k.k.k.j.j.j.j.j.d.d.d.d.d.d.d.d.d.d.d.s.s.s.s.s.s.a.u.y.y.y.y.y.y.y.y.r.t.t.t.t.t.t.t.w.w.w.w.w.w.w.6.5.6.5.X.                        } } } } } } '.'.'.'.'.'.'.'.'.'.'.",
"'.'.'.'.'.'.'.'.'.'.'.} } } } } _                       X T././././.!.!.!.!.E.E.E.E.E.E.E.T.T.T.T.T.T.T.T.T.P.P.P.P.P.K.K.K.K.G.G.G.H.H.H.H.H.H.H.H.H.A.A.A.A.A.A.A.A.A.7                                             k.Z.Z.C.C.B.B.C.C.B.B.B.B.B.B.B.B.B.B.B.B.B.B.B.B.B.N.N.m.m.m.m.m.M.M.M.M.v.v.v.v.i.                                            5 k.k.j.j.j.j.j.d.d.d.d.d.d.d.d.d.d.d.s.s.s.s.s.s.a.u.y.y.y.y.y.y.y.y.r.t.t.t.t.t.t.t.w.w.w.w.w.w.w.6.5.5.5.5.3.O                       _ } } } } } '.'.'.'.'.'.'.'.'.'.'.",
"'.'.'.'.'.'.'.'.'.'.} } } } } } j                       r /./.~./.E.!.!.!.E.E.E.E.E.E.E.T.T.T.T.T.T.T.T.T.P.P.P.P.P.K.K.P.P.G.G.G.H.H.H.H.H.H.H.H.H.A.A.A.A.A.A.A.A.A.Z.X                                           l Z.Z.C.C.C.C.C.C.B.B.B.B.B.B.B.B.B.B.B.B.B.B.N.N.B.N.N.m.m.m.m.m.m.M.m.n.v.v.v.v.v.v.w                                           X j.j.j.j.j.j.d.d.d.d.d.d.d.d.d.d.d.s.s.s.s.s.s.a.u.y.y.y.y.y.y.y.y.r.t.t.t.t.t.t.w.w.w.w.w.w.w.0.6.0.6.5.5.5.5.7                       j } } } } } } '.'.'.'.'.'.'.'.'.'.",
"'.'.'.'.'.'.'.'.'.'.} } } } } } 1                       I /.~.~.!.E.!.!.E.E.E.E.E.E.E.T.T.T.T.T.T.T.T.T.P.P.P.P.P.K.K.K.P.G.G.G.H.H.H.H.H.H.H.H.H.A.A.A.A.A.A.A.A.A.A.h.                                            O.Z.C.C.C.C.C.C.B.B.B.B.B.B.B.B.B.B.B.B.B.B.N.N.N.N.N.m.m.m.m.m.m.M.n.M.v.v.v.v.v.v.v.T                                             0.j.j.j.j.d.d.d.d.d.d.d.d.d.d.d.s.s.s.s.s.s.a.u.a.y.y.y.y.y.y.y.r.t.t.t.t.t.t.e.w.w.w.w.w.w.0.6.5.5.5.5.5.5.5.M                       1 } } } } } } '.'.'.'.'.'.'.'.'.'.",
"'.'.'.'.'.'.'.'.'.'.} } } } } } .                       7.~.~.E.E.E.E.E.E.E.E.E.E.E.T.T.T.T.T.T.T.T.T.P.P.P.P.P.K.K.K.K.G.G.G.H.H.H.H.H.H.H.H.H.A.A.A.A.A.A.A.A.A.A.Z.1.                                            d.C.C.C.C.C.C.B.B.B.B.B.B.B.B.B.B.B.B.B.B.N.N.N.N.N.m.m.m.m.m.m.m.M.n.v.v.v.v.v.v.v.v.w.                                            $.j.j.j.d.d.d.d.d.d.d.d.d.d.d.s.s.s.s.s.s.a.u.y.y.y.y.y.y.y.y.r.t.t.t.t.t.t.w.w.w.w.w.w.w.w.6.5.6.5.6.5.5.5.5.U                       . } } } } } } '.'.'.'.'.'.'.'.'.'.",
"'.'.'.'.'.'.'.'.'.'.} } } } } {                         C.~.E.E.E.E.E.E.E.E.E.E.E.T.T.T.T.T.T.T.T.Y.P.P.P.P.P.K.K.K.K.H.G.G.H.H.H.H.H.H.H.H.H.A.A.A.A.A.A.A.A.A.A.Z.Z.O.                                          * C.C.C.C.C.C.B.B.B.B.B.B.B.B.B.B.B.B.B.B.N.N.N.N.N.N.m.m.m.m.M.M.m.M.M.v.v.v.v.v.v.v.v.v.*                                           U j.j.d.d.d.d.d.d.d.d.d.d.d.s.s.s.s.s.s.a.u.y.y.y.y.y.y.y.y.r.t.t.t.t.t.t.e.w.w.w.w.w.w.w.w.5.5.0.5.5.5.5.5.5.>.                        } } } } } } '.'.'.'.'.'.'.'.'.'.",
"'.'.'.'.'.'.'.'.'.'.} } } } } _                       - ~.E.E.E.E.E.E.E.E.E.E.E.T.T.T.T.T.T.T.T.Y.K.P.P.P.P.K.K.K.K.G.G.G.H.H.H.H.H.H.H.H.H.A.A.A.A.A.A.A.A.A.A.Z.Z.Z.Y                                           w C.C.C.C.C.B.B.B.B.B.B.B.B.B.B.B.B.B.B.N.N.N.N.N.m.m.N.m.m.m.M.M.M.n.v.v.v.v.v.v.v.v.v.v.0                                           H j.d.d.d.d.d.d.d.d.d.d.d.s.s.s.s.s.s.a.u.y.y.y.y.y.y.y.y.r.t.t.t.t.t.t.t.w.w.w.w.w.w.w.w.w.w.0.6.5.5.5.5.5.5.5.*                       ` } } } } } '.'.'.'.'.'.'.'.'.'.",
"'.'.'.'.'.'.'.'.'.} } } } } } !                       c E.E.E.E.E.E.E.E.E.E.E.T.T.T.T.T.T.T.T.T.P.K.P.P.P.K.K.K.K.H.G.G.H.H.H.H.H.H.H.H.H.A.A.A.A.A.A.A.A.A.A.Z.Z.Z.Z.L                                           B C.C.C.C.B.B.B.B.B.B.B.B.B.B.B.B.B.B.N.N.N.m.N.m.m.m.m.m.m.M.M.M.n.v.v.v.v.v.v.v.v.v.v.v.n                                           D d.d.d.d.d.d.d.d.d.d.d.s.s.s.s.s.s.a.u.y.y.y.y.y.y.y.y.t.t.t.t.t.t.t.t.w.w.w.w.w.w.w.w.w.w.0.6.5.5.5.5.5.5.5.3.0                       ! } } } } } } '.'.'.'.'.'.'.'.'.",
"'.'.'.'.'.'.'.'.'.} } } } } } s                       I E.E.E.E.E.E.E.E.E.E.T.T.T.T.T.T.T.T.T.P.P.P.P.P.K.K.K.K.H.G.G.H.H.H.H.H.H.H.H.H.A.A.A.A.A.A.A.A.A.A.Z.Z.Z.Z.Z.D                                           D C.C.C.B.B.B.B.B.B.B.B.B.B.B.B.B.B.B.N.N.m.m.m.m.m.m.m.m.M.n.n.v.v.v.v.v.v.v.v.v.v.v.v.v.Z                                           V d.d.d.d.d.d.d.d.d.d.s.s.s.s.s.s.a.u.y.y.y.y.y.y.y.y.r.t.t.t.t.t.t.t.w.w.w.w.w.w.0.w.0.w.0.6.5.5.5.5.5.5.5.3.3.n                       d } } } } } } '.'.'.'.'.'.'.'.'.",
"'.'.'.'.'.'.'.'.'.} } } } } } ,                       -.!.E.E.E.E.E.E.E.E.T.T.T.T.T.T.T.T.T.P.P.P.P.P.K.K.K.K.H.H.H.H.H.H.H.H.H.H.H.H.A.A.A.A.A.A.A.A.A.A.Z.Z.Z.Z.Z.Z.V                                           L C.C.B.B.B.B.B.B.B.B.B.B.B.B.B.B.B.B.B.m.m.m.m.m.m.m.m.M.n.n.v.v.v.v.v.v.v.v.v.v.v.v.v.v.F                                           m d.d.d.d.d.d.d.d.d.s.s.s.s.s.s.a.u.y.y.y.y.y.y.y.y.r.t.t.t.t.t.t.t.w.w.w.w.w.w.0.6.0.6.5.5.5.5.5.5.5.5.5.3.3.5.P                       < } } } } } } '.'.'.'.'.'.'.'.'.",
"'.'.'.'.'.'.'.'.'.} } } } } } +                       h.E.E.E.E.E.E.E.E.T.T.T.T.T.T.T.T.T.P.P.P.P.P.K.K.P.P.G.G.G.H.H.H.H.H.H.H.H.H.A.A.A.A.A.A.A.A.A.A.Z.Z.Z.Z.Z.Z.Z.C                                           H C.B.B.B.B.B.B.B.B.B.B.B.B.B.B.N.N.B.N.N.m.m.m.m.m.m.M.M.n.v.v.v.v.v.v.v.v.v.v.v.v.v.v.z.D                                           n d.d.d.d.d.d.d.d.s.s.s.s.s.s.a.u.y.y.y.y.y.y.y.y.r.t.t.t.t.t.t.w.w.w.w.w.w.w.0.w.w.w.5.5.5.5.5.5.5.5.5.5.5.5.5.#.                      + } } } } } } '.'.'.'.'.'.'.'.'.",
"'.'.'.'.'.'.'.'.'.} } } } } }                         S.E.E.E.E.E.E.E.T.T.T.T.T.T.T.T.T.P.P.P.P.P.K.K.K.P.G.G.G.H.H.H.H.H.H.H.H.H.A.A.A.A.A.A.A.A.A.A.Z.Z.Z.Z.Z.Z.Z.Z.K                                           D B.B.B.B.B.B.B.B.B.B.B.B.B.B.N.N.N.m.N.m.m.m.m.m.m.M.M.M.v.v.v.v.v.v.v.v.v.v.v.v.v.v.z.z.V                                           C d.d.d.d.d.d.d.s.s.s.s.s.s.a.u.a.y.y.y.y.y.y.y.r.t.t.t.t.t.t.e.w.w.w.w.w.w.0.6.w.w.0.5.5.5.5.5.5.5.5.3.5.5.5.5.<.                        } } } } } } '.'.'.'.'.'.'.'.'.",
"'.'.'.'.'.'.'.'.'.} } } } } [                       * E.E.E.E.E.E.E.T.T.T.T.T.T.T.T.T.P.P.P.P.P.K.K.K.K.G.G.G.H.H.H.H.H.H.H.H.H.A.A.A.A.A.A.A.A.A.A.Z.Z.Z.Z.Z.Z.Z.Z.Z.L                                           b B.B.B.B.B.B.B.B.B.B.B.B.B.B.N.N.m.m.m.m.m.m.m.m.M.m.M.n.v.v.v.v.v.v.v.v.v.v.v.v.v.z.z.l.c                                           D d.d.d.d.d.d.s.s.s.s.s.s.a.u.y.y.y.y.y.y.y.y.r.t.t.t.t.t.t.w.w.w.w.w.w.w.w.6.5.w.0.6.5.5.5.5.5.5.5.3.3.5.5.5.5.5.o                       { } } } } } '.'.'.'.'.'.'.'.'.",
"'.'.'.'.'.'.'.'.'.} } } } } _                       q E.E.E.E.E.E.T.T.T.T.T.T.T.T.T.P.P.P.P.P.K.K.K.K.G.G.G.H.H.H.H.H.H.H.H.H.A.A.A.A.A.A.A.A.A.A.Z.Z.Z.Z.Z.Z.Z.Z.Z.Z.T                                           8 B.B.B.B.B.B.B.B.B.B.B.B.B.B.N.m.m.m.m.m.m.m.m.M.M.M.n.v.v.v.v.v.v.v.v.v.v.v.v.v.z.z.l.k.6                                           H d.d.d.d.d.s.s.s.s.s.s.a.u.y.y.y.y.y.y.y.y.r.t.t.t.t.t.t.e.w.w.w.w.w.w.w.6.5.5.0.6.5.5.5.5.5.5.5.3.3.5.5.5.5.5.5.5                       ` } } } } } '.'.'.'.'.'.'.'.'.",
"'.'.'.'.'.'.'.'.'.} } } } } /                       n E.E.E.E.E.T.T.T.T.T.T.T.T.T.K.P.P.P.P.K.K.K.K.H.H.G.H.H.H.H.H.H.H.H.H.A.A.A.A.A.A.A.A.A.A.Z.Z.Z.Z.Z.Z.Z.Z.Z.Z.Z.+.                                          X N.B.B.B.B.B.B.B.B.B.B.N.N.B.N.N.m.m.m.m.M.M.m.M.n.M.v.v.v.v.v.v.v.v.v.v.v.z.z.l.k.k.k.k.X                                           Y d.d.d.d.s.s.s.s.s.s.a.u.y.y.y.y.y.y.y.y.t.t.t.t.t.t.t.t.w.w.w.w.w.w.0.6.0.6.5.5.5.5.5.5.5.5.5.3.3.5.5.5.5.5.5.5.e                       / } } } } } '.'.'.'.'.'.'.'.'.",
"'.'.'.'.'.'.'.'.} } } } } } W                       J E.E.E.E.T.T.T.T.T.T.T.T.T.P.K.P.P.P.K.K.K.K.H.H.H.H.H.H.H.H.H.H.H.H.A.A.A.A.A.A.A.A.A.A.Z.Z.Z.Z.Z.Z.Z.Z.Z.Z.Z.Z.8.                                            0.B.B.B.B.B.B.B.B.B.N.N.N.m.N.m.m.m.m.m.M.M.m.M.n.n.v.v.v.v.v.v.v.v.v.v.v.v.l.k.k.k.k.>.                                            &.d.d.d.s.s.s.s.s.s.a.u.y.y.y.y.y.y.y.y.y.t.t.t.t.w.t.t.w.w.w.w.w.w.w.w.0.6.5.5.5.5.5.5.5.5.5.3.3.5.5.5.5.5.5.6.5.n                       ! } } } } } } '.'.'.'.'.'.'.'.",
"'.'.'.'.'.'.'.'.} } } } } } h                        .E.E.E.T.T.T.T.T.T.T.T.T.P.P.P.P.P.K.K.K.K.G.G.H.H.H.H.H.H.H.H.H.H.A.A.A.A.A.A.A.A.A.A.Z.Z.Z.Z.Z.Z.Z.Z.Z.Z.Z.Z.Z.v.                                            I B.B.B.B.B.B.B.B.N.N.N.m.m.m.m.m.m.M.m.M.M.n.v.v.v.v.v.v.v.v.v.v.v.v.v.v.z.z.l.k.k.k.G                                             w.d.d.s.s.s.s.s.s.a.u.y.y.y.y.y.y.y.y.r.t.t.t.t.t.t.e.w.w.w.w.w.w.w.w.w.6.5.5.5.5.5.5.5.5.5.3.3.5.5.5.5.5.5.5.5.5.A                       j } } } } } } '.'.'.'.'.'.'.'.",
"'.'.'.'.'.'.'.'.} } } } } } s                       &.E.E.T.T.T.T.T.T.T.T.T.P.P.P.P.P.K.K.K.K.H.G.G.H.H.H.H.H.H.H.H.H.A.A.A.A.A.A.A.A.A.A.Z.Z.Z.Z.Z.Z.Z.Z.Z.Z.Z.Z.Z.Z.Z.*                                           5 B.B.B.B.B.B.B.N.N.N.m.m.m.m.m.m.M.M.M.M.M.v.v.v.v.v.v.v.v.v.v.v.v.v.v.z.z.l.k.k.k.k.5                                           & d.d.s.s.s.s.s.s.a.u.y.y.y.y.y.y.y.y.r.t.t.t.t.t.t.e.w.w.w.w.w.w.w.w.w.w.5.5.5.5.5.5.5.5.5.3.3.5.5.5.5.5.5.5.5.5.0.H                       d } } } } } } '.'.'.'.'.'.'.'.",
"'.'.'.'.'.'.'.'.} } } } } } y                       1.E.T.T.T.T.T.T.T.T.T.P.P.P.P.P.K.K.P.P.G.G.G.H.H.H.H.H.H.H.H.H.A.A.A.A.A.A.A.A.A.A.Z.Z.Z.Z.Z.Z.Z.Z.Z.Z.Z.Z.Z.Z.Z.Z.q                                             8.B.B.B.B.B.N.N.N.N.N.m.m.N.m.M.M.M.M.M.v.v.v.v.v.v.v.v.v.v.v.v.v.v.v.v.z.z.z.k.k.,.                                            8 d.s.s.s.s.s.s.a.u.y.y.y.y.y.y.y.y.r.t.t.t.t.t.t.t.w.w.w.w.w.w.w.w.5.6.5.5.5.5.5.5.5.5.5.3.3.5.5.5.5.5.5.5.5.5.0.w.Y                       y } } } } } } '.'.'.'.'.'.'.'.",
"'.'.'.'.'.'.'.'.} } } } } } ,                       r.T.T.T.T.T.T.T.T.T.P.P.P.P.P.K.K.K.P.G.G.G.H.H.H.H.H.H.H.H.H.A.A.A.A.A.A.A.A.A.A.Z.Z.Z.Z.Z.Z.Z.Z.Z.Z.Z.Z.Z.Z.Z.Z.Z.D                                             c B.B.B.B.N.N.N.N.N.m.m.m.m.M.M.M.M.M.v.v.v.v.v.v.v.v.v.v.v.v.v.v.z.v.z.z.z.l.k.k.l                                             V s.s.s.s.s.s.a.u.y.y.y.y.y.y.y.y.r.t.t.t.t.t.t.t.w.w.w.w.w.w.w.w.5.5.5.5.5.5.5.5.5.5.5.3.3.5.5.5.5.5.5.5.5.5.0.w.w.X.                      , } } } } } } '.'.'.'.'.'.'.'.",
"'.'.'.'.'.'.'.'.} } } } } } :                       h.T.T.T.T.T.T.T.T.P.P.P.P.P.K.K.K.K.G.G.G.H.H.H.H.H.H.H.H.H.A.A.A.A.A.A.A.A.A.A.Z.Z.Z.Z.Z.Z.Z.Z.Z.Z.Z.Z.Z.Z.Z.Z.Z.Z.-.                                              r.B.B.B.N.N.N.N.m.m.m.m.m.m.M.M.n.v.v.v.v.v.v.v.v.v.v.v.v.v.v.z.z.l.z.z.l.k.k.3.                                              X.s.s.s.s.s.a.u.y.y.y.y.y.y.y.y.r.t.t.t.t.t.t.t.w.w.w.w.w.w.0.w.0.6.5.5.5.5.5.5.5.5.5.3.3.5.5.5.5.5.5.5.5.5.5.5.0.w.&.                      : } } } } } } '.'.'.'.'.'.'.'.",
"'.'.'.'.'.'.'.'.} } } } } } $                       b.T.T.T.T.T.T.T.P.P.P.P.P.K.K.K.K.G.G.G.H.H.H.H.H.H.H.H.H.A.A.A.A.A.A.A.A.A.A.Z.Z.Z.Z.Z.Z.Z.Z.Z.Z.Z.Z.Z.Z.Z.Z.Z.Z.Z.v.                                              q N.B.B.B.N.N.N.m.m.m.m.m.M.M.M.v.v.v.v.v.v.v.v.v.v.v.v.z.v.z.z.l.k.z.l.k.k.k.q                                               t.s.s.s.s.a.u.y.y.y.y.y.y.y.y.r.t.t.t.t.t.t.t.w.w.w.w.w.w.0.6.0.6.5.5.5.5.5.5.5.5.5.3.3.5.5.5.5.5.5.5.5.5.5.5.0.w.w.>.                      # } } } } } } '.'.'.'.'.'.'.'.",
"'.'.'.'.'.'.'.'.} } } } } } +                       m.T.T.T.T.T.T.P.P.P.P.P.P.P.K.K.H.H.G.H.H.H.H.H.H.H.H.H.A.A.A.A.A.A.A.A.A.A.Z.Z.Z.Z.Z.Z.Z.Z.Z.Z.Z.Z.Z.Z.Z.Z.Z.Z.Z.C.Z.0                                               X.N.N.N.N.m.m.m.m.m.m.M.n.n.n.v.v.v.v.v.v.v.v.v.v.v.v.z.l.k.k.k.k.k.k.k.k.Y                                               8 s.s.s.s.a.u.y.y.y.y.y.y.y.y.t.t.t.t.t.t.t.t.w.w.w.w.w.w.0.w.w.w.5.5.5.5.5.5.5.5.5.5.5.5.5.5.5.5.5.6.0.w.w.w.w.w.w.w.,.                      @ } } } } } } '.'.'.'.'.'.'.'.",
"'.'.'.'.'.'.'.'.} } } } } } .                       V.T.T.T.T.T.P.P.P.P.P.P.P.P.K.H.H.H.H.H.H.H.H.H.H.H.H.A.A.A.A.A.A.A.A.A.A.Z.Z.Z.Z.Z.Z.Z.Z.Z.Z.Z.Z.Z.Z.Z.Z.Z.Z.Z.Z.C.Z.I                                               X y.N.N.m.m.m.m.m.m.M.M.n.v.n.v.v.v.v.v.v.v.v.v.v.v.v.l.k.k.k.k.k.k.k.k.1.X                                               D s.s.s.a.u.y.y.y.y.y.y.y.y.y.t.t.t.t.t.t.e.w.w.w.w.w.w.0.6.w.w.5.5.5.5.5.5.5.5.5.5.3.5.5.5.5.5.5.5.0.w.w.w.w.w.w.w.w.3.                      . } } } } } } '.'.'.'.'.'.'.'.",
"'.'.'.'.'.'.'.'.} } } } } } .                       Z.T.T.T.T.P.P.P.P.P.K.K.P.P.G.G.H.H.H.H.H.H.H.H.H.H.A.A.A.A.A.A.A.A.A.A.Z.Z.Z.Z.Z.Z.Z.Z.Z.Z.Z.Z.Z.Z.Z.Z.Z.Z.Z.Z.Z.Z.Z.f.                                                5 k.m.m.m.m.m.m.M.n.M.n.n.v.v.v.v.v.v.v.v.v.v.v.v.v.z.l.k.k.k.k.k.k.u.-                                                 3.s.s.a.u.y.y.y.y.y.y.y.y.r.t.t.t.t.t.t.e.w.w.w.w.w.w.w.6.5.w.0.6.5.5.5.5.5.5.5.5.5.5.5.5.5.5.5.5.5.5.0.w.w.w.w.w.w.w.5.                      . } } } } } } '.'.'.'.'.'.'.'.",
"'.'.'.'.'.'.'.'.} } } } } }                         H.T.T.T.P.P.P.P.P.K.K.K.P.G.G.G.H.H.H.H.H.H.H.H.H.A.A.A.A.A.A.A.A.A.A.Z.Z.Z.Z.Z.Z.Z.Z.Z.Z.Z.Z.Z.Z.Z.Z.Z.Z.Z.Z.Z.Z.Z.Z.Z.w                                                 9 z.m.m.m.m.M.n.n.v.v.v.v.v.v.v.v.v.v.v.v.z.z.v.v.l.k.k.k.k.k.k.d.8                                                 0 s.s.a.u.y.y.y.y.y.y.y.y.r.t.t.t.t.t.t.t.w.w.w.w.w.w.w.6.5.5.0.6.5.5.5.5.5.5.5.3.5.5.5.5.5.5.5.6.5.5.0.w.w.w.w.w.w.w.w.w.                        } } } } } } '.'.'.'.'.'.'.'.",
"'.'.'.'.'.'.'.'.} } } } } }                         H.T.T.P.P.P.P.P.K.K.K.K.H.H.G.H.H.H.H.H.H.H.H.H.A.A.A.A.A.A.A.A.A.A.Z.Z.Z.Z.Z.Z.Z.Z.Z.Z.Z.Z.Z.Z.Z.Z.Z.Z.Z.C.C.C.Z.Z.Z.C.O.                                                  8 j.m.m.M.n.n.v.v.v.v.v.v.v.v.v.v.v.v.v.v.z.z.l.z.z.k.k.k.k.u.8                                                   U s.a.u.y.y.y.y.y.y.y.y.r.t.t.t.t.t.t.t.w.w.w.w.w.w.w.w.5.6.5.6.5.5.5.5.5.5.5.3.3.5.5.5.5.5.5.5.5.5.0.w.w.w.w.w.w.w.w.t.w.                        } } } } } } '.'.'.'.'.'.'.'.",
"'.'.'.'.'.'.'.'.} } } } } } .                       Z.T.P.P.P.P.P.K.K.K.K.H.G.H.H.H.H.H.H.H.H.H.H.A.A.A.A.A.A.A.A.A.A.Z.Z.Z.Z.Z.Z.Z.Z.Z.Z.Z.Z.Z.Z.Z.Z.Z.Z.Z.C.C.Z.C.Z.Z.C.C.v.o                                                   - 0.M.n.n.v.v.v.v.v.v.v.v.v.v.v.v.v.v.z.z.l.k.k.k.k.k.k.1.-                                                   o w.a.u.y.y.y.y.y.y.y.y.r.t.t.t.t.t.t.t.w.w.w.w.w.w.w.w.5.5.5.5.5.5.5.5.5.5.5.3.3.5.5.5.5.5.5.5.5.5.0.w.w.w.w.w.w.w.w.e.t.5.                      . } } } } } } '.'.'.'.'.'.'.'.",
"'.'.'.'.'.'.'.'.} } } } } } .                       V.P.P.P.P.P.K.K.K.K.G.G.G.H.H.H.H.H.H.H.H.H.A.A.A.A.A.A.A.A.A.A.Z.Z.Z.Z.Z.Z.Z.Z.Z.Z.Z.Z.Z.Z.Z.Z.Z.Z.Z.C.Z.Z.Z.Z.Z.C.C.B.B.L                                                     O Y v.v.v.v.v.v.v.v.v.v.v.v.v.z.v.z.z.l.k.k.k.k.k.k.I O                                                     S a.u.y.y.y.y.y.y.y.y.r.t.t.t.t.t.t.t.w.w.w.w.w.w.0.w.0.6.5.5.5.5.5.5.5.5.5.3.3.5.5.5.5.5.5.5.5.5.5.5.0.w.w.w.w.w.w.e.t.t.4.                      . } } } } } } '.'.'.'.'.'.'.'.",
"'.'.'.'.'.'.'.'.} } } } } } +                       m.P.P.P.P.K.K.K.K.H.G.G.H.H.H.H.H.H.H.H.H.A.A.A.A.A.A.A.A.A.A.Z.Z.Z.Z.Z.Z.Z.Z.Z.Z.Z.Z.Z.Z.Z.Z.Z.Z.Z.Z.Z.Z.Z.Z.Z.C.C.C.B.B.x.X                                                       8 ,.v.v.v.v.v.v.v.v.v.v.z.z.l.z.l.k.k.k.k.k.*.6                                                       X w.u.y.y.y.y.y.y.y.y.r.t.t.t.t.t.t.t.w.w.w.w.w.w.0.6.0.6.5.5.5.5.5.5.5.5.5.3.3.5.5.5.5.5.5.5.5.5.5.5.0.w.w.w.w.w.w.w.w.t.t.2.                      @ } } } } } } '.'.'.'.'.'.'.'.",
"'.'.'.'.'.'.'.'.} } } } } } $                       x.P.P.P.K.K.P.P.G.G.G.H.H.H.H.H.H.H.H.H.A.A.A.A.A.A.A.A.A.A.Z.Z.Z.Z.Z.Z.Z.Z.Z.Z.Z.Z.Z.Z.Z.Z.Z.Z.Z.C.C.C.Z.Z.Z.C.C.C.C.C.C.B.K                                                           q &.v.v.v.v.v.v.v.v.z.l.z.l.k.k.k.k.+.0                                                           V u.y.y.y.y.y.y.y.y.r.t.t.t.t.t.t.t.w.w.w.w.w.w.w.w.w.w.5.5.5.5.5.5.5.5.5.3.3.5.5.5.5.5.5.6.0.w.w.w.w.w.w.w.w.w.w.t.t.t.t.t.,.                      # } } } } } } '.'.'.'.'.'.'.'.",
"'.'.'.'.'.'.'.'.} } } } } } :                       h.P.P.K.K.K.P.G.G.G.H.H.H.H.H.H.H.H.H.A.A.A.A.A.A.A.A.A.A.Z.Z.Z.Z.Z.Z.Z.Z.Z.Z.Z.Z.Z.Z.Z.Z.Z.Z.Z.C.C.C.C.Z.Z.C.C.C.C.C.C.B.B.k.&                                                             * V +.d.v.v.v.v.l.k.l.k.u.X.M &                                                             o 0.y.y.y.y.y.y.y.y.r.t.t.t.t.t.t.t.w.w.w.w.w.w.0.6.w.w.5.5.5.5.5.5.5.5.5.5.3.5.5.5.5.5.5.5.0.w.w.w.w.w.w.w.w.w.w.t.t.t.t.t.r.*.                      : } } } } } } '.'.'.'.'.'.'.'.",
"'.'.'.'.'.'.'.'.} } } } } } ,                       r.P.K.K.K.K.G.G.G.H.H.H.H.H.H.H.H.H.A.A.A.A.A.A.A.A.A.A.Z.Z.Z.Z.Z.Z.Z.Z.Z.Z.Z.Z.Z.Z.Z.Z.Z.Z.Z.Z.Z.C.C.Z.Z.C.C.C.C.C.C.B.B.B.B...                                                                    o 3 - - - - - o                                                                     I y.y.y.y.y.y.y.y.r.t.t.t.t.t.t.t.w.w.w.w.w.w.w.6.5.w.0.6.5.5.5.5.5.5.5.5.5.5.5.5.5.5.5.5.5.5.0.w.w.w.w.w.w.w.w.t.t.t.t.t.r.r.#.                      , } } } } } } '.'.'.'.'.'.'.'.",
"'.'.'.'.'.'.'.'.} } } } } } y                       ,.K.K.K.K.H.G.G.H.H.H.H.H.H.H.H.H.A.A.A.A.A.A.A.A.A.A.Z.Z.Z.Z.Z.Z.Z.Z.Z.Z.Z.Z.Z.Z.Z.Z.Z.Z.Z.Z.Z.Z.Z.C.C.C.C.C.C.C.C.B.B.B.B.B.B.9                                                                                                                                                     6 y.y.y.y.y.y.y.y.r.t.t.t.t.t.t.t.w.w.w.w.w.w.w.6.5.5.0.6.5.5.5.5.5.5.5.5.5.5.5.5.5.5.5.6.5.5.0.w.w.w.w.w.w.w.w.t.t.t.t.t.r.r.y.|                       y } } } } } } '.'.'.'.'.'.'.'.",
"'.'.'.'.'.'.'.'.} } } } } } d                       $.K.P.P.G.G.G.H.H.H.H.H.H.H.H.H.A.A.A.A.A.A.A.A.A.A.Z.Z.Z.Z.Z.Z.Z.Z.Z.Z.Z.Z.Z.Z.Z.Z.Z.Z.Z.Z.Z.Z.Z.Z.Z.C.C.C.C.C.C.B.B.B.B.B.B.B.q.                                                                                                                                                    *.y.y.y.y.y.y.y.r.t.t.t.t.t.t.w.w.w.w.w.w.w.0.6.0.6.5.5.5.5.5.5.5.5.5.5.5.5.5.5.5.5.5.6.0.0.0.w.w.w.w.w.w.w.w.t.t.t.t.t.r.r.y.y.L                       d } } } } } } '.'.'.'.'.'.'.'.",
"'.'.'.'.'.'.'.'.} } } } } } h                       R K.P.G.G.G.H.H.H.H.H.H.H.H.H.A.A.A.A.A.A.A.A.A.A.Z.Z.Z.Z.Z.Z.Z.Z.Z.Z.Z.Z.Z.Z.Z.Z.Z.Z.Z.Z.Z.Z.Z.Z.Z.C.C.C.C.C.C.B.B.B.B.B.B.B.B.B.L                                                                                                                                                 D y.y.y.y.y.y.y.r.t.t.t.t.t.t.e.w.w.w.w.w.w.0.6.5.5.5.5.5.5.5.5.5.5.5.3.5.5.5.5.5.5.5.6.0.w.0.w.w.w.w.w.w.w.w.w.t.t.t.t.r.r.y.y.y.D                       j } } } } } } '.'.'.'.'.'.'.'.",
"'.'.'.'.'.'.'.'.} } } } } } !                       H K.G.G.G.H.H.H.H.H.H.H.H.H.A.A.A.A.A.A.A.A.A.A.Z.Z.Z.Z.Z.Z.Z.Z.Z.Z.Z.Z.Z.Z.Z.Z.Z.Z.Z.C.Z.Z.Z.Z.Z.C.C.C.C.C.C.B.B.B.B.B.B.B.B.B.B.N.r                                                                                                                                             9 y.y.y.y.y.y.y.r.t.t.t.t.t.t.w.w.w.w.w.w.w.w.6.5.6.5.6.5.5.5.5.5.5.5.5.5.5.5.5.5.5.5.6.0.5.0.w.w.w.w.w.w.w.w.w.w.t.t.t.y.r.y.y.y.y.M                       ! } } } } } } '.'.'.'.'.'.'.'.",
"'.'.'.'.'.'.'.'.'.} } } } } /                       b G.G.G.H.H.H.H.H.H.H.H.H.A.A.A.A.A.A.A.A.A.A.Z.Z.Z.Z.Z.Z.Z.Z.Z.Z.Z.Z.Z.Z.Z.Z.Z.Z.Z.C.C.Z.Z.Z.Z.C.C.C.C.C.C.B.B.B.B.B.B.B.B.B.B.B.B.k.*                                                                                                                                         * 3.y.y.y.y.y.y.r.t.t.t.t.t.t.e.w.w.w.w.w.w.w.w.5.5.0.5.5.5.5.5.5.5.5.5.5.5.5.5.5.5.5.5.0.5.0.w.w.w.w.w.w.w.w.w.w.t.t.t.y.y.y.y.y.y.y.r                       / } } } } } '.'.'.'.'.'.'.'.'.",
"'.'.'.'.'.'.'.'.'.} } } } } _                       0 H.G.H.H.H.H.H.H.H.H.H.A.A.A.A.A.A.A.A.A.A.Z.Z.Z.Z.Z.Z.Z.Z.Z.Z.Z.Z.Z.Z.Z.Z.Z.Z.Z.Z.Z.Z.Z.Z.Z.C.C.B.C.C.C.B.B.B.B.B.B.B.B.B.B.B.B.B.B.1.X                                                                                                                                     O #.y.y.y.y.y.y.r.t.t.t.t.t.t.t.w.w.w.w.w.w.w.w.w.w.0.6.5.5.5.5.5.5.5.5.5.5.5.5.5.5.5.5.5.5.0.5.0.w.w.w.w.w.w.e.t.t.t.t.r.y.y.y.y.y.y.u.5                       ` } } } } } '.'.'.'.'.'.'.'.'.",
"'.'.'.'.'.'.'.'.'.} } } } } {                       * H.H.H.H.H.H.H.H.H.H.A.A.A.A.A.A.A.A.A.A.Z.Z.Z.Z.Z.Z.Z.Z.Z.Z.Z.Z.Z.Z.Z.Z.Z.Z.Z.C.Z.Z.Z.Z.Z.C.C.B.B.C.C.B.B.B.B.B.B.B.B.B.B.B.B.B.B.N.N.*.                                                                                                                                    | y.y.y.y.y.y.t.t.t.t.t.t.t.t.w.w.w.w.w.w.w.w.w.w.0.6.5.5.5.5.5.5.5.3.5.5.5.5.5.5.5.5.5.5.0.w.0.w.w.w.w.w.w.w.t.t.t.t.r.r.y.y.y.y.y.y.u.o                       { } } } } } '.'.'.'.'.'.'.'.'.",
"'.'.'.'.'.'.'.'.'.} } } } } }                         V.H.H.H.H.H.H.H.H.A.A.A.A.A.A.A.A.A.A.Z.Z.Z.Z.Z.Z.Z.Z.Z.Z.Z.Z.Z.Z.Z.Z.Z.Z.Z.C.C.Z.Z.Z.Z.C.C.B.B.B.C.B.B.B.B.B.B.B.B.B.B.B.B.B.B.N.N.N.m.O.                                                                                                                                I y.y.y.y.y.y.r.t.t.t.t.t.t.t.w.w.w.w.w.w.0.w.0.w.0.6.5.5.5.5.5.5.5.3.3.5.5.5.5.5.5.5.5.5.5.5.0.w.w.w.w.w.w.w.w.t.t.t.r.r.y.y.y.y.y.y.a.w.                        } } } } } } '.'.'.'.'.'.'.'.'.",
"'.'.'.'.'.'.'.'.'.} } } } } } +                       i.H.H.H.H.H.H.H.A.A.A.A.A.A.A.A.A.A.Z.Z.Z.Z.Z.Z.Z.Z.Z.Z.Z.Z.Z.Z.Z.Z.Z.Z.Z.C.C.C.Z.Z.Z.C.C.B.B.B.B.B.B.B.B.B.B.B.B.B.B.B.B.B.B.N.N.N.m.N.m.Y                                                                                                                             G y.y.y.y.y.y.r.t.t.t.t.t.t.t.w.w.w.w.w.w.0.6.0.6.5.5.5.5.5.5.5.5.5.3.3.5.5.5.5.5.5.5.5.5.5.5.0.w.w.w.w.w.w.w.t.t.t.t.r.r.y.y.y.y.y.u.a.a.*.                      @ } } } } } } '.'.'.'.'.'.'.'.'.",
"'.'.'.'.'.'.'.'.'.} } } } } } ,                       &.H.H.H.H.H.H.A.A.A.A.A.A.A.A.A.A.Z.Z.Z.Z.Z.Z.Z.Z.Z.Z.Z.Z.Z.Z.Z.Z.Z.Z.Z.Z.Z.Z.Z.Z.Z.C.C.C.C.C.C.B.B.B.B.B.B.B.B.B.B.B.B.B.B.N.N.N.N.N.m.m.m.O.O                                                                                                                       L y.y.y.y.y.y.r.t.t.t.t.t.t.w.w.w.w.w.w.w.0.w.w.w.5.5.5.5.5.5.5.5.5.5.5.5.5.5.5.5.5.6.0.w.w.w.w.w.w.w.w.w.w.t.t.t.t.t.r.r.y.y.y.y.y.u.u.u.s.Y                       < } } } } } } '.'.'.'.'.'.'.'.'.",
"'.'.'.'.'.'.'.'.'.} } } } } } s                       J H.H.H.H.H.A.A.A.A.A.A.A.A.A.A.Z.Z.Z.Z.Z.Z.Z.Z.Z.Z.Z.Z.Z.Z.Z.Z.Z.Z.Z.Z.Z.Z.Z.Z.Z.C.C.B.B.C.C.B.B.B.B.B.B.B.B.B.B.B.B.B.B.N.N.N.N.N.m.m.m.m.m.*.X                                                                                                                 X X.y.y.y.y.y.y.r.t.t.t.t.t.t.e.w.w.w.w.w.w.0.6.w.w.0.5.5.5.5.5.5.5.5.3.5.5.5.5.5.5.5.6.0.w.w.w.w.w.w.w.w.w.w.t.t.t.t.t.r.r.y.y.y.y.y.u.u.u.s.s.V                       d } } } } } } '.'.'.'.'.'.'.'.'.",
"'.'.'.'.'.'.'.'.'.} } } } } } !                       x H.H.H.H.A.A.A.A.A.A.A.A.A.A.Z.Z.Z.Z.Z.Z.Z.Z.Z.Z.Z.Z.Z.Z.Z.Z.Z.Z.Z.C.Z.Z.Z.Z.Z.C.C.B.B.B.C.B.B.B.B.B.B.B.B.B.B.B.B.B.B.B.N.N.N.N.m.m.m.m.m.m.M.1.-                                                                                                             ; &.y.y.y.y.y.y.r.t.t.t.t.t.t.w.w.w.w.w.w.w.w.6.5.w.0.6.5.5.5.5.5.5.5.3.3.5.5.5.5.5.5.5.5.5.0.w.w.w.w.w.w.w.w.t.t.t.t.t.y.r.y.y.y.y.y.u.u.u.s.s.s.q                       ~ } } } } } } '.'.'.'.'.'.'.'.'.",
"'.'.'.'.'.'.'.'.'.'.} } } } } _                       - H.H.H.A.A.A.A.A.A.A.A.A.A.Z.Z.Z.Z.Z.Z.Z.Z.Z.Z.Z.Z.Z.Z.Z.Z.Z.Z.Z.C.C.C.C.Z.Z.C.C.B.B.B.B.B.B.B.B.B.B.B.B.B.B.B.B.B.B.B.B.B.N.N.N.m.m.m.m.m.M.n.n.k.x                                                                                                         w 5.y.y.y.y.y.y.r.t.t.t.t.t.t.e.w.w.w.w.w.w.w.6.5.5.0.6.5.5.5.5.5.5.5.3.3.5.5.5.5.5.5.5.5.5.0.w.w.w.w.w.w.w.w.t.t.t.t.t.r.r.y.y.y.y.y.u.u.u.s.s.s.s.*                       ` } } } } } '.'.'.'.'.'.'.'.'.'.",
"'.'.'.'.'.'.'.'.'.'.} } } } } }                         m.H.A.A.A.A.A.A.A.A.A.A.Z.Z.Z.Z.Z.Z.Z.Z.Z.Z.Z.Z.Z.Z.Z.Z.Z.Z.Z.Z.C.C.C.C.Z.C.C.C.C.C.C.B.B.B.B.B.B.B.B.B.B.B.B.B.B.N.B.B.N.N.m.m.N.m.m.m.M.n.n.v.v.v.I O                                                                                                 O G y.y.y.y.y.y.y.t.t.t.t.t.t.t.t.w.w.w.w.w.w.0.6.0.6.5.5.5.5.5.5.5.5.5.3.3.5.5.5.5.5.5.5.5.5.0.5.0.w.w.w.w.w.w.t.t.t.t.t.r.r.y.y.y.y.y.y.u.u.s.s.s.s.0.                        } } } } } } '.'.'.'.'.'.'.'.'.'.",
"'.'.'.'.'.'.'.'.'.'.} } } } } } .                       1.A.A.A.A.A.A.A.A.A.A.Z.Z.Z.Z.Z.Z.Z.Z.Z.Z.Z.Z.Z.Z.Z.Z.Z.Z.Z.C.Z.C.C.Z.Z.C.C.C.C.C.C.B.B.B.B.B.B.B.B.B.B.B.B.B.B.N.N.B.N.N.m.m.m.m.m.m.M.n.n.v.v.v.v.v.e.e                                                                                             9 >.y.y.y.y.y.y.y.y.t.t.t.t.w.t.t.w.w.w.w.w.w.w.w.0.6.5.5.5.5.5.5.5.5.5.3.3.5.5.5.5.5.5.6.5.5.0.0.0.w.w.w.w.w.w.w.t.t.t.t.r.r.y.y.y.y.y.y.y.u.s.s.s.s.d...                      . } } } } } } '.'.'.'.'.'.'.'.'.'.",
"'.'.'.'.'.'.'.'.'.'.} } } } } } 1                       J A.A.A.A.A.A.A.A.A.Z.Z.Z.Z.Z.Z.Z.Z.Z.Z.Z.Z.Z.Z.Z.Z.Z.Z.Z.C.Z.Z.Z.Z.Z.C.C.C.C.C.C.B.B.B.B.B.B.B.B.B.B.B.B.B.B.N.N.N.N.N.m.m.m.m.m.m.M.n.n.M.v.v.v.v.v.v.v.$.=                                                                                     * U y.y.y.y.y.y.y.y.r.t.t.t.t.t.t.e.w.w.w.w.w.w.w.w.w.6.5.5.5.5.5.5.5.5.5.3.3.5.5.5.5.5.5.5.5.5.5.0.w.w.w.w.w.w.w.e.w.t.t.t.r.r.y.y.y.y.y.y.a.u.u.s.s.s.d.d.V                       1 } } } } } } '.'.'.'.'.'.'.'.'.'.",
"'.'.'.'.'.'.'.'.'.'.} } } } } } j                       w A.A.A.A.A.A.A.A.Z.Z.Z.Z.Z.Z.Z.Z.Z.Z.Z.Z.Z.Z.Z.Z.Z.Z.Z.C.C.Z.Z.Z.Z.C.C.C.C.C.C.B.B.B.B.B.B.B.B.B.B.B.B.B.N.N.N.N.N.N.m.m.m.m.m.m.M.n.n.M.n.v.v.v.v.v.v.v.v.k.L *                                                                             * G w.y.y.y.y.y.y.y.y.r.t.t.t.t.t.t.e.w.w.w.w.w.w.w.w.w.w.5.5.5.5.5.5.5.5.5.3.3.5.5.5.5.5.5.5.5.5.0.5.0.w.w.w.w.w.w.w.t.t.t.t.r.r.y.y.y.y.y.u.a.u.u.u.s.s.d.d.d.8                       E } } } } } } '.'.'.'.'.'.'.'.'.'.",
"'.'.'.'.'.'.'.'.'.'.'.} } } } } _                       X Z.A.A.A.A.A.A.Z.Z.Z.Z.Z.Z.Z.Z.Z.Z.Z.Z.Z.Z.Z.Z.Z.Z.Z.C.C.C.Z.Z.Z.C.C.B.C.C.C.B.B.B.B.B.B.B.B.B.B.B.B.B.B.N.N.B.N.N.m.m.m.m.m.m.M.M.n.v.n.v.v.v.v.v.v.v.v.v.v.v.k.U =                                                                     * P t.u.y.y.y.y.y.y.y.y.r.t.t.t.t.t.t.t.w.w.w.w.w.w.w.w.5.6.5.5.5.5.5.5.5.5.5.3.3.5.5.5.5.5.5.5.5.5.0.w.w.w.w.w.w.w.w.t.t.t.t.t.r.y.y.y.y.y.y.u.u.u.s.s.s.s.d.d.d.u.O                       _ } } } } } '.'.'.'.'.'.'.'.'.'.'.",
"'.'.'.'.'.'.'.'.'.'.'.} } } } } }                         r.A.A.A.A.A.Z.Z.Z.Z.Z.Z.Z.Z.Z.Z.Z.Z.Z.Z.Z.Z.Z.Z.Z.C.C.C.C.Z.Z.C.C.B.B.C.C.B.B.B.B.B.B.B.B.B.B.B.B.B.B.N.N.N.m.N.m.m.m.m.m.m.M.M.M.v.v.v.v.v.v.v.v.v.v.v.v.v.v.z.z.k.-.M X                                                         O l ..y.a.u.a.y.y.y.y.y.y.y.r.t.t.t.t.t.t.t.w.w.w.w.w.w.w.w.5.5.5.5.5.5.5.5.5.5.5.3.3.5.5.5.5.5.5.5.5.5.0.w.w.w.w.w.w.w.w.t.t.t.t.t.r.r.y.y.y.y.y.u.u.u.u.a.s.s.d.d.d.d.&.                        } } } } } } '.'.'.'.'.'.'.'.'.'.'.",
"'.'.'.'.'.'.'.'.'.'.'.} } } } } } #                       I A.A.A.A.Z.Z.Z.Z.Z.Z.Z.Z.Z.Z.Z.Z.Z.Z.Z.Z.Z.Z.Z.Z.C.C.Z.Z.Z.C.C.B.B.C.C.B.B.B.B.B.B.B.B.B.B.B.B.B.B.N.N.N.m.m.m.m.m.m.m.m.M.m.M.n.v.v.v.v.v.v.v.v.v.v.v.z.v.z.v.z.k.k.k.d.| x &                                             & z U e.s.s.a.u.y.y.y.y.y.y.y.y.r.t.t.t.t.t.t.t.w.w.w.w.w.w.0.w.0.6.5.5.5.5.5.5.5.5.5.3.3.5.5.5.5.5.5.5.5.5.5.5.0.w.w.w.w.w.w.t.t.t.t.t.t.r.y.y.y.y.y.u.u.u.s.u.s.s.d.d.d.d.d.A                       : } } } } } } '.'.'.'.'.'.'.'.'.'.'.",
"'.'.'.'.'.'.'.'.'.'.'.} } } } } } d                       q A.A.A.Z.Z.Z.Z.Z.Z.Z.Z.Z.Z.Z.Z.Z.Z.Z.Z.Z.Z.Z.Z.Z.C.Z.Z.Z.C.C.C.B.B.B.B.B.B.B.B.B.B.B.B.B.B.B.B.B.N.N.N.m.N.m.m.m.m.m.m.M.M.M.n.v.v.v.v.v.v.v.v.v.v.v.z.z.l.z.z.z.k.k.k.k.k.k.d.                                            e.s.s.s.s.a.u.y.y.y.y.y.y.y.y.r.t.t.t.t.t.t.t.w.w.w.w.w.w.0.6.0.6.5.5.5.5.5.5.5.5.5.3.3.5.5.5.5.5.5.5.5.5.5.5.0.w.w.w.w.w.w.t.t.t.t.t.t.r.y.y.y.y.y.u.u.u.u.u.s.s.d.d.d.d.d.d.6                       f } } } } } } '.'.'.'.'.'.'.'.'.'.'.",
"'.'.'.'.'.'.'.'.'.'.'.} } } } } } (                         b.A.Z.Z.Z.Z.Z.Z.Z.Z.Z.Z.Z.Z.Z.Z.Z.Z.Z.Z.Z.C.Z.Z.Z.Z.Z.C.C.C.C.C.C.B.B.B.B.B.B.B.B.B.B.B.B.B.B.N.N.N.N.N.m.m.m.m.M.M.M.M.n.M.v.v.v.v.v.v.v.v.v.v.v.z.z.l.z.l.l.z.k.k.k.k.k.k.d.                                            e.s.s.s.a.u.y.y.y.y.y.y.y.y.r.t.t.t.t.t.t.t.w.w.w.w.w.w.0.w.w.w.5.5.5.5.5.5.5.5.5.5.5.5.5.5.5.5.5.6.0.w.w.w.w.w.w.w.w.w.w.t.t.t.t.t.r.r.y.y.y.y.y.u.u.u.s.u.s.s.d.d.d.d.d.d.w.                        ( } } } } } } '.'.'.'.'.'.'.'.'.'.'.",
"'.'.'.'.'.'.'.'.'.'.'.'.} } } } } }                         &.Z.Z.Z.Z.Z.Z.Z.Z.Z.Z.Z.Z.Z.Z.Z.Z.Z.Z.Z.C.C.Z.Z.Z.Z.C.C.C.C.C.C.B.B.B.B.B.B.B.B.B.B.B.B.B.B.B.B.N.N.N.m.m.m.m.m.M.M.m.M.v.v.v.v.v.v.v.v.v.v.v.v.z.v.l.k.l.k.z.l.k.k.k.k.k.k.d.                                            e.s.s.a.u.y.y.y.y.y.y.y.y.t.t.t.t.t.t.t.t.w.w.w.w.w.w.0.6.w.w.5.5.5.5.5.5.5.5.5.5.3.5.5.5.5.5.5.5.0.w.w.w.w.w.w.w.w.w.w.t.t.t.t.t.r.r.y.y.y.y.y.u.u.u.s.s.s.s.d.d.d.d.d.d.d.Y                         } } } } } } '.'.'.'.'.'.'.'.'.'.'.'.",
"'.'.'.'.'.'.'.'.'.'.'.'.} } } } } } >                       M Z.Z.Z.Z.Z.Z.Z.Z.Z.Z.Z.Z.Z.Z.Z.Z.Z.Z.Z.C.C.Z.Z.Z.C.C.C.C.C.C.B.B.B.B.B.B.B.B.B.B.B.B.B.B.N.B.B.N.N.m.m.m.m.M.m.M.M.n.n.v.v.v.v.v.v.v.v.v.v.v.v.v.z.k.l.k.k.l.k.k.k.k.k.k.k.d.                                            w.s.a.u.y.y.y.y.y.y.y.y.r.t.t.t.t.t.t.t.w.w.w.w.w.w.w.6.5.w.0.6.5.5.5.5.5.5.5.5.5.5.5.5.5.5.5.5.5.5.0.w.w.w.w.w.w.w.w.t.t.t.t.t.r.r.y.y.y.y.y.u.u.u.s.s.s.s.d.d.d.d.d.d.d.d.z                       > } } } } } } '.'.'.'.'.'.'.'.'.'.'.'.",
"'.'.'.'.'.'.'.'.'.'.'.'.} } } } } } j                       o N.Z.Z.Z.Z.Z.Z.Z.Z.Z.Z.Z.Z.Z.Z.Z.Z.Z.Z.Z.Z.Z.Z.C.C.C.C.C.C.B.B.B.B.B.B.B.B.B.B.B.B.B.N.N.N.B.N.N.N.m.m.m.M.M.M.M.M.v.v.v.v.v.v.v.v.v.v.v.v.v.v.z.z.k.k.k.k.k.k.k.k.k.k.k.k.s.                                            w.a.u.y.y.y.y.y.y.y.y.r.t.t.t.t.t.t.t.w.w.w.w.w.w.w.6.5.5.0.6.5.5.5.5.5.5.5.3.5.5.5.5.5.5.5.6.5.5.0.w.w.w.w.w.w.w.w.t.t.t.t.t.r.r.y.y.y.y.y.u.u.u.s.s.s.s.d.d.d.d.d.d.d.d.u.X                       E } } } } } } '.'.'.'.'.'.'.'.'.'.'.'.",
"'.'.'.'.'.'.'.'.'.'.'.'.} } } } } } '                         -.Z.Z.Z.Z.Z.Z.Z.Z.Z.Z.Z.Z.Z.Z.Z.Z.Z.Z.Z.Z.Z.C.C.C.C.C.C.B.B.B.B.B.B.B.B.B.B.B.B.B.B.N.N.N.N.N.m.m.N.m.M.M.M.M.M.v.v.v.v.v.v.v.v.v.v.v.v.v.v.z.z.z.k.k.k.k.k.k.k.k.k.k.k.k.s.                                            w.u.y.y.y.y.y.y.y.y.r.t.t.t.t.t.t.w.w.w.w.w.w.w.0.6.0.6.5.5.5.5.5.5.5.5.5.3.3.5.5.5.5.5.5.6.0.5.0.5.0.w.w.w.w.w.w.t.t.t.t.t.r.r.y.y.y.y.y.u.u.u.s.s.s.s.d.d.d.d.d.d.d.d.d. .                        ' } } } } } '.'.'.'.'.'.'.'.'.'.'.'.'.",
"'.'.'.'.'.'.'.'.'.'.'.'.'.} } } } } } .                       b Z.Z.Z.Z.Z.Z.Z.Z.Z.Z.Z.Z.Z.Z.Z.Z.Z.Z.Z.Z.C.C.C.C.C.C.B.B.B.B.B.B.B.B.B.B.B.B.B.N.N.N.N.m.N.m.m.m.m.M.M.M.M.M.v.v.v.v.v.v.v.v.v.v.v.v.v.v.z.z.z.k.k.k.k.k.k.k.k.k.k.k.k.k.u.                                            w.y.y.y.y.y.y.y.y.r.t.t.t.t.t.t.e.w.w.w.w.w.w.0.6.5.5.5.5.5.5.5.5.5.5.5.3.3.5.5.5.5.5.5.6.0.w.0.w.0.w.w.w.w.w.w.t.t.t.t.t.r.r.y.y.y.y.y.u.u.u.s.s.s.s.d.d.d.d.d.d.d.d.d.d.l                       . } } } } } } '.'.'.'.'.'.'.'.'.'.'.'.'.",
"'.'.'.'.'.'.'.'.'.'.'.'.'.} } } } } } a                       X N.Z.Z.Z.Z.Z.Z.Z.Z.Z.Z.Z.Z.C.C.Z.C.C.Z.C.C.C.C.C.C.B.B.B.B.B.B.B.B.B.B.B.B.B.B.N.N.N.m.N.m.m.m.m.m.m.M.M.n.v.v.v.v.v.v.v.v.v.v.v.v.v.v.z.z.z.k.k.k.k.k.k.k.k.k.k.k.k.k.j.u.                                            w.y.y.y.y.y.y.y.r.t.t.t.t.t.t.e.w.w.w.w.w.w.w.6.5.6.5.6.5.5.5.5.5.5.5.5.5.5.5.5.5.5.5.5.5.0.0.w.w.w.w.w.w.w.w.t.t.t.t.t.r.y.y.y.y.y.y.u.u.u.s.s.s.s.d.d.d.d.d.d.d.d.d.d.u.X                       s } } } } } } '.'.'.'.'.'.'.'.'.'.'.'.'.",
"'.'.'.'.'.'.'.'.'.'.'.'.'.} } } } } } )                         $.Z.Z.Z.Z.Z.Z.Z.Z.Z.Z.Z.C.C.C.Z.C.C.C.C.C.C.C.C.B.B.B.B.B.B.B.B.B.B.B.B.B.B.N.N.B.m.m.m.m.m.m.M.m.M.M.M.v.v.v.v.v.v.v.v.v.v.v.v.z.v.z.v.z.l.k.k.k.k.k.k.k.k.k.k.k.k.j.j.u.                                            w.y.y.y.y.y.y.r.t.t.t.t.t.t.e.w.w.w.w.w.w.w.w.5.5.0.5.5.5.5.5.5.5.5.5.5.5.5.5.5.5.5.5.5.5.0.w.w.w.w.w.w.w.w.t.t.t.t.t.r.r.y.y.y.y.y.u.u.u.s.s.s.s.d.d.d.d.d.d.d.d.d.d.d.Y                         _ } } } } } } '.'.'.'.'.'.'.'.'.'.'.'.'.",
"'.'.'.'.'.'.'.'.'.'.'.'.'.'.} } } } } } .                       w Z.Z.Z.Z.Z.Z.Z.Z.Z.Z.Z.Z.Z.Z.Z.C.C.C.C.C.C.C.B.B.B.B.B.B.B.B.B.B.B.B.B.B.N.N.N.N.N.m.m.m.m.M.M.M.n.n.n.v.v.v.v.v.v.v.v.v.v.v.v.z.l.k.k.k.k.k.k.k.k.k.k.k.k.k.k.k.j.j.g.u.                                            w.y.y.y.y.y.t.t.t.t.t.t.t.t.w.w.w.w.w.w.w.w.0.6.5.6.5.5.5.5.5.5.5.5.3.5.5.5.5.5.5.6.0.5.0.w.w.w.w.w.w.w.w.t.t.t.t.t.r.r.y.y.y.y.y.u.u.u.s.u.s.s.d.d.d.d.d.d.d.d.d.d.d.d.8                       . } } } } } } '.'.'.'.'.'.'.'.'.'.'.'.'.'.",
"'.'.'.'.'.'.'.'.'.'.'.'.'.'.} } } } } } s                         d.Z.Z.Z.Z.Z.Z.Z.Z.Z.Z.Z.Z.Z.Z.C.C.C.C.C.C.B.B.B.B.B.B.B.B.B.B.B.B.B.B.N.N.N.N.N.m.m.m.m.m.m.M.n.n.n.n.v.v.v.v.v.v.v.v.u.8.1.1.1.,.,.,.,.,.,.,.,.,.,.,.,.,.>.>.>.>.-.>.&.                                            #.&.%.%.#.#.#.#.#.#.#.#.#.#.#.#.#.#.#.#.#.#.o.#.:.5.5.5.5.5.5.5.3.5.5.5.5.5.5.5.5.0.w.0.w.w.w.w.w.w.w.w.w.t.t.t.t.r.r.y.y.y.y.y.u.u.u.s.s.s.s.d.d.d.d.d.d.d.d.d.d.d.d.3.                        d } } } } } } '.'.'.'.'.'.'.'.'.'.'.'.'.'.",
"'.'.'.'.'.'.'.'.'.'.'.'.'.'.} } } } } } _                         G Z.Z.Z.Z.Z.Z.Z.C.C.C.Z.Z.Z.C.C.B.C.C.C.B.B.B.B.B.B.B.B.B.B.B.B.B.B.B.B.B.N.N.m.m.m.m.M.M.M.M.M.n.n.v.v.v.v.v.k. .e X                                                                                                                                                 X 0 H 3.5.5.3.3.5.5.5.5.5.5.5.5.w.w.w.w.w.w.w.w.w.w.w.t.t.t.t.r.r.y.y.y.y.y.u.u.u.s.s.s.s.s.d.d.d.d.d.d.d.d.d.d.d.g.V                         _ } } } } } } '.'.'.'.'.'.'.'.'.'.'.'.'.'.",
"'.'.'.'.'.'.'.'.'.'.'.'.'.'.'.} } } } } } .                       * B.Z.Z.Z.Z.Z.C.C.C.Z.Z.Z.C.C.B.B.C.C.B.B.B.B.B.B.B.B.B.B.B.B.B.B.B.B.B.N.N.m.m.m.m.m.M.M.M.M.v.v.v.v.v.v.v.+.*                                                                                                                                                             * I 3.3.5.5.5.5.5.5.5.5.5.w.w.w.w.w.w.w.w.w.w.w.t.t.t.y.r.y.y.y.y.y.u.u.u.s.s.s.s.s.s.d.d.d.d.d.d.d.d.d.d.g.d.&                       + } } } } } } '.'.'.'.'.'.'.'.'.'.'.'.'.'.'.",
"'.'.'.'.'.'.'.'.'.'.'.'.'.'.'.} } } } } } h                         +.Z.Z.Z.Z.C.C.C.C.Z.Z.C.C.C.C.C.C.B.B.B.B.B.B.B.B.B.B.B.B.B.B.N.N.B.N.N.m.m.m.m.m.m.M.m.n.v.v.v.v.v.v.v.V                                                                                                                                                                     c 3.5.5.5.5.5.5.5.5.5.w.w.w.w.w.w.w.w.e.t.t.t.t.r.r.y.y.y.y.y.u.u.u.u.u.s.s.d.s.d.d.d.d.d.d.d.d.d.d.g.j.Y                         E } } } } } } '.'.'.'.'.'.'.'.'.'.'.'.'.'.'.",
"'.'.'.'.'.'.'.'.'.'.'.'.'.'.'.} } } } } } {                         6 Z.Z.Z.C.C.C.C.Z.Z.C.C.C.C.C.C.B.B.B.B.B.B.B.B.B.B.B.B.B.B.N.N.N.N.N.m.m.m.m.m.m.M.n.M.v.v.v.v.v.v.v.n                                                                                                                                                                         z 5.5.5.5.6.5.5.5.5.w.w.w.w.w.w.w.w.t.t.t.t.r.r.y.y.y.y.y.u.u.u.s.u.s.s.d.d.d.d.d.d.d.d.d.d.g.d.g.j.g.4                         { } } } } } } '.'.'.'.'.'.'.'.'.'.'.'.'.'.'.",
"'.'.'.'.'.'.'.'.'.'.'.'.'.'.'.'.} } } } } } <                         ,.Z.Z.Z.Z.Z.Z.Z.C.C.C.C.C.C.B.B.B.B.B.B.B.B.B.B.B.B.B.B.N.N.N.N.N.m.m.m.m.m.m.m.M.n.v.v.v.v.v.v.v.Y                                                                                                                                                                             D 5.5.5.5.5.0.5.0.w.w.w.w.w.w.w.w.t.t.t.r.r.y.y.y.y.y.y.a.u.u.u.s.s.d.d.d.d.d.d.d.d.d.d.d.d.g.j.k.+.                        1 } } } } } } '.'.'.'.'.'.'.'.'.'.'.'.'.'.'.'.",
"'.'.'.'.'.'.'.'.'.'.'.'.'.'.'.'.} } } } } } (                         r Z.Z.Z.Z.Z.Z.C.C.C.C.C.C.B.B.B.B.B.B.B.B.B.B.B.B.B.B.N.N.N.N.N.N.m.m.m.m.M.M.m.M.M.v.v.v.v.v.v.u.X                                                                                                                                                                             O :.5.5.5.0.w.0.w.w.w.w.w.w.w.w.t.t.t.r.r.y.y.y.y.y.y.a.u.s.a.s.s.d.d.d.d.d.d.d.d.d.d.d.d.g.k.k.k.0                         ) } } } } } } '.'.'.'.'.'.'.'.'.'.'.'.'.'.'.'.",
"'.'.'.'.'.'.'.'.'.'.'.'.'.'.'.'.'.} } } } } } .                         q.Z.Z.Z.Z.C.C.C.C.C.C.B.B.B.B.B.B.B.B.B.B.B.B.B.B.N.N.N.N.N.m.m.N.m.m.m.M.M.M.n.v.v.v.v.v.v.v.Z                                                                                                                                                                                 m 5.5.0.w.w.w.w.w.w.w.w.t.t.t.t.t.r.r.y.y.y.y.y.y.y.u.u.s.s.s.d.d.d.d.d.d.d.d.d.d.d.d.g.k.j.k.=.                        . } } } } } } '.'.'.'.'.'.'.'.'.'.'.'.'.'.'.'.'.",
"'.'.'.'.'.'.'.'.'.'.'.'.'.'.'.'.'.} } } } } } E                         l Z.Z.Z.C.C.B.B.C.C.B.B.B.B.B.B.B.B.B.B.B.B.B.B.N.N.N.m.N.m.m.m.m.m.m.M.M.M.n.v.v.v.v.v.v.v.v.*                                                                                                                                                                                 o 5.0.w.w.w.w.w.w.w.w.t.t.t.t.t.r.r.y.y.y.y.y.u.u.u.u.u.s.s.d.d.d.d.d.d.d.d.d.d.d.d.g.k.j.k.k.q                         Q } } } } } } '.'.'.'.'.'.'.'.'.'.'.'.'.'.'.'.'.",
"'.'.'.'.'.'.'.'.'.'.'.'.'.'.'.'.'.} } } } } } }                           8.Z.C.C.B.B.B.C.B.B.B.B.B.B.B.B.B.B.B.B.B.B.B.N.N.m.m.m.m.m.m.m.m.M.n.n.v.v.v.v.v.v.v.v.v.3.                                                                                                                                                                                    #.w.w.w.w.w.w.w.w.t.t.t.t.t.y.y.y.y.y.y.y.u.u.u.s.s.s.s.d.d.d.d.d.d.d.d.d.d.d.d.g.k.k.k.k.*.                          } } } } } } } '.'.'.'.'.'.'.'.'.'.'.'.'.'.'.'.'.",
"'.'.'.'.'.'.'.'.'.'.'.'.'.'.'.'.'.'.} } } } } } f                         r C.C.B.B.C.B.B.B.B.B.B.B.B.B.B.B.B.B.B.B.B.B.B.m.m.m.m.m.m.m.m.M.n.n.v.v.v.v.v.v.v.v.v.v. .                                                                                                                                                                                    P w.w.w.w.w.w.w.t.t.t.t.t.y.y.y.y.y.y.y.u.u.u.s.s.s.s.d.d.d.d.d.d.d.d.d.d.d.d.g.k.k.k.k.k.0                         f } } } } } } '.'.'.'.'.'.'.'.'.'.'.'.'.'.'.'.'.'.",
"'.'.'.'.'.'.'.'.'.'.'.'.'.'.'.'.'.'.} } } } } } {                           1.C.C.C.C.B.B.B.B.B.B.B.B.B.B.B.B.B.B.N.N.B.N.N.m.m.m.m.m.m.M.M.n.v.v.v.v.v.v.v.v.v.v.v.L                                                                                                                                                                                     S w.w.w.w.w.w.t.t.t.t.t.r.y.y.y.y.y.y.u.u.u.s.s.s.s.d.d.d.d.d.d.d.d.d.d.d.d.d.d.g.k.k.k.&.                          { } } } } } } '.'.'.'.'.'.'.'.'.'.'.'.'.'.'.'.'.'.",
"'.'.'.'.'.'.'.'.'.'.'.'.'.'.'.'.'.'.'.} } } } } } y                         8 B.C.C.B.B.B.B.B.B.B.B.B.B.B.B.B.B.N.N.N.m.N.m.m.m.m.m.m.M.M.M.v.v.v.v.v.v.v.v.v.v.v.v.I                                                                                                                                                                                     D w.w.w.w.w.e.t.t.t.t.r.r.y.y.y.y.y.u.u.u.u.a.s.s.d.d.d.d.d.d.d.d.d.d.d.d.g.d.g.k.k.k.k.5                         i } } } } } } '.'.'.'.'.'.'.'.'.'.'.'.'.'.'.'.'.'.'.",
"'.'.'.'.'.'.'.'.'.'.'.'.'.'.'.'.'.'.'.} } } } } } ]                           O.C.B.B.B.B.B.B.B.B.B.B.B.B.B.B.B.N.N.m.m.m.m.m.m.m.m.M.m.M.n.v.v.v.v.v.v.v.v.v.v.v.v.X.                                                                                                                                                                                    U w.w.w.w.e.t.t.t.t.y.r.y.y.y.y.y.u.u.u.s.u.s.s.d.d.d.d.d.d.d.d.d.d.d.d.g.d.g.k.k.k.k.U                           ] } } } } } } '.'.'.'.'.'.'.'.'.'.'.'.'.'.'.'.'.'.'.",
"'.'.'.'.'.'.'.'.'.'.'.'.'.'.'.'.'.'.'.'.} } } } } } i                         * v.B.B.B.B.B.B.B.B.B.B.B.B.B.B.B.N.m.m.m.m.m.m.m.m.M.M.M.n.v.v.v.v.v.v.v.v.v.v.v.v.v.q.                                                                                                                                                                                    *.w.w.w.w.w.t.t.t.y.y.y.y.y.y.y.u.u.u.u.u.s.s.d.d.d.d.d.d.d.d.d.d.d.d.g.j.g.k.k.k.k.u.&                         a } } } } } } '.'.'.'.'.'.'.'.'.'.'.'.'.'.'.'.'.'.'.'.",
"'.'.'.'.'.'.'.'.'.'.'.'.'.'.'.'.'.'.'.'.} } } } } } [                           G B.B.B.B.B.B.B.B.B.B.B.B.N.N.B.N.N.m.m.m.m.M.M.m.M.n.M.v.v.v.v.v.v.v.v.v.v.v.z.v.z.z.4                                                                                                                                                                                 - w.w.w.t.t.t.t.t.r.y.y.y.y.y.y.u.u.u.s.u.s.s.d.d.d.d.d.d.d.d.d.d.d.d.g.j.k.k.k.k.k.k.V                           [ } } } } } } '.'.'.'.'.'.'.'.'.'.'.'.'.'.'.'.'.'.'.'.",
"'.'.'.'.'.'.'.'.'.'.'.'.'.'.'.'.'.'.'.'.'.} } } } } } a                           q.B.B.B.B.B.B.B.B.B.B.N.N.N.m.N.m.m.m.m.m.M.M.m.M.n.n.v.v.v.v.v.v.v.v.v.v.v.v.z.z.l.I                                                                                                                                                                                 D w.w.t.t.t.t.t.r.r.y.y.y.y.y.u.u.u.s.s.s.s.d.d.d.d.d.d.d.d.d.d.d.d.g.k.k.k.k.k.k.k.1.O                         s } } } } } } '.'.'.'.'.'.'.'.'.'.'.'.'.'.'.'.'.'.'.'.'.",
"'.'.'.'.'.'.'.'.'.'.'.'.'.'.'.'.'.'.'.'.'.} } } } } } {                           8 N.B.B.B.B.B.B.B.B.N.N.N.m.m.m.m.m.m.M.m.M.M.n.v.v.v.v.v.v.v.v.v.v.v.v.v.v.z.z.k.k.d.=                                                                                                                                                                             * 5.w.t.t.t.t.t.r.r.y.y.y.y.y.u.u.u.s.s.s.s.d.d.d.d.d.d.d.d.d.d.d.d.g.k.k.k.k.k.k.k.k.7                           { } } } } } } '.'.'.'.'.'.'.'.'.'.'.'.'.'.'.'.'.'.'.'.'.",
"'.'.'.'.'.'.'.'.'.'.'.'.'.'.'.'.'.'.'.'.'.'.} } } } } } h                           T B.B.B.B.B.B.B.N.N.N.m.m.m.m.m.m.M.M.M.M.M.v.v.v.v.v.v.v.v.v.v.v.v.v.v.z.z.l.k.k.k.*.                                                                                                                                                                            X.w.t.t.t.t.t.r.r.y.y.y.y.y.u.u.u.s.s.s.s.d.d.d.d.d.d.d.d.d.d.d.d.g.k.k.k.k.k.k.k.k.H                           E } } } } } } '.'.'.'.'.'.'.'.'.'.'.'.'.'.'.'.'.'.'.'.'.'.",
"'.'.'.'.'.'.'.'.'.'.'.'.'.'.'.'.'.'.'.'.'.'.} } } } } } } +                         X d.B.B.B.B.B.N.N.N.N.N.m.m.N.m.M.M.M.M.M.v.v.v.v.v.v.v.v.v.v.v.v.v.v.v.v.z.k.k.k.k.k.Y                                                                                                                                                                         H w.t.t.t.t.t.r.r.y.y.y.y.y.u.u.u.s.s.s.s.d.d.d.d.d.d.d.d.d.d.d.d.d.d.g.k.k.k.k.k.k.0.X                         + } } } } } } } '.'.'.'.'.'.'.'.'.'.'.'.'.'.'.'.'.'.'.'.'.'.",
"'.'.'.'.'.'.'.'.'.'.'.'.'.'.'.'.'.'.'.'.'.'.'.} } } } } } ^                           q m.B.B.B.N.N.N.N.N.m.m.m.m.M.M.M.M.M.v.v.v.v.v.v.v.v.v.v.v.v.v.v.z.v.z.z.k.k.k.k.k.k...X                                                                                                                                                                 X U w.t.t.t.t.t.r.r.y.y.y.y.y.u.u.u.s.s.s.s.d.d.d.d.d.d.d.d.d.d.d.d.g.d.g.k.k.k.k.k.k.k.q                           ( } } } } } } '.'.'.'.'.'.'.'.'.'.'.'.'.'.'.'.'.'.'.'.'.'.'.",
"'.'.'.'.'.'.'.'.'.'.'.'.'.'.'.'.'.'.'.'.'.'.'.} } } } } } } >                           U B.B.B.N.N.N.N.m.m.m.m.m.m.M.M.n.v.v.v.v.v.v.v.v.v.v.v.v.v.v.z.z.l.z.z.k.k.k.k.k.k.k.0.z                                                                                                                                                             e :.w.t.t.t.t.t.r.r.y.y.y.y.y.u.u.u.s.s.s.s.d.d.d.d.d.d.d.d.d.d.d.d.g.d.g.k.k.k.k.k.k.k.G                           > } } } } } } } '.'.'.'.'.'.'.'.'.'.'.'.'.'.'.'.'.'.'.'.'.'.'.",
"'.'.'.'.'.'.'.'.'.'.'.'.'.'.'.'.'.'.'.'.'.'.'.'.} } } } } } '                           O 8.B.B.B.N.N.N.m.m.m.m.m.M.M.M.v.v.v.v.v.v.v.v.v.v.v.v.z.v.z.z.l.k.z.k.k.k.k.k.k.k.k.k.k.4.G w - % o o o o o o o o o o o o o o o o o o o o o o o                                             X o o o o o o o o o o o o o o o o o o o o o o o - q A *.w.w.t.t.t.t.t.r.r.y.y.y.y.y.u.u.u.s.s.s.s.d.d.d.d.d.d.d.d.d.d.d.d.g.j.g.k.k.k.k.k.k.k.,.O                           ] } } } } } } '.'.'.'.'.'.'.'.'.'.'.'.'.'.'.'.'.'.'.'.'.'.'.'.",
"'.'.'.'.'.'.'.'.'.'.'.'.'.'.'.'.'.'.'.'.'.'.'.'.} } } } } } } f                           5 v.N.N.N.m.m.m.m.m.m.M.n.n.n.v.v.v.v.v.v.v.v.v.v.v.v.z.l.k.k.k.k.k.k.k.k.k.k.k.k.k.k.k.j.j.j.j.j.d.d.d.d.d.d.d.d.d.d.d.s.s.s.s.s.s.a.u.y.y.y.0.                                            3.5.5.5.5.5.5.5.5.5.5.5.5.5.5.5.5.5.5.5.0.w.w.w.w.w.w.w.w.t.t.t.t.t.r.r.y.y.y.y.y.u.u.u.s.u.s.s.d.d.d.d.d.d.d.d.d.d.d.d.d.j.k.k.k.k.k.k.k.k.d.-                           h } } } } } } } '.'.'.'.'.'.'.'.'.'.'.'.'.'.'.'.'.'.'.'.'.'.'.'.",
"'.'.'.'.'.'.'.'.'.'.'.'.'.'.'.'.'.'.'.'.'.'.'.'.'.} } } } } } } $                           n N.N.m.m.m.m.m.m.M.M.n.v.n.v.v.v.v.v.v.v.v.v.v.v.v.l.k.k.k.k.k.k.k.k.k.k.k.k.k.k.k.j.j.j.j.j.d.d.d.d.d.d.d.d.d.d.d.s.s.s.s.s.s.a.u.y.y.y.y.0.                                            2.5.5.5.5.5.5.5.3.5.5.5.5.5.5.5.5.5.5.0.w.w.w.w.w.w.w.w.t.t.t.t.t.r.r.y.y.y.y.y.y.u.u.s.s.s.s.d.d.d.d.d.d.d.d.d.d.d.d.d.d.k.k.k.k.k.k.k.k.k.v                           @ } } } } } } } '.'.'.'.'.'.'.'.'.'.'.'.'.'.'.'.'.'.'.'.'.'.'.'.'.",
"'.'.'.'.'.'.'.'.'.'.'.'.'.'.'.'.'.'.'.'.'.'.'.'.'.'.} } } } } } _                             | m.m.m.m.m.m.M.n.M.n.n.v.v.v.v.v.v.v.v.v.v.v.v.v.z.l.k.k.k.k.k.k.k.k.k.k.k.k.k.j.j.j.j.j.d.d.d.d.d.d.d.d.d.d.d.s.s.s.s.s.s.a.u.y.y.y.y.y.0.                                            2.5.5.5.5.5.5.3.3.5.5.5.5.5.5.5.5.5.5.5.0.w.w.w.w.w.w.t.t.t.t.t.r.r.y.y.y.y.y.y.a.u.s.u.s.s.s.d.d.d.d.d.d.d.d.d.g.d.g.d.g.k.k.k.k.k.k.k.k.L                             _ } } } } } } '.'.'.'.'.'.'.'.'.'.'.'.'.'.'.'.'.'.'.'.'.'.'.'.'.'.",
"'.'.'.'.'.'.'.'.'.'.'.'.'.'.'.'.'.'.'.'.'.'.'.'.'.'.} } } } } } } a                           O 1.m.m.m.m.M.n.n.v.v.v.v.v.v.v.v.v.v.v.v.z.z.v.v.l.k.k.k.k.k.k.k.k.k.k.k.k.k.j.j.j.j.j.j.d.d.d.d.d.d.d.d.d.d.s.s.s.s.s.s.a.u.y.y.y.y.y.y.0.                                            2.5.5.5.5.5.3.3.5.5.5.5.5.5.5.5.5.5.5.0.w.w.w.w.w.w.t.t.t.t.t.y.r.y.y.y.y.y.u.a.u.s.u.s.s.s.s.d.d.d.d.d.d.d.d.g.d.g.j.g.k.k.k.k.k.k.k.k.-.O                           s } } } } } } } '.'.'.'.'.'.'.'.'.'.'.'.'.'.'.'.'.'.'.'.'.'.'.'.'.'.",
"'.'.'.'.'.'.'.'.'.'.'.'.'.'.'.'.'.'.'.'.'.'.'.'.'.'.'.} } } } } } } @                           * d.m.m.M.n.n.v.v.v.v.v.v.v.v.v.v.v.v.z.z.l.k.k.k.k.k.k.k.k.k.k.k.k.k.k.k.j.j.j.j.j.d.d.d.d.d.d.d.d.d.d.d.s.s.s.s.s.s.a.u.y.y.y.y.y.y.y.5.                                            2.5.5.5.5.3.3.5.5.5.5.5.5.6.0.5.0.5.0.w.w.w.w.w.w.t.t.t.t.t.r.r.y.y.y.y.y.u.u.u.s.s.s.s.d.d.d.d.d.d.d.d.d.d.d.d.g.k.j.k.k.k.k.k.k.k.k.r.*                           @ } } } } } } } '.'.'.'.'.'.'.'.'.'.'.'.'.'.'.'.'.'.'.'.'.'.'.'.'.'.'.",
"'.'.'.'.'.'.'.'.'.'.'.'.'.'.'.'.'.'.'.'.'.'.'.'.'.'.'.} } } } } } } '                             8 l.M.n.n.v.v.v.v.v.v.v.v.v.v.v.v.z.v.l.k.l.k.k.k.k.k.k.k.k.k.k.k.k.k.j.j.j.j.j.d.d.d.d.d.d.d.d.d.d.d.s.s.s.s.s.s.a.u.a.y.y.y.y.y.y.y.5.                                            <.5.5.5.3.3.5.5.5.5.5.5.6.0.w.0.w.0.w.w.w.w.w.w.t.t.t.t.t.r.r.y.y.y.y.y.u.u.u.s.s.s.s.d.d.d.d.d.d.d.d.d.d.d.d.g.k.k.k.k.k.k.k.k.k.k.d.8                             ` } } } } } } } '.'.'.'.'.'.'.'.'.'.'.'.'.'.'.'.'.'.'.'.'.'.'.'.'.'.'.",
"'.'.'.'.'.'.'.'.'.'.'.'.'.'.'.'.'.'.'.'.'.'.'.'.'.'.'.'.} } } } } } } j                             l v.M.v.v.v.v.v.v.v.v.v.v.v.v.v.v.z.z.l.k.k.k.k.k.k.k.k.k.k.k.k.k.j.j.j.j.j.d.d.d.d.d.d.d.d.d.d.d.s.s.s.s.s.s.a.u.y.y.y.y.y.y.y.y.r.5.                                            <.5.5.3.3.5.5.5.5.5.5.5.5.0.0.w.w.w.w.w.w.w.w.t.t.t.t.t.r.y.y.y.y.y.y.u.u.u.s.s.s.s.d.d.d.d.d.d.d.d.d.d.d.d.g.k.k.k.k.k.k.k.k.k.k.k.l                             E } } } } } } } '.'.'.'.'.'.'.'.'.'.'.'.'.'.'.'.'.'.'.'.'.'.'.'.'.'.'.'.",
"'.'.'.'.'.'.'.'.'.'.'.'.'.'.'.'.'.'.'.'.'.'.'.'.'.'.'.'.'.} } } } } } } >                             S v.v.v.v.v.v.v.v.v.v.v.v.v.v.z.z.l.k.k.k.k.k.k.k.k.k.k.k.k.k.j.j.j.j.j.d.d.d.d.d.d.d.d.d.d.d.s.s.s.s.s.s.a.u.y.y.y.y.y.y.y.y.r.t.5.                                            <.5.3.3.5.5.5.5.5.5.5.5.5.0.w.w.w.w.w.w.w.w.t.t.t.t.t.r.r.y.y.y.y.y.u.u.u.s.s.s.s.d.d.d.d.d.d.d.d.d.d.d.d.g.k.k.k.k.k.k.k.k.k.k.k.V                             , } } } } } } } '.'.'.'.'.'.'.'.'.'.'.'.'.'.'.'.'.'.'.'.'.'.'.'.'.'.'.'.'.",
"'.'.'.'.'.'.'.'.'.'.'.'.'.'.'.'.'.'.'.'.'.'.'.'.'.'.'.'.'.} } } } } } } { .                             Y v.v.v.v.v.v.v.v.v.v.v.v.z.v.z.l.z.l.k.k.k.k.k.k.k.k.k.j.j.j.j.j.j.d.d.d.d.d.d.d.d.d.d.d.s.s.s.s.s.s.a.u.y.y.y.y.y.y.y.y.r.t.t.5.                                            <.3.3.5.5.5.5.5.5.6.0.5.0.w.w.w.w.w.w.w.w.t.t.t.t.t.r.r.y.y.y.y.y.u.u.u.s.u.s.s.d.d.d.d.d.d.d.d.d.d.d.d.d.g.g.k.k.k.k.k.k.k.k.k.L                             . { } } } } } } '.'.'.'.'.'.'.'.'.'.'.'.'.'.'.'.'.'.'.'.'.'.'.'.'.'.'.'.'.'.",
"'.'.'.'.'.'.'.'.'.'.'.'.'.'.'.'.'.'.'.'.'.'.'.'.'.'.'.'.'.'.} } } } } } } _                               | v.v.v.v.v.v.v.v.v.v.z.z.z.z.z.l.k.k.k.k.k.k.k.k.k.k.j.j.j.j.j.d.d.d.d.d.d.d.d.d.d.d.s.s.s.s.s.s.a.u.y.y.y.y.y.y.y.y.r.t.t.t.5.                                            <.5.5.5.5.5.5.5.5.0.w.0.w.w.w.w.w.w.w.w.w.t.t.t.t.r.r.y.y.y.y.y.u.u.u.s.s.s.s.d.d.d.d.d.d.d.d.d.d.d.d.d.d.g.k.k.k.k.k.k.k.k.k.|                               _ } } } } } } } '.'.'.'.'.'.'.'.'.'.'.'.'.'.'.'.'.'.'.'.'.'.'.'.'.'.'.'.'.'.",
"'.'.'.'.'.'.'.'.'.'.'.'.'.'.'.'.'.'.'.'.'.'.'.'.'.'.'.'.'.'.'.} } } } } } } E                               O.v.v.v.v.v.v.v.v.z.v.z.k.k.k.k.k.k.k.k.k.k.k.k.k.j.j.j.j.j.d.d.d.d.d.d.d.d.d.d.d.s.s.s.s.s.s.a.u.y.y.y.y.y.y.y.y.r.t.t.t.t.5.                                            <.5.5.5.5.5.5.5.5.w.w.w.w.w.w.w.w.w.w.w.t.t.t.t.r.r.y.y.y.y.y.u.u.u.s.s.s.s.s.d.d.d.d.d.d.d.d.d.g.d.g.d.g.k.k.k.k.k.k.k.k.k.X.                              E } } } } } } } '.'.'.'.'.'.'.'.'.'.'.'.'.'.'.'.'.'.'.'.'.'.'.'.'.'.'.'.'.'.'.",
"'.'.'.'.'.'.'.'.'.'.'.'.'.'.'.'.'.'.'.'.'.'.'.'.'.'.'.'.'.'.'.'.} } } } } } } t                             O $.v.v.v.v.z.z.z.v.l.z.k.k.k.k.k.k.k.k.k.k.k.k.j.j.j.d.j.d.d.d.d.d.d.d.d.d.d.d.s.s.s.s.s.s.a.u.y.y.y.y.y.y.y.y.r.t.t.t.t.t.5.                                            ,.5.5.5.5.5.5.5.5.w.w.w.w.w.w.w.w.w.w.w.t.t.t.y.r.y.y.y.y.y.u.u.u.s.s.s.s.s.s.d.d.d.d.d.d.d.d.g.d.g.j.g.k.k.k.k.k.k.k.k.k.+.O                             u } } } } } } } '.'.'.'.'.'.'.'.'.'.'.'.'.'.'.'.'.'.'.'.'.'.'.'.'.'.'.'.'.'.'.'.",
"'.'.'.'.'.'.'.'.'.'.'.'.'.'.'.'.'.'.'.'.'.'.'.'.'.'.'.'.'.'.'.'.} } } } } } } } #                             O $.v.v.v.v.z.v.z.k.k.k.k.k.k.k.k.k.k.k.k.k.j.j.j.j.j.d.d.d.d.d.d.d.d.d.s.s.s.s.s.s.s.s.a.u.y.y.y.y.y.y.y.y.r.t.t.t.t.t.t.4.                                            <.5.5.5.5.5.5.5.5.w.w.w.w.w.w.w.w.e.t.t.t.t.r.r.y.y.y.y.y.u.u.u.u.u.s.s.d.s.d.d.d.d.d.d.d.d.d.d.g.j.g.k.k.k.k.k.k.k.k.k.+.O                             # } } } } } } } } '.'.'.'.'.'.'.'.'.'.'.'.'.'.'.'.'.'.'.'.'.'.'.'.'.'.'.'.'.'.'.'.",
"'.'.'.'.'.'.'.'.'.'.'.'.'.'.'.'.'.'.'.'.'.'.'.'.'.'.'.'.'.'.'.'.'.} } } } } } } { .                               ..v.v.z.z.z.z.k.k.k.k.k.k.k.k.k.k.k.k.j.j.j.j.j.d.d.d.d.d.d.d.d.d.d.d.s.s.s.s.s.s.a.u.y.y.y.y.y.y.y.y.r.t.t.t.t.t.t.t.0.                                            3.5.5.5.5.5.5.5.5.w.w.w.w.w.w.w.w.t.t.t.t.r.r.y.y.y.y.y.u.u.u.s.u.s.s.d.d.d.d.d.d.d.d.d.d.g.d.g.j.j.k.k.k.k.k.k.k.k.k...O                             . { } } } } } } } '.'.'.'.'.'.'.'.'.'.'.'.'.'.'.'.'.'.'.'.'.'.'.'.'.'.'.'.'.'.'.'.'.",
"'.'.'.'.'.'.'.'.'.'.'.'.'.'.'.'.'.'.'.'.'.'.'.'.'.'.'.'.'.'.'.'.'.'.} } } } } } } ]                                 | z.z.l.k.k.l.k.k.k.k.k.k.k.k.j.k.j.j.j.j.j.d.d.d.d.d.d.d.d.d.d.d.s.s.s.s.s.s.a.u.y.y.y.y.y.y.y.y.r.t.t.t.t.t.t.t.w.w.X                                         X 5.5.5.5.5.5.0.5.0.w.w.w.w.w.w.w.w.t.t.t.r.r.y.y.y.y.y.y.a.u.u.u.s.s.d.d.d.d.d.d.d.d.d.d.d.d.g.j.k.k.k.k.k.k.k.k.k.k. .                                ' } } } } } } } '.'.'.'.'.'.'.'.'.'.'.'.'.'.'.'.'.'.'.'.'.'.'.'.'.'.'.'.'.'.'.'.'.'.",
"'.'.'.'.'.'.'.'.'.'.'.'.'.'.'.'.'.'.'.'.'.'.'.'.'.'.'.'.'.'.'.'.'.'.'.} } } } } } } (                                 I l.k.k.k.k.k.k.k.k.k.k.k.j.k.j.j.j.j.j.d.d.d.d.d.d.d.d.d.d.d.s.s.s.s.s.s.a.u.y.y.y.y.y.y.y.y.r.t.t.t.t.t.t.t.w.w.w.7                                         7 5.5.5.5.0.0.w.0.w.w.w.w.w.w.w.w.t.t.t.r.r.y.y.y.y.y.y.a.u.s.a.s.s.d.d.d.d.d.d.d.d.d.d.d.d.g.k.k.k.k.k.k.k.k.k.k.k.L                                 ) } } } } } } } '.'.'.'.'.'.'.'.'.'.'.'.'.'.'.'.'.'.'.'.'.'.'.'.'.'.'.'.'.'.'.'.'.'.'.",
"'.'.'.'.'.'.'.'.'.'.'.'.'.'.'.'.'.'.'.'.'.'.'.'.'.'.'.'.'.'.'.'.'.'.'.'.} } } } } } } W                                 V k.k.k.k.k.k.k.k.k.k.j.j.j.j.j.j.j.d.d.d.d.d.d.d.d.d.d.d.s.s.s.s.s.s.a.u.y.y.y.y.y.y.y.y.t.t.t.t.t.t.t.t.w.w.w.w.C                                         V 5.5.5.w.w.w.w.w.w.w.w.w.w.t.t.t.t.t.r.r.y.y.y.y.y.y.y.u.u.s.s.s.d.d.d.d.d.d.d.d.d.d.d.d.g.k.j.k.k.k.k.k.k.k.k.k.V                                 ! } } } } } } } '.'.'.'.'.'.'.'.'.'.'.'.'.'.'.'.'.'.'.'.'.'.'.'.'.'.'.'.'.'.'.'.'.'.'.'.",
"'.'.'.'.'.'.'.'.'.'.'.'.'.'.'.'.'.'.'.'.'.'.'.'.'.'.'.'.'.'.'.'.'.'.'.'.} } } } } } } } E                                 l d.k.k.k.k.k.k.k.k.k.j.j.j.j.j.d.d.d.d.d.d.d.d.d.d.d.s.s.s.s.s.s.a.u.y.y.y.y.y.y.y.y.y.t.t.t.t.t.t.e.w.w.w.w.w.*.                                        &.5.5.5.w.w.w.w.w.w.w.w.w.t.t.t.t.t.r.r.y.y.y.y.y.u.u.u.u.u.s.s.d.d.d.d.d.d.d.d.d.d.d.d.g.k.j.k.k.k.k.k.k.k.k.d.r                                 h } } } } } } } } '.'.'.'.'.'.'.'.'.'.'.'.'.'.'.'.'.'.'.'.'.'.'.'.'.'.'.'.'.'.'.'.'.'.'.'.",
"'.'.'.'.'.'.'.'.'.'.'.'.'.'.'.'.'.'.'.'.'.'.'.'.'.'.'.'.'.'.'.'.'.'.'.'.'.} } } } } } } } g                                 8 r.k.k.k.k.k.k.k.j.j.j.j.j.d.d.d.d.d.d.d.d.d.d.d.s.s.s.s.s.s.a.u.y.y.y.y.y.y.y.y.r.t.t.t.t.t.t.e.w.w.w.w.w.w.w.z                                     z 5.5.5.w.w.w.w.w.w.w.w.w.t.t.t.t.t.y.y.y.y.y.y.y.u.u.u.s.s.s.s.d.d.d.d.d.d.d.d.d.d.d.d.g.k.k.k.k.k.k.k.k.k.k.r.7                                 f } } } } } } } } '.'.'.'.'.'.'.'.'.'.'.'.'.'.'.'.'.'.'.'.'.'.'.'.'.'.'.'.'.'.'.'.'.'.'.'.'.",
"'.'.'.'.'.'.'.'.'.'.'.'.'.'.'.'.'.'.'.'.'.'.'.'.'.'.'.'.'.'.'.'.'.'.'.'.'.'.} } } } } } } } d                                 * &.k.k.k.k.k.j.j.j.j.j.d.d.d.d.d.d.d.d.d.d.d.s.s.s.s.s.s.a.u.y.y.y.y.y.y.y.y.r.t.t.t.t.t.t.t.w.w.w.w.w.w.w.6.<.&                                 & <.5.5.0.w.w.w.w.w.w.w.w.t.t.t.t.t.y.y.y.y.y.y.y.u.u.u.s.s.s.s.d.d.d.d.d.d.d.d.d.d.d.d.g.k.k.k.k.k.k.k.k.k.k.=.*                                 a } } } } } } } } '.'.'.'.'.'.'.'.'.'.'.'.'.'.'.'.'.'.'.'.'.'.'.'.'.'.'.'.'.'.'.'.'.'.'.'.'.'.",
"'.'.'.'.'.'.'.'.'.'.'.'.'.'.'.'.'.'.'.'.'.'.'.'.'.'.'.'.'.'.'.'.'.'.'.'.'.'.'.} } } } } } } } p                                   H k.k.k.j.j.j.j.j.d.d.d.d.d.d.d.d.d.d.d.s.s.s.s.s.s.a.u.y.y.y.y.y.y.y.y.y.t.t.t.t.t.t.t.w.w.w.w.w.w.w.w.w.w.X.O                             O X.5.5.5.w.w.w.w.w.w.w.w.t.t.t.t.t.r.y.y.y.y.y.y.u.u.u.s.s.s.s.d.d.d.d.d.d.d.d.d.d.d.d.d.d.g.k.k.k.k.k.k.k.k.Y O                                 p } } } } } } } } '.'.'.'.'.'.'.'.'.'.'.'.'.'.'.'.'.'.'.'.'.'.'.'.'.'.'.'.'.'.'.'.'.'.'.'.'.'.'.",
"'.'.'.'.'.'.'.'.'.'.'.'.'.'.'.'.'.'.'.'.'.'.'.'.'.'.'.'.'.'.'.'.'.'.'.'.'.'.'.'.} } } } } } } } f                                   c d.j.j.j.j.j.d.d.d.d.d.d.d.d.d.d.d.s.s.s.s.s.s.a.u.y.y.y.y.y.y.y.y.t.t.t.t.t.t.t.t.w.w.w.w.w.w.0.w.w.w.0.6.X.o                         o X.5.5.5.5.w.w.w.w.w.w.w.e.t.t.t.t.r.r.y.y.y.y.y.u.u.u.u.a.s.s.d.d.d.d.d.d.d.d.d.d.d.d.g.d.g.k.k.k.k.k.k.k.d.c                                   s } } } } } } } } '.'.'.'.'.'.'.'.'.'.'.'.'.'.'.'.'.'.'.'.'.'.'.'.'.'.'.'.'.'.'.'.'.'.'.'.'.'.'.'.",
"'.'.'.'.'.'.'.'.'.'.'.'.'.'.'.'.'.'.'.'.'.'.'.'.'.'.'.'.'.'.'.'.'.'.'.'.'.'.'.'.'.} } } } } } } } k                                   - *.j.j.j.d.d.d.d.d.d.d.d.d.d.d.s.s.s.s.s.s.a.u.y.y.y.y.y.y.y.y.r.t.t.t.t.t.t.t.w.w.w.w.w.w.w.w.0.w.5.6.5.5.:.e                     e :.5.5.0.5.0.w.w.w.w.w.w.e.t.t.t.t.y.r.y.y.y.y.y.u.u.u.s.u.s.s.d.d.d.d.d.d.d.d.d.d.d.d.g.d.g.k.k.k.k.k.k.k.,.-                                   d } } } } } } } } '.'.'.'.'.'.'.'.'.'.'.'.'.'.'.'.'.'.'.'.'.'.'.'.'.'.'.'.'.'.'.'.'.'.'.'.'.'.'.'.'.",
"'.'.'.'.'.'.'.'.'.'.'.'.'.'.'.'.'.'.'.'.'.'.'.'.'.'.'.'.'.'.'.'.'.'.'.'.'.'.'.'.'.'.} } } } } } } } j                                     D d.d.d.d.d.d.d.d.d.d.d.d.s.s.s.s.s.s.a.u.y.y.y.y.y.y.y.y.r.t.t.t.t.t.t.t.w.w.w.w.w.w.w.w.0.6.5.5.5.5.5.5.5.#.v -         - m #.6.5.5.0.w.0.w.w.w.w.w.w.w.w.t.t.t.y.y.y.y.y.y.y.u.u.u.u.u.s.s.d.d.d.d.d.d.d.d.d.d.d.d.g.j.g.k.k.k.k.k.k.k.I O                                   h } } } } } } } } '.'.'.'.'.'.'.'.'.'.'.'.'.'.'.'.'.'.'.'.'.'.'.'.'.'.'.'.'.'.'.'.'.'.'.'.'.'.'.'.'.'.",
"'.'.'.'.'.'.'.'.'.'.'.'.'.'.'.'.'.'.'.'.'.'.'.'.'.'.'.'.'.'.'.'.'.'.'.'.'.'.'.'.'.'.'.} } } } } } } } W                                     0 4.d.d.d.d.d.d.d.d.d.s.s.s.s.s.s.a.u.a.y.y.y.y.y.y.y.r.t.t.t.t.t.t.t.w.w.w.w.w.w.w.6.5.5.5.5.5.5.5.5.5.5.5.5.5.2.*.*.2.5.5.5.5.5.0.w.w.w.w.w.w.w.w.t.t.t.t.t.r.y.y.y.y.y.y.u.u.u.s.u.s.s.d.d.d.d.d.d.d.d.d.d.d.d.g.j.k.k.k.k.k.k.k.0.0                                     ! } } } } } } } } '.'.'.'.'.'.'.'.'.'.'.'.'.'.'.'.'.'.'.'.'.'.'.'.'.'.'.'.'.'.'.'.'.'.'.'.'.'.'.'.'.'.'.",
"'.'.'.'.'.'.'.'.'.'.'.'.'.'.'.'.'.'.'.'.'.'.'.'.'.'.'.'.'.'.'.'.'.'.'.'.'.'.'.'.'.'.'.'.} } } } } } } } )                                     O F d.d.d.d.d.d.d.s.s.s.s.s.s.a.u.y.y.y.y.y.y.y.y.r.t.t.t.t.w.t.e.w.w.w.w.w.w.w.6.5.5.5.5.5.5.5.5.5.5.5.3.5.5.5.5.5.5.5.5.5.5.5.5.w.w.w.w.w.w.w.t.t.t.t.t.r.r.y.y.y.y.y.u.u.u.s.s.s.s.d.d.d.d.d.d.d.d.d.d.d.d.g.k.k.k.k.k.k.k.k.Y X                                     ( } } } } } } } } '.'.'.'.'.'.'.'.'.'.'.'.'.'.'.'.'.'.'.'.'.'.'.'.'.'.'.'.'.'.'.'.'.'.'.'.'.'.'.'.'.'.'.'.",
"'.'.'.'.'.'.'.'.'.'.'.'.'.'.'.'.'.'.'.'.'.'.'.'.'.'.'.'.'.'.'.'.'.'.'.'.'.'.'.'.'.'.'.'.'.} } } } } } } } ' .                                     5 *.d.d.d.d.s.s.s.s.s.s.a.u.y.y.y.y.y.y.y.y.r.t.t.t.t.t.t.e.w.w.w.w.w.w.0.6.5.6.5.5.5.5.5.5.5.5.5.3.3.5.5.5.5.5.5.5.5.5.0.0.0.w.w.w.w.w.w.t.t.t.t.t.r.r.y.y.y.y.y.u.u.u.s.s.s.s.d.d.d.d.d.d.d.d.d.d.d.d.g.k.k.k.k.k.k.k.1.8                                     . ' } } } } } } } } '.'.'.'.'.'.'.'.'.'.'.'.'.'.'.'.'.'.'.'.'.'.'.'.'.'.'.'.'.'.'.'.'.'.'.'.'.'.'.'.'.'.'.'.'.",
"'.'.'.'.'.'.'.'.'.'.'.'.'.'.'.'.'.'.'.'.'.'.'.'.'.'.'.'.'.'.'.'.'.'.'.'.'.'.'.'.'.'.'.'.'.'.} } } } } } } } { #                                       V t.d.s.s.s.s.s.s.a.u.y.y.y.y.y.y.y.y.r.t.t.t.t.t.t.t.w.w.w.w.w.w.0.6.5.5.0.5.5.5.5.5.5.5.5.3.3.5.5.5.5.5.5.5.5.5.0.0.w.w.w.w.w.w.w.t.t.t.t.t.r.r.y.y.y.y.y.u.u.u.s.s.s.s.d.d.d.d.d.d.d.d.d.d.d.d.g.k.k.k.k.k.k.u.V                                       # { } } } } } } } } '.'.'.'.'.'.'.'.'.'.'.'.'.'.'.'.'.'.'.'.'.'.'.'.'.'.'.'.'.'.'.'.'.'.'.'.'.'.'.'.'.'.'.'.'.'.",
"'.'.'.'.'.'.'.'.'.'.'.'.'.'.'.'.'.'.'.'.'.'.'.'.'.'.'.'.'.'.'.'.'.'.'.'.'.'.'.'.'.'.'.'.'.'.'.} } } } } } } } } u                                       o H s.s.s.s.s.a.y.y.y.y.y.y.y.y.y.t.t.t.t.t.t.t.t.w.w.w.w.w.w.0.w.w.w.0.6.5.5.5.5.5.5.5.5.5.5.5.5.5.5.5.6.0.5.0.5.0.w.w.w.w.w.w.t.t.t.t.t.r.r.y.y.y.y.y.u.u.u.s.s.s.s.d.d.d.d.d.d.d.d.d.d.d.d.d.j.j.k.k.k.j.| *                                       u } } } } } } } } } '.'.'.'.'.'.'.'.'.'.'.'.'.'.'.'.'.'.'.'.'.'.'.'.'.'.'.'.'.'.'.'.'.'.'.'.'.'.'.'.'.'.'.'.'.'.'.",
"'.'.'.'.'.'.'.'.'.'.'.'.'.'.'.'.'.'.'.'.'.'.'.'.'.'.'.'.'.'.'.'.'.'.'.'.'.'.'.'.'.'.'.'.'.'.'.'.} } } } } } } } } E                                         5 #.s.s.a.u.y.y.y.y.y.y.y.y.r.t.t.t.t.t.t.e.w.w.w.w.w.w.0.6.w.w.0.6.5.5.5.5.5.5.5.5.5.5.5.5.5.5.5.5.0.w.0.w.0.w.w.w.w.w.w.t.t.t.t.t.r.r.y.y.y.y.y.u.u.u.s.s.s.s.d.d.d.d.d.d.d.d.d.d.d.d.g.d.j.k.k.k.$.5                                         j } } } } } } } } } '.'.'.'.'.'.'.'.'.'.'.'.'.'.'.'.'.'.'.'.'.'.'.'.'.'.'.'.'.'.'.'.'.'.'.'.'.'.'.'.'.'.'.'.'.'.'.'.",
"'.'.'.'.'.'.'.'.'.'.'.'.'.'.'.'.'.'.'.'.'.'.'.'.'.'.'.'.'.'.'.'.'.'.'.'.'.'.'.'.'.'.'.'.'.'.'.'.'.} } } } } } } } } _ .                                         8 #.u.y.y.y.y.y.y.y.y.r.t.t.t.t.t.t.w.w.w.w.w.w.w.w.w.0.w.5.6.5.5.5.5.5.5.5.5.5.5.5.5.5.5.5.5.5.w.w.w.w.w.w.w.w.w.w.t.t.t.t.t.r.r.y.y.y.y.y.u.u.u.s.s.s.s.d.d.d.d.d.d.d.d.d.d.d.d.g.j.g.k.k.=.q                                         . _ } } } } } } } } } '.'.'.'.'.'.'.'.'.'.'.'.'.'.'.'.'.'.'.'.'.'.'.'.'.'.'.'.'.'.'.'.'.'.'.'.'.'.'.'.'.'.'.'.'.'.'.'.'.",
"'.'.'.'.'.'.'.'.'.'.'.'.'.'.'.'.'.'.'.'.'.'.'.'.'.'.'.'.'.'.'.'.'.'.'.'.'.'.'.'.'.'.'.'.'.'.'.'.'.'.} } } } } } } } } { >                                           q %.y.y.y.y.y.y.r.t.t.t.t.t.t.e.w.w.w.w.w.w.w.w.0.6.5.5.5.5.5.5.5.5.5.5.5.5.5.5.5.5.5.5.5.5.w.w.w.w.w.w.w.w.w.t.t.t.t.t.r.r.y.y.y.y.y.u.u.u.s.s.s.s.d.d.d.d.d.d.d.d.d.d.d.d.g.j.j.k.-.q                                           , { } } } } } } } } } '.'.'.'.'.'.'.'.'.'.'.'.'.'.'.'.'.'.'.'.'.'.'.'.'.'.'.'.'.'.'.'.'.'.'.'.'.'.'.'.'.'.'.'.'.'.'.'.'.'.",
"'.'.'.'.'.'.'.'.'.'.'.'.'.'.'.'.'.'.'.'.'.'.'.'.'.'.'.'.'.'.'.'.'.'.'.'.'.'.'.'.'.'.'.'.'.'.'.'.'.'.'.'.} } } } } } } } } E                                             8  .y.y.y.r.t.t.t.t.t.t.w.w.w.w.w.w.w.w.w.5.6.5.5.5.5.5.5.5.5.5.3.3.5.5.5.5.5.5.5.5.5.5.w.w.w.w.w.w.w.w.t.t.t.t.t.r.r.y.y.y.y.y.u.u.u.s.u.s.s.d.d.d.d.d.d.d.d.d.d.d.d.g.j.k.*.r                                             E } } } } } } } } } '.'.'.'.'.'.'.'.'.'.'.'.'.'.'.'.'.'.'.'.'.'.'.'.'.'.'.'.'.'.'.'.'.'.'.'.'.'.'.'.'.'.'.'.'.'.'.'.'.'.'.'.",
"'.'.'.'.'.'.'.'.'.'.'.'.'.'.'.'.'.'.'.'.'.'.'.'.'.'.'.'.'.'.'.'.'.'.'.'.'.'.'.'.'.'.'.'.'.'.'.'.'.'.'.'.'.} } } } } } } } } ' $                                             - G w.t.t.t.t.t.t.t.w.w.w.w.w.w.w.w.5.5.5.5.5.5.5.5.5.5.5.3.3.5.5.5.5.5.5.5.5.5.5.5.w.w.w.w.w.w.w.w.t.t.t.t.r.r.y.y.y.y.y.y.u.u.s.s.s.s.d.d.d.d.d.d.d.d.d.d.d.d.g.d.T 5                                             @ ` } } } } } } } } } '.'.'.'.'.'.'.'.'.'.'.'.'.'.'.'.'.'.'.'.'.'.'.'.'.'.'.'.'.'.'.'.'.'.'.'.'.'.'.'.'.'.'.'.'.'.'.'.'.'.'.'.'.",
"'.'.'.'.'.'.'.'.'.'.'.'.'.'.'.'.'.'.'.'.'.'.'.'.'.'.'.'.'.'.'.'.'.'.'.'.'.'.'.'.'.'.'.'.'.'.'.'.'.'.'.'.'.'.} } } } } } } } } } a                                               o c &.t.t.t.t.w.w.w.w.w.w.w.w.w.6.5.5.5.5.5.5.5.5.5.3.3.5.5.5.5.5.5.6.0.5.0.5.0.w.w.w.w.w.w.e.t.t.t.t.r.r.y.y.y.y.y.y.a.u.s.u.s.s.s.d.d.d.d.d.d.d.d.d.d.d.3.Z *                                               s } } } } } } } } } } '.'.'.'.'.'.'.'.'.'.'.'.'.'.'.'.'.'.'.'.'.'.'.'.'.'.'.'.'.'.'.'.'.'.'.'.'.'.'.'.'.'.'.'.'.'.'.'.'.'.'.'.'.'.",
"'.'.'.'.'.'.'.'.'.'.'.'.'.'.'.'.'.'.'.'.'.'.'.'.'.'.'.'.'.'.'.'.'.'.'.'.'.'.'.'.'.'.'.'.'.'.'.'.'.'.'.'.'.'.'.} } } } } } } } } } ` $                                                 7 I 5.w.w.w.w.w.w.0.w.w.w.5.5.5.5.5.5.5.5.5.3.3.5.5.5.5.5.5.6.0.5.0.w.0.w.w.w.w.w.w.w.w.t.t.t.y.r.y.y.y.y.y.u.a.u.s.u.s.s.s.s.d.d.d.d.d.d.d.d.u.Y 8                                                 @ _ } } } } } } } } } } '.'.'.'.'.'.'.'.'.'.'.'.'.'.'.'.'.'.'.'.'.'.'.'.'.'.'.'.'.'.'.'.'.'.'.'.'.'.'.'.'.'.'.'.'.'.'.'.'.'.'.'.'.'.'.",
"'.'.'.'.'.'.'.'.'.'.'.'.'.'.'.'.'.'.'.'.'.'.'.'.'.'.'.'.'.'.'.'.'.'.'.'.'.'.'.'.'.'.'.'.'.'.'.'.'.'.'.'.'.'.'.'.'.} } } } } } } } } } h                                                   O q L 3.w.w.w.w.0.6.5.5.5.5.5.5.5.5.5.3.3.5.5.5.5.5.5.6.0.w.w.w.w.w.w.w.w.w.w.t.t.t.t.t.y.y.y.y.y.y.y.u.u.u.s.s.s.s.d.d.d.d.d.d.d.d.u.X.c X                                                   g } } } } } } } } } } '.'.'.'.'.'.'.'.'.'.'.'.'.'.'.'.'.'.'.'.'.'.'.'.'.'.'.'.'.'.'.'.'.'.'.'.'.'.'.'.'.'.'.'.'.'.'.'.'.'.'.'.'.'.'.'.'.",
"'.'.'.'.'.'.'.'.'.'.'.'.'.'.'.'.'.'.'.'.'.'.'.'.'.'.'.'.'.'.'.'.'.'.'.'.'.'.'.'.'.'.'.'.'.'.'.'.'.'.'.'.'.'.'.'.'.'.} } } } } } } } } } ] >                                                     X r L <.0.6.5.5.5.5.5.5.5.5.5.5.3.5.5.5.5.5.5.5.0.w.w.w.w.w.w.w.w.w.w.w.t.t.t.t.r.r.y.y.y.y.y.u.u.u.s.s.s.s.d.d.d.d.d.d.w.T z X                                                     2 ] } } } } } } } } } } '.'.'.'.'.'.'.'.'.'.'.'.'.'.'.'.'.'.'.'.'.'.'.'.'.'.'.'.'.'.'.'.'.'.'.'.'.'.'.'.'.'.'.'.'.'.'.'.'.'.'.'.'.'.'.'.'.'.",
"'.'.'.'.'.'.'.'.'.'.'.'.'.'.'.'.'.'.'.'.'.'.'.'.'.'.'.'.'.'.'.'.'.'.'.'.'.'.'.'.'.'.'.'.'.'.'.'.'.'.'.'.'.'.'.'.'.'.'.'.} } } } } } } } } } ) @                                                         5 N X.3.5.5.5.5.5.5.5.5.5.5.5.5.5.5.5.5.5.0.w.w.w.w.w.w.w.w.w.w.t.t.t.r.r.y.y.y.y.y.u.u.u.s.s.s.s.d.d.d.u.&.Z 6                                                         + ^ } } } } } } } } } } } '.'.'.'.'.'.'.'.'.'.'.'.'.'.'.'.'.'.'.'.'.'.'.'.'.'.'.'.'.'.'.'.'.'.'.'.'.'.'.'.'.'.'.'.'.'.'.'.'.'.'.'.'.'.'.'.'.'.'.",
"'.'.'.'.'.'.'.'.'.'.'.'.'.'.'.'.'.'.'.'.'.'.'.'.'.'.'.'.'.'.'.'.'.'.'.'.'.'.'.'.'.'.'.'.'.'.'.'.'.'.'.'.'.'.'.'.'.'.'.'.'.} } } } } } } } } } } j                                                             O 7 M U >.5.5.5.5.5.5.5.5.5.5.5.5.0.w.w.w.w.w.w.w.w.w.w.t.t.t.r.r.y.y.y.y.y.u.u.u.s.s.s.s.q...Z 8 O                                                             h } } } } } } } } } } } '.'.'.'.'.'.'.'.'.'.'.'.'.'.'.'.'.'.'.'.'.'.'.'.'.'.'.'.'.'.'.'.'.'.'.'.'.'.'.'.'.'.'.'.'.'.'.'.'.'.'.'.'.'.'.'.'.'.'.'.'.",
"'.'.'.'.'.'.'.'.'.'.'.'.'.'.'.'.'.'.'.'.'.'.'.'.'.'.'.'.'.'.'.'.'.'.'.'.'.'.'.'.'.'.'.'.'.'.'.'.'.'.'.'.'.'.'.'.'.'.'.'.'.'.} } } } } } } } } } } { s                                                                   * 0 n P #.2.5.5.5.5.5.0.5.0.w.w.w.w.w.w.e.t.t.t.t.r.r.y.y.y.y.y.u.u.w.*.Y V w *                                                                   s { } } } } } } } } } } } '.'.'.'.'.'.'.'.'.'.'.'.'.'.'.'.'.'.'.'.'.'.'.'.'.'.'.'.'.'.'.'.'.'.'.'.'.'.'.'.'.'.'.'.'.'.'.'.'.'.'.'.'.'.'.'.'.'.'.'.'.'.",
"'.'.'.'.'.'.'.'.'.'.'.'.'.'.'.'.'.'.'.'.'.'.'.'.'.'.'.'.'.'.'.'.'.'.'.'.'.'.'.'.'.'.'.'.'.'.'.'.'.'.'.'.'.'.'.'.'.'.'.'.'.'.'.'.} } } } } } } } } } } { s                                                                           o 5 e m A P U X.&.*.2.3.4.t.t.5.4.3.>.*.#.| L D M r 5 o                                                                           y ] } } } } } } } } } } } '.'.'.'.'.'.'.'.'.'.'.'.'.'.'.'.'.'.'.'.'.'.'.'.'.'.'.'.'.'.'.'.'.'.'.'.'.'.'.'.'.'.'.'.'.'.'.'.'.'.'.'.'.'.'.'.'.'.'.'.'.'.'.'.",
"'.'.'.'.'.'.'.'.'.'.'.'.'.'.'.'.'.'.'.'.'.'.'.'.'.'.'.'.'.'.'.'.'.'.'.'.'.'.'.'.'.'.'.'.'.'.'.'.'.'.'.'.'.'.'.'.'.'.'.'.'.'.'.'.'.'.} } } } } } } } } } } ] i                                                                                                                                                                                                     i [ } } } } } } } } } } } '.'.'.'.'.'.'.'.'.'.'.'.'.'.'.'.'.'.'.'.'.'.'.'.'.'.'.'.'.'.'.'.'.'.'.'.'.'.'.'.'.'.'.'.'.'.'.'.'.'.'.'.'.'.'.'.'.'.'.'.'.'.'.'.'.'.",
"'.'.'.'.'.'.'.'.'.'.'.'.'.'.'.'.'.'.'.'.'.'.'.'.'.'.'.'.'.'.'.'.'.'.'.'.'.'.'.'.'.'.'.'.'.'.'.'.'.'.'.'.'.'.'.'.'.'.'.'.'.'.'.'.'.'.'.} } } } } } } } } } } } { j                                                                                                                                                                                             f { } } } } } } } } } } } } '.'.'.'.'.'.'.'.'.'.'.'.'.'.'.'.'.'.'.'.'.'.'.'.'.'.'.'.'.'.'.'.'.'.'.'.'.'.'.'.'.'.'.'.'.'.'.'.'.'.'.'.'.'.'.'.'.'.'.'.'.'.'.'.'.'.'.",
"'.'.'.'.'.'.'.'.'.'.'.'.'.'.'.'.'.'.'.'.'.'.'.'.'.'.'.'.'.'.'.'.'.'.'.'.'.'.'.'.'.'.'.'.'.'.'.'.'.'.'.'.'.'.'.'.'.'.'.'.'.'.'.'.'.'.'.'.'.} } } } } } } } } } } } } W +                                                                                                                                                                                 . j } } } } } } } } } } } } } '.'.'.'.'.'.'.'.'.'.'.'.'.'.'.'.'.'.'.'.'.'.'.'.'.'.'.'.'.'.'.'.'.'.'.'.'.'.'.'.'.'.'.'.'.'.'.'.'.'.'.'.'.'.'.'.'.'.'.'.'.'.'.'.'.'.'.'.'.",
"'.'.'.'.'.'.'.'.'.'.'.'.'.'.'.'.'.'.'.'.'.'.'.'.'.'.'.'.'.'.'.'.'.'.'.'.'.'.'.'.'.'.'.'.'.'.'.'.'.'.'.'.'.'.'.'.'.'.'.'.'.'.'.'.'.'.'.'.'.'.'.} } } } } } } } } } } } } ( 1                                                                                                                                                                         1 ) } } } } } } } } } } } } } '.'.'.'.'.'.'.'.'.'.'.'.'.'.'.'.'.'.'.'.'.'.'.'.'.'.'.'.'.'.'.'.'.'.'.'.'.'.'.'.'.'.'.'.'.'.'.'.'.'.'.'.'.'.'.'.'.'.'.'.'.'.'.'.'.'.'.'.'.'.'.",
"'.'.'.'.'.'.'.'.'.'.'.'.'.'.'.'.'.'.'.'.'.'.'.'.'.'.'.'.'.'.'.'.'.'.'.'.'.'.'.'.'.'.'.'.'.'.'.'.'.'.'.'.'.'.'.'.'.'.'.'.'.'.'.'.'.'.'.'.'.'.'.'.'.} } } } } } } } } } } } } { E +                                                                                                                                                             . g [ } } } } } } } } } } } } } '.'.'.'.'.'.'.'.'.'.'.'.'.'.'.'.'.'.'.'.'.'.'.'.'.'.'.'.'.'.'.'.'.'.'.'.'.'.'.'.'.'.'.'.'.'.'.'.'.'.'.'.'.'.'.'.'.'.'.'.'.'.'.'.'.'.'.'.'.'.'.'.'.",
"'.'.'.'.'.'.'.'.'.'.'.'.'.'.'.'.'.'.'.'.'.'.'.'.'.'.'.'.'.'.'.'.'.'.'.'.'.'.'.'.'.'.'.'.'.'.'.'.'.'.'.'.'.'.'.'.'.'.'.'.'.'.'.'.'.'.'.'.'.'.'.'.'.'.'.} } } } } } } } } } } } } } _ d .                                                                                                                                                 . d _ } } } } } } } } } } } } } } '.'.'.'.'.'.'.'.'.'.'.'.'.'.'.'.'.'.'.'.'.'.'.'.'.'.'.'.'.'.'.'.'.'.'.'.'.'.'.'.'.'.'.'.'.'.'.'.'.'.'.'.'.'.'.'.'.'.'.'.'.'.'.'.'.'.'.'.'.'.'.'.'.'.'.",
"'.'.'.'.'.'.'.'.'.'.'.'.'.'.'.'.'.'.'.'.'.'.'.'.'.'.'.'.'.'.'.'.'.'.'.'.'.'.'.'.'.'.'.'.'.'.'.'.'.'.'.'.'.'.'.'.'.'.'.'.'.'.'.'.'.'.'.'.'.'.'.'.'.'.'.'.'.} } } } } } } } } } } } } } } _ s .                                                                                                                                     . s _ } } } } } } } } } } } } } } } '.'.'.'.'.'.'.'.'.'.'.'.'.'.'.'.'.'.'.'.'.'.'.'.'.'.'.'.'.'.'.'.'.'.'.'.'.'.'.'.'.'.'.'.'.'.'.'.'.'.'.'.'.'.'.'.'.'.'.'.'.'.'.'.'.'.'.'.'.'.'.'.'.'.'.'.'.",
"'.'.'.'.'.'.'.'.'.'.'.'.'.'.'.'.'.'.'.'.'.'.'.'.'.'.'.'.'.'.'.'.'.'.'.'.'.'.'.'.'.'.'.'.'.'.'.'.'.'.'.'.'.'.'.'.'.'.'.'.'.'.'.'.'.'.'.'.'.'.'.'.'.'.'.'.'.'.'.} } } } } } } } } } } } } } } } ] E ,                                                                                                                         : g ` } } } } } } } } } } } } } } } } '.'.'.'.'.'.'.'.'.'.'.'.'.'.'.'.'.'.'.'.'.'.'.'.'.'.'.'.'.'.'.'.'.'.'.'.'.'.'.'.'.'.'.'.'.'.'.'.'.'.'.'.'.'.'.'.'.'.'.'.'.'.'.'.'.'.'.'.'.'.'.'.'.'.'.'.'.'.'.",
"'.'.'.'.'.'.'.'.'.'.'.'.'.'.'.'.'.'.'.'.'.'.'.'.'.'.'.'.'.'.'.'.'.'.'.'.'.'.'.'.'.'.'.'.'.'.'.'.'.'.'.'.'.'.'.'.'.'.'.'.'.'.'.'.'.'.'.'.'.'.'.'.'.'.'.'.'.'.'.'.'.} } } } } } } } } } } } } } } } } } ( f :                                                                                                         : f ( } } } } } } } } } } } } } } } } } } '.'.'.'.'.'.'.'.'.'.'.'.'.'.'.'.'.'.'.'.'.'.'.'.'.'.'.'.'.'.'.'.'.'.'.'.'.'.'.'.'.'.'.'.'.'.'.'.'.'.'.'.'.'.'.'.'.'.'.'.'.'.'.'.'.'.'.'.'.'.'.'.'.'.'.'.'.'.'.'.'.",
"'.'.'.'.'.'.'.'.'.'.'.'.'.'.'.'.'.'.'.'.'.'.'.'.'.'.'.'.'.'.'.'.'.'.'.'.'.'.'.'.'.'.'.'.'.'.'.'.'.'.'.'.'.'.'.'.'.'.'.'.'.'.'.'.'.'.'.'.'.'.'.'.'.'.'.'.'.'.'.'.'.'.'.'.} } } } } } } } } } } } } } } } } } } _ j 1 .                                                                                     . 1 E _ } } } } } } } } } } } } } } } } } } } '.'.'.'.'.'.'.'.'.'.'.'.'.'.'.'.'.'.'.'.'.'.'.'.'.'.'.'.'.'.'.'.'.'.'.'.'.'.'.'.'.'.'.'.'.'.'.'.'.'.'.'.'.'.'.'.'.'.'.'.'.'.'.'.'.'.'.'.'.'.'.'.'.'.'.'.'.'.'.'.'.'.'.'.",
"'.'.'.'.'.'.'.'.'.'.'.'.'.'.'.'.'.'.'.'.'.'.'.'.'.'.'.'.'.'.'.'.'.'.'.'.'.'.'.'.'.'.'.'.'.'.'.'.'.'.'.'.'.'.'.'.'.'.'.'.'.'.'.'.'.'.'.'.'.'.'.'.'.'.'.'.'.'.'.'.'.'.'.'.'.'.} } } } } } } } } } } } } } } } } } } } } } ` ! d < +                                                             @ < d ~ ` } } } } } } } } } } } } } } } } } } } } } } '.'.'.'.'.'.'.'.'.'.'.'.'.'.'.'.'.'.'.'.'.'.'.'.'.'.'.'.'.'.'.'.'.'.'.'.'.'.'.'.'.'.'.'.'.'.'.'.'.'.'.'.'.'.'.'.'.'.'.'.'.'.'.'.'.'.'.'.'.'.'.'.'.'.'.'.'.'.'.'.'.'.'.'.'.'.",
"'.'.'.'.'.'.'.'.'.'.'.'.'.'.'.'.'.'.'.'.'.'.'.'.'.'.'.'.'.'.'.'.'.'.'.'.'.'.'.'.'.'.'.'.'.'.'.'.'.'.'.'.'.'.'.'.'.'.'.'.'.'.'.'.'.'.'.'.'.'.'.'.'.'.'.'.'.'.'.'.'.'.'.'.'.'.'.'.'.} } } } } } } } } } } } } } } } } } } } } } } } } { ` / ! j d y , : : + . .     . . + : : , y d j ! / ` { } } } } } } } } } } } } } } } } } } } } } } } } } '.'.'.'.'.'.'.'.'.'.'.'.'.'.'.'.'.'.'.'.'.'.'.'.'.'.'.'.'.'.'.'.'.'.'.'.'.'.'.'.'.'.'.'.'.'.'.'.'.'.'.'.'.'.'.'.'.'.'.'.'.'.'.'.'.'.'.'.'.'.'.'.'.'.'.'.'.'.'.'.'.'.'.'.'.'.'.'.'.",
"'.'.'.'.'.'.'.'.'.'.'.'.'.'.'.'.'.'.'.'.'.'.'.'.'.'.'.'.'.'.'.'.'.'.'.'.'.'.'.'.'.'.'.'.'.'.'.'.'.'.'.'.'.'.'.'.'.'.'.'.'.'.'.'.'.'.'.'.'.'.'.'.'.'.'.'.'.'.'.'.'.'.'.'.'.'.'.'.'.'.'.'.} } } } } } } } } } } } } } } } } } } } } } } } } } } } } } } } } } } } } } } } } } } } } } } } } } } } } } } } } } } } } } } } } } } } } } } } '.'.'.'.'.'.'.'.'.'.'.'.'.'.'.'.'.'.'.'.'.'.'.'.'.'.'.'.'.'.'.'.'.'.'.'.'.'.'.'.'.'.'.'.'.'.'.'.'.'.'.'.'.'.'.'.'.'.'.'.'.'.'.'.'.'.'.'.'.'.'.'.'.'.'.'.'.'.'.'.'.'.'.'.'.'.'.'.'.'.'.'.",
"'.'.'.'.'.'.'.'.'.'.'.'.'.'.'.'.'.'.'.'.'.'.'.'.'.'.'.'.'.'.'.'.'.'.'.'.'.'.'.'.'.'.'.'.'.'.'.'.'.'.'.'.'.'.'.'.'.'.'.'.'.'.'.'.'.'.'.'.'.'.'.'.'.'.'.'.'.'.'.'.'.'.'.'.'.'.'.'.'.'.'.'.'.'.'.'.} } } } } } } } } } } } } } } } } } } } } } } } } } } } } } } } } } } } } } } } } } } } } } } } } } } } } } } } } } } } } } } } } '.'.'.'.'.'.'.'.'.'.'.'.'.'.'.'.'.'.'.'.'.'.'.'.'.'.'.'.'.'.'.'.'.'.'.'.'.'.'.'.'.'.'.'.'.'.'.'.'.'.'.'.'.'.'.'.'.'.'.'.'.'.'.'.'.'.'.'.'.'.'.'.'.'.'.'.'.'.'.'.'.'.'.'.'.'.'.'.'.'.'.'.'.'.'.",
"'.'.'.'.'.'.'.'.'.'.'.'.'.'.'.'.'.'.'.'.'.'.'.'.'.'.'.'.'.'.'.'.'.'.'.'.'.'.'.'.'.'.'.'.'.'.'.'.'.'.'.'.'.'.'.'.'.'.'.'.'.'.'.'.'.'.'.'.'.'.'.'.'.'.'.'.'.'.'.'.'.'.'.'.'.'.'.'.'.'.'.'.'.'.'.'.'.'.'.} } } } } } } } } } } } } } } } } } } } } } } } } } } } } } } } } } } } } } } } } } } } } } } } } } } } } } } } } } '.'.'.'.'.'.'.'.'.'.'.'.'.'.'.'.'.'.'.'.'.'.'.'.'.'.'.'.'.'.'.'.'.'.'.'.'.'.'.'.'.'.'.'.'.'.'.'.'.'.'.'.'.'.'.'.'.'.'.'.'.'.'.'.'.'.'.'.'.'.'.'.'.'.'.'.'.'.'.'.'.'.'.'.'.'.'.'.'.'.'.'.'.'.'.'.'.'.'.",
"'.'.'.'.'.'.'.'.'.'.'.'.'.'.'.'.'.'.'.'.'.'.'.'.'.'.'.'.'.'.'.'.'.'.'.'.'.'.'.'.'.'.'.'.'.'.'.'.'.'.'.'.'.'.'.'.'.'.'.'.'.'.'.'.'.'.'.'.'.'.'.'.'.'.'.'.'.'.'.'.'.'.'.'.'.'.'.'.'.'.'.'.'.'.'.'.'.'.'.'.'.'.'.'.} } } } } } } } } } } } } } } } } } } } } } } } } } } } } } } } } } } } } } } } } } } } } } } } '.'.'.'.'.'.'.'.'.'.'.'.'.'.'.'.'.'.'.'.'.'.'.'.'.'.'.'.'.'.'.'.'.'.'.'.'.'.'.'.'.'.'.'.'.'.'.'.'.'.'.'.'.'.'.'.'.'.'.'.'.'.'.'.'.'.'.'.'.'.'.'.'.'.'.'.'.'.'.'.'.'.'.'.'.'.'.'.'.'.'.'.'.'.'.'.'.'.'.'.'.'.'.'.",
"'.'.'.'.'.'.'.'.'.'.'.'.'.'.'.'.'.'.'.'.'.'.'.'.'.'.'.'.'.'.'.'.'.'.'.'.'.'.'.'.'.'.'.'.'.'.'.'.'.'.'.'.'.'.'.'.'.'.'.'.'.'.'.'.'.'.'.'.'.'.'.'.'.'.'.'.'.'.'.'.'.'.'.'.'.'.'.'.'.'.'.'.'.'.'.'.'.'.'.'.'.'.'.'.'.'.'.'.'.} } } } } } } } } } } } } } } } } } } } } } } } } } } } } } } } } } } } } } '.'.'.'.'.'.'.'.'.'.'.'.'.'.'.'.'.'.'.'.'.'.'.'.'.'.'.'.'.'.'.'.'.'.'.'.'.'.'.'.'.'.'.'.'.'.'.'.'.'.'.'.'.'.'.'.'.'.'.'.'.'.'.'.'.'.'.'.'.'.'.'.'.'.'.'.'.'.'.'.'.'.'.'.'.'.'.'.'.'.'.'.'.'.'.'.'.'.'.'.'.'.'.'.'.'.'.'.'.",
"'.'.'.'.'.'.'.'.'.'.'.'.'.'.'.'.'.'.'.'.'.'.'.'.'.'.'.'.'.'.'.'.'.'.'.'.'.'.'.'.'.'.'.'.'.'.'.'.'.'.'.'.'.'.'.'.'.'.'.'.'.'.'.'.'.'.'.'.'.'.'.'.'.'.'.'.'.'.'.'.'.'.'.'.'.'.'.'.'.'.'.'.'.'.'.'.'.'.'.'.'.'.'.'.'.'.'.'.'.'.'.'.'.'.'.'.'.} } } } } } } } } } } } } } } } } } } } } } '.'.'.'.'.'.'.'.'.'.'.'.'.'.'.'.'.'.'.'.'.'.'.'.'.'.'.'.'.'.'.'.'.'.'.'.'.'.'.'.'.'.'.'.'.'.'.'.'.'.'.'.'.'.'.'.'.'.'.'.'.'.'.'.'.'.'.'.'.'.'.'.'.'.'.'.'.'.'.'.'.'.'.'.'.'.'.'.'.'.'.'.'.'.'.'.'.'.'.'.'.'.'.'.'.'.'.'.'.'.'.'.'.'.'.'.'.",
"'.'.'.'.'.'.'.'.'.'.'.'.'.'.'.'.'.'.'.'.'.'.'.'.'.'.'.'.'.'.'.'.'.'.'.'.'.'.'.'.'.'.'.'.'.'.'.'.'.'.'.'.'.'.'.'.'.'.'.'.'.'.'.'.'.'.'.'.'.'.'.'.'.'.'.'.'.'.'.'.'.'.'.'.'.'.'.'.'.'.'.'.'.'.'.'.'.'.'.'.'.'.'.'.'.'.'.'.'.'.'.'.'.'.'.'.'.'.'.'.'.'.'.'.'.'.'.'.'.'.'.'.'.'.'.'.'.'.'.'.'.'.'.'.'.'.'.'.'.'.'.'.'.'.'.'.'.'.'.'.'.'.'.'.'.'.'.'.'.'.'.'.'.'.'.'.'.'.'.'.'.'.'.'.'.'.'.'.'.'.'.'.'.'.'.'.'.'.'.'.'.'.'.'.'.'.'.'.'.'.'.'.'.'.'.'.'.'.'.'.'.'.'.'.'.'.'.'.'.'.'.'.'.'.'.'.'.'.'.'.'.'.'.'.'.'.'.'.'.'.'.'.'.'.'.'.",
"'.'.'.'.'.'.'.'.'.'.'.'.'.'.'.'.'.'.'.'.'.'.'.'.'.'.'.'.'.'.'.'.'.'.'.'.'.'.'.'.'.'.'.'.'.'.'.'.'.'.'.'.'.'.'.'.'.'.'.'.'.'.'.'.'.'.'.'.'.'.'.'.'.'.'.'.'.'.'.'.'.'.'.'.'.'.'.'.'.'.'.'.'.'.'.'.'.'.'.'.'.'.'.'.'.'.'.'.'.'.'.'.'.'.'.'.'.'.'.'.'.'.'.'.'.'.'.'.'.'.'.'.'.'.'.'.'.'.'.'.'.'.'.'.'.'.'.'.'.'.'.'.'.'.'.'.'.'.'.'.'.'.'.'.'.'.'.'.'.'.'.'.'.'.'.'.'.'.'.'.'.'.'.'.'.'.'.'.'.'.'.'.'.'.'.'.'.'.'.'.'.'.'.'.'.'.'.'.'.'.'.'.'.'.'.'.'.'.'.'.'.'.'.'.'.'.'.'.'.'.'.'.'.'.'.'.'.'.'.'.'.'.'.'.'.'.'.'.'.'.'.'.'.'.'.'.",
"'.'.'.'.'.'.'.'.'.'.'.'.'.'.'.'.'.'.'.'.'.'.'.'.'.'.'.'.'.'.'.'.'.'.'.'.'.'.'.'.'.'.'.'.'.'.'.'.'.'.'.'.'.'.'.'.'.'.'.'.'.'.'.'.'.'.'.'.'.'.'.'.'.'.'.'.'.'.'.'.'.'.'.'.'.'.'.'.'.'.'.'.'.'.'.'.'.'.'.'.'.'.'.'.'.'.'.'.'.'.'.'.'.'.'.'.'.'.'.'.'.'.'.'.'.'.'.'.'.'.'.'.'.'.'.'.'.'.'.'.'.'.'.'.'.'.'.'.'.'.'.'.'.'.'.'.'.'.'.'.'.'.'.'.'.'.'.'.'.'.'.'.'.'.'.'.'.'.'.'.'.'.'.'.'.'.'.'.'.'.'.'.'.'.'.'.'.'.'.'.'.'.'.'.'.'.'.'.'.'.'.'.'.'.'.'.'.'.'.'.'.'.'.'.'.'.'.'.'.'.'.'.'.'.'.'.'.'.'.'.'.'.'.'.'.'.'.'.'.'.'.'.'.'.'.'.",
"'.'.'.'.'.'.'.'.'.'.'.'.'.'.'.'.'.'.'.'.'.'.'.'.'.'.'.'.'.'.'.'.'.'.'.'.'.'.'.'.'.'.'.'.'.'.'.'.'.'.'.'.'.'.'.'.'.'.'.'.'.'.'.'.'.'.'.'.'.'.'.'.'.'.'.'.'.'.'.'.'.'.'.'.'.'.'.'.'.'.'.'.'.'.'.'.'.'.'.'.'.'.'.'.'.'.'.'.'.'.'.'.'.'.'.'.'.'.'.'.'.'.'.'.'.'.'.'.'.'.'.'.'.'.'.'.'.'.'.'.'.'.'.'.'.'.'.'.'.'.'.'.'.'.'.'.'.'.'.'.'.'.'.'.'.'.'.'.'.'.'.'.'.'.'.'.'.'.'.'.'.'.'.'.'.'.'.'.'.'.'.'.'.'.'.'.'.'.'.'.'.'.'.'.'.'.'.'.'.'.'.'.'.'.'.'.'.'.'.'.'.'.'.'.'.'.'.'.'.'.'.'.'.'.'.'.'.'.'.'.'.'.'.'.'.'.'.'.'.'.'.'.'.'.'.'.",
"'.'.'.'.'.'.'.'.'.'.'.'.'.'.'.'.'.'.'.'.'.'.'.'.'.'.'.'.'.'.'.'.'.'.'.'.'.'.'.'.'.'.'.'.'.'.'.'.'.'.'.'.'.'.'.'.'.'.'.'.'.'.'.'.'.'.'.'.'.'.'.'.'.'.'.'.'.'.'.'.'.'.'.'.'.'.'.'.'.'.'.'.'.'.'.'.'.'.'.'.'.'.'.'.'.'.'.'.'.'.'.'.'.'.'.'.'.'.'.'.'.'.'.'.'.'.'.'.'.'.'.'.'.'.'.'.'.'.'.'.'.'.'.'.'.'.'.'.'.'.'.'.'.'.'.'.'.'.'.'.'.'.'.'.'.'.'.'.'.'.'.'.'.'.'.'.'.'.'.'.'.'.'.'.'.'.'.'.'.'.'.'.'.'.'.'.'.'.'.'.'.'.'.'.'.'.'.'.'.'.'.'.'.'.'.'.'.'.'.'.'.'.'.'.'.'.'.'.'.'.'.'.'.'.'.'.'.'.'.'.'.'.'.'.'.'.'.'.'.'.'.'.'.'.'.'.",
"'.'.'.'.'.'.'.'.'.'.'.'.'.'.'.'.'.'.'.'.'.'.'.'.'.'.'.'.'.'.'.'.'.'.'.'.'.'.'.'.'.'.'.'.'.'.'.'.'.'.'.'.'.'.'.'.'.'.'.'.'.'.'.'.'.'.'.'.'.'.'.'.'.'.'.'.'.'.'.'.'.'.'.'.'.'.'.'.'.'.'.'.'.'.'.'.'.'.'.'.'.'.'.'.'.'.'.'.'.'.'.'.'.'.'.'.'.'.'.'.'.'.'.'.'.'.'.'.'.'.'.'.'.'.'.'.'.'.'.'.'.'.'.'.'.'.'.'.'.'.'.'.'.'.'.'.'.'.'.'.'.'.'.'.'.'.'.'.'.'.'.'.'.'.'.'.'.'.'.'.'.'.'.'.'.'.'.'.'.'.'.'.'.'.'.'.'.'.'.'.'.'.'.'.'.'.'.'.'.'.'.'.'.'.'.'.'.'.'.'.'.'.'.'.'.'.'.'.'.'.'.'.'.'.'.'.'.'.'.'.'.'.'.'.'.'.'.'.'.'.'.'.'.'.'.'.",
"'.'.'.'.'.'.'.'.'.'.'.'.'.'.'.'.'.'.'.'.'.'.'.'.'.'.'.'.'.'.'.'.'.'.'.'.'.'.'.'.'.'.'.'.'.'.'.'.'.'.'.'.'.'.'.'.'.'.'.'.'.'.'.'.'.'.'.'.'.'.'.'.'.'.'.'.'.'.'.'.'.'.'.'.'.'.'.'.'.'.'.'.'.'.'.'.'.'.'.'.'.'.'.'.'.'.'.'.'.'.'.'.'.'.'.'.'.'.'.'.'.'.'.'.'.'.'.'.'.'.'.'.'.'.'.'.'.'.'.'.'.'.'.'.'.'.'.'.'.'.'.'.'.'.'.'.'.'.'.'.'.'.'.'.'.'.'.'.'.'.'.'.'.'.'.'.'.'.'.'.'.'.'.'.'.'.'.'.'.'.'.'.'.'.'.'.'.'.'.'.'.'.'.'.'.'.'.'.'.'.'.'.'.'.'.'.'.'.'.'.'.'.'.'.'.'.'.'.'.'.'.'.'.'.'.'.'.'.'.'.'.'.'.'.'.'.'.'.'.'.'.'.'.'.'.'.",
"'.'.'.'.'.'.'.'.'.'.'.'.'.'.'.'.'.'.'.'.'.'.'.'.'.'.'.'.'.'.'.'.'.'.'.'.'.'.'.'.'.'.'.'.'.'.'.'.'.'.'.'.'.'.'.'.'.'.'.'.'.'.'.'.'.'.'.'.'.'.'.'.'.'.'.'.'.'.'.'.'.'.'.'.'.'.'.'.'.'.'.'.'.'.'.'.'.'.'.'.'.'.'.'.'.'.'.'.'.'.'.'.'.'.'.'.'.'.'.'.'.'.'.'.'.'.'.'.'.'.'.'.'.'.'.'.'.'.'.'.'.'.'.'.'.'.'.'.'.'.'.'.'.'.'.'.'.'.'.'.'.'.'.'.'.'.'.'.'.'.'.'.'.'.'.'.'.'.'.'.'.'.'.'.'.'.'.'.'.'.'.'.'.'.'.'.'.'.'.'.'.'.'.'.'.'.'.'.'.'.'.'.'.'.'.'.'.'.'.'.'.'.'.'.'.'.'.'.'.'.'.'.'.'.'.'.'.'.'.'.'.'.'.'.'.'.'.'.'.'.'.'.'.'.'.'."
};
