/* XPM */
static const char *quicksilver128[] = {
/* columns rows colors chars-per-pixel */
"128 128 168 2 ",
"   c #000000",
".  c #0B0403",
"X  c #070808",
"o  c #0B0C0C",
"O  c #110605",
"+  c #170807",
"@  c #1D0A08",
"#  c #180907",
"$  c #0E0F10",
"%  c #0F1010",
"&  c #131415",
"*  c #161718",
"=  c #171819",
"-  c #1A1C1C",
";  c #220C0A",
":  c #2B0F0C",
">  c #2F110D",
",  c #32120E",
"<  c #3C1511",
"1  c #371310",
"2  c #1E1F20",
"3  c #1E2022",
"4  c #232426",
"5  c #252729",
"6  c #26292A",
"7  c #2A2C2D",
"8  c #2D2F31",
"9  c #2F3133",
"0  c #323335",
"q  c #343638",
"w  c #36393B",
"e  c #3A3C3D",
"r  c #461814",
"t  c #4A1915",
"y  c #441714",
"u  c #501C17",
"i  c #541D18",
"p  c #5B201A",
"a  c #6A251F",
"s  c #6D2720",
"d  c #702620",
"f  c #752922",
"g  c #7B2B23",
"h  c #3A3E41",
"j  c #3D4145",
"k  c #434547",
"l  c #434649",
"z  c #46494C",
"x  c #4A4C4E",
"c  c #4A4E51",
"v  c #4C5155",
"b  c #4F5559",
"n  c #515456",
"m  c #515659",
"M  c #55595C",
"N  c #5A5C5E",
"B  c #565C61",
"V  c #595D61",
"C  c #5D6265",
"Z  c #5E6469",
"A  c #64696D",
"S  c #646769",
"D  c #666D72",
"F  c #6A6E71",
"G  c #6B7175",
"H  c #6E757A",
"J  c #727679",
"K  c #74797E",
"L  c #7A7D7F",
"P  c #727577",
"I  c #832D25",
"U  c #8F3129",
"Y  c #93332A",
"T  c #9C362D",
"R  c #9F382E",
"E  c #A3392E",
"W  c #A1372E",
"Q  c #AA3B31",
"!  c #A63A30",
"~  c #B33E34",
"^  c #BC4136",
"/  c #C04338",
"(  c #CA463A",
")  c #C04237",
"_  c #D54A3D",
"`  c #D84B3E",
"'  c #767D82",
"]  c #7A7E81",
"[  c #7C8186",
"{  c #7C838A",
"}  c #828689",
"|  c #848A8E",
" . c #888B8E",
".. c #838C93",
"X. c #898E91",
"o. c #8A9196",
"O. c #8C959B",
"+. c #879098",
"@. c #909599",
"#. c #93999E",
"$. c #919597",
"%. c #8E99A1",
"&. c #959CA2",
"*. c #999EA2",
"=. c #97A0A7",
"-. c #9BA1A5",
";. c #96A1A9",
":. c #9BA6AE",
">. c #9EA8AF",
",. c #9BA7B0",
"<. c #9EA9B2",
"1. c #A1A7AB",
"2. c #A3A9AE",
"3. c #A4A8AB",
"4. c #A2ADB5",
"5. c #A9AEB1",
"6. c #A4AFB8",
"7. c #ADB1B5",
"8. c #A6B1B9",
"9. c #AAB5BD",
"0. c #AFB8BF",
"q. c #B2B7BA",
"w. c #B3B9BE",
"e. c #ACB7C0",
"r. c #AEB9C1",
"t. c #B2BDC4",
"y. c #B9BEC3",
"u. c #B6C0C7",
"i. c #BAC1C6",
"p. c #B6C1C8",
"a. c #BAC4CC",
"s. c #BEC8CF",
"d. c #BFC9D0",
"f. c #C2C6CB",
"g. c #C5CBCF",
"h. c #C3CDD4",
"j. c #C9CED1",
"k. c #C7D0D7",
"l. c #CBD2D7",
"z. c #CCD5DC",
"x. c #CFD8DE",
"c. c #D0D6DA",
"v. c #D0D9DF",
"b. c #D4DCE2",
"n. c #D8DFE4",
"m. c #DAE1E6",
"M. c #DBE2E7",
"N. c #D9E0E5",
"B. c #DCE2E7",
"V. c #DAE1E6",
"C. c #DDE3E8",
"Z. c #DCE3E8",
"A. c #DEE4E9",
"S. c #DFE4E9",
"D. c #DFE5EA",
"F. c #DEE4E9",
"G. c #E1E6EB",
"H. c #E2E7EB",
"J. c #E0E5EA",
"K. c #E2E7EC",
"L. c #E1E6EB",
"P. c #E3E8EC",
"I. c #E4E9ED",
"U. c #E5EAEE",
"Y. c #E6EBEF",
"T. c #E4E9ED",
"R. c None",
"E. c black",
/* pixels */
"R.R.R.R.R.R.R.R.R.R.R.R.R.R.R.R.R.R.R.R.R.R.R.R.R.R.R.R.R.R.R.R.R.R.R.R.R.R.R.R.R.R.R.R.R.R.R.R.R.R.R.R.R.R.R.R.R.R.R.R.R.R.R.R.R.R.R.R.R.R.R.R.R.R.R.R.R.R.R.R.R.R.R.R.R.R.R.R.R.R.R.R.R.R.R.R.R.R.R.R.R.R.R.R.R.R.R.R.R.R.R.R.R.R.R.R.R.R.R.R.R.R.R.R.R.R.R.R.",
"R.R.R.R.R.R.R.R.R.R.R.R.R.R.R.R.R.R.R.R.R.R.R.R.R.R.R.R.R.R.R.R.R.R.R.R.R.R.R.R.R.R.R.R.R.R.R.R.R.R.R.R.R.R.R.R.R.R.R.R.R.R.R.R.R.R.R.R.R.R.R.R.R.R.R.R.R.R.R.R.R.R.R.R.R.R.R.R.R.R.R.R.R.R.R.R.R.R.R.R.R.R.R.R.R.R.R.R.R.R.R.R.R.R.R.R.R.R.R.R.R.R.R.R.R.R.R.R.",
"R.R.R.R.R.R.R.R.R.R.R.R.R.R.R.R.R.R.R.R.R.R.R.R.R.R.R.R.R.R.R.R.R.R.R.R.R.R.R.R.R.R.R.R.R.R.R.R.R.R.R.R.R.R.R.R.R.R.R.R.R.R.R.R.R.R.R.R.R.R.R.R.R.R.R.R.R.R.R.R.R.R.R.R.R.R.R.R.R.R.R.R.R.R.R.R.R.R.R.R.R.R.R.R.R.R.R.R.R.R.R.R.R.R.R.R.R.R.R.R.R.R.R.R.R.R.R.R.",
"R.R.R.R.R.R.R.R.R.R.R.R.R.R.R.R.R.R.R.R.R.R.R.R.R.R.R.R.R.R.R.R.R.R.R.R.R.R.R.R.R.R.R.R.R.R.R.R.R.R.R.R.R.R.R.R.R.R.R.R.R.R.R.R.R.R.R.R.R.R.R.R.R.R.R.R.R.R.R.R.R.R.R.R.R.R.R.R.R.R.R.R.R.R.R.R.R.R.R.R.R.R.R.R.R.R.R.R.R.R.R.R.R.R.R.R.R.R.R.R.R.R.R.R.R.R.R.R.",
"R.R.R.R.R.R.R.R.R.R.R.R.R.R.R.R.R.R.R.R.R.R.R.R.R.R.R.R.R.R.R.R.R.R.R.R.R.R.R.R.R.R.R.R.R.R.R.R.R.R.R.R.R.R.R.R.` ` ` ` ` ` ` ` ` ` ` ` ` ` ` R.R.R.R.R.R.R.R.R.R.R.R.R.R.R.R.R.R.R.R.R.R.R.R.R.R.R.R.R.R.R.R.R.R.R.R.R.R.R.R.R.R.R.R.R.R.R.R.R.R.R.R.R.R.R.R.R.",
"R.R.R.R.R.R.R.R.R.R.R.R.R.R.R.R.R.R.R.R.R.R.R.R.R.R.R.R.R.R.R.R.R.R.R.R.R.R.R.R.R.R.R.R.R.R.R.R.R.R.R.` ` ` ` ` ` ` ` ` ` ` ` ` ` ` ` ` ` ` ` ` ` ` ` ` ` R.R.R.R.R.R.R.R.R.R.R.R.R.R.R.R.R.R.R.R.R.R.R.R.R.R.R.R.R.R.R.R.R.R.R.R.R.R.R.R.R.R.R.R.R.R.R.R.R.R.R.",
"R.R.R.R.R.R.R.R.R.R.R.R.R.R.R.R.R.R.R.R.R.R.R.R.R.R.R.R.R.R.R.R.R.R.R.R.R.R.R.R.R.R.R.R.R.R.R.` ` ` ` ` ` ` ` ` ` ` ` ` ` ` ` ` ` ` ` ` ` ` ` ` ` ` ` ` ` ` ` ` ` R.R.R.R.R.R.R.R.R.R.R.R.R.R.R.R.R.R.R.R.R.R.R.R.R.R.R.R.R.R.R.R.R.R.R.R.R.R.R.R.R.R.R.R.R.R.R.",
"R.R.R.R.R.R.R.R.R.R.R.R.R.R.R.R.R.R.R.R.R.R.R.R.R.R.R.R.R.R.R.R.R.R.R.R.R.R.R.R.R.R.R.R.` ` ` ` ` ` ` ` ` ` _ ~ Y a t , @ O .     . O @ , t d T ) _ ` ` ` ` ` ` ` ` ` ` R.R.R.R.R.R.R.R.R.R.R.R.R.R.R.R.R.R.R.R.R.R.R.R.R.R.R.R.R.R.R.R.R.R.R.R.R.R.R.R.R.R.R.R.",
"R.R.R.R.R.R.R.R.R.R.R.R.R.R.R.R.R.R.R.R.R.R.R.R.R.R.R.R.R.R.R.R.R.R.R.R.R.R.R.R.R.` ` ` ` ` ` ` ` ` ^ f :                                           . : g ^ ` ` ` ` ` ` ` ` ` R.R.R.R.R.R.R.R.R.R.R.R.R.R.R.R.R.R.R.R.R.R.R.R.R.R.R.R.R.R.R.R.R.R.R.R.R.R.R.R.R.",
"R.R.R.R.R.R.R.R.R.R.R.R.R.R.R.R.R.R.R.R.R.R.R.R.R.R.R.R.R.R.R.R.R.R.R.R.R.R.R.` ` ` ` ` ` ` ( g >                                                             > I ( ` ` ` ` ` ` ` R.R.R.R.R.R.R.R.R.R.R.R.R.R.R.R.R.R.R.R.R.R.R.R.R.R.R.R.R.R.R.R.R.R.R.R.R.R.R.",
"R.R.R.R.R.R.R.R.R.R.R.R.R.R.R.R.R.R.R.R.R.R.R.R.R.R.R.R.R.R.R.R.R.R.R.R.R.` ` ` ` ` ` ` T ;                                                                         @ I ` ` ` ` ` ` ` R.R.R.R.R.R.R.R.R.R.R.R.R.R.R.R.R.R.R.R.R.R.R.R.R.R.R.R.R.R.R.R.R.R.R.R.R.",
"R.R.R.R.R.R.R.R.R.R.R.R.R.R.R.R.R.R.R.R.R.R.R.R.R.R.R.R.R.R.R.R.R.R.R.` ` ` ` ` ` ~ <                                                                                     < ~ ` ` ` ` ` ` R.R.R.R.R.R.R.R.R.R.R.R.R.R.R.R.R.R.R.R.R.R.R.R.R.R.R.R.R.R.R.R.R.R.R.",
"R.R.R.R.R.R.R.R.R.R.R.R.R.R.R.R.R.R.R.R.R.R.R.R.R.R.R.R.R.R.R.R.R.` ` ` ` ` ` ~ ;                                                                                             @ E ` ` ` ` ` ` R.R.R.R.R.R.R.R.R.R.R.R.R.R.R.R.R.R.R.R.R.R.R.R.R.R.R.R.R.R.R.R.R.",
"R.R.R.R.R.R.R.R.R.R.R.R.R.R.R.R.R.R.R.R.R.R.R.R.R.R.R.R.R.R.R.R.` ` ` ` ` T +                               & w N ] -.7.y.f.c.n.n.z.f.w.7.*.K M q &                               + T ` ` ` ` ` R.R.R.R.R.R.R.R.R.R.R.R.R.R.R.R.R.R.R.R.R.R.R.R.R.R.R.R.R.R.R.R.",
"R.R.R.R.R.R.R.R.R.R.R.R.R.R.R.R.R.R.R.R.R.R.R.R.R.R.R.R.R.R.` ` ` ` ` ^ @                           2 n  .j.J.J.J.J.J.J.A.A.A.A.C.C.C.B.B.M.M.M.M.M.h.@.C 7                           @ ^ ` ` ` ` ` R.R.R.R.R.R.R.R.R.R.R.R.R.R.R.R.R.R.R.R.R.R.R.R.R.R.R.R.R.R.",
"R.R.R.R.R.R.R.R.R.R.R.R.R.R.R.R.R.R.R.R.R.R.R.R.R.R.R.R.R.` ` ` ` _ u                         q  .j.P.P.K.J.J.J.J.J.J.A.A.A.A.C.C.C.B.B.M.M.M.M.M.M.n.n.n.n.a.[ 0                         r _ ` ` ` ` R.R.R.R.R.R.R.R.R.R.R.R.R.R.R.R.R.R.R.R.R.R.R.R.R.R.R.R.R.",
"R.R.R.R.R.R.R.R.R.R.R.R.R.R.R.R.R.R.R.R.R.R.R.R.R.R.R.` ` ` ` ` Y .                     - F f.I.I.P.P.K.J.J.J.J.J.J.A.A.A.A.C.C.C.B.B.M.M.M.n.n.n.n.n.n.n.n.n.n.n.i.J 2                     . Y ` ` ` ` ` R.R.R.R.R.R.R.R.R.R.R.R.R.R.R.R.R.R.R.R.R.R.R.R.R.R.R.",
"R.R.R.R.R.R.R.R.R.R.R.R.R.R.R.R.R.R.R.R.R.R.R.R.R.R.` ` ` ` ` 1                     7 $.J.I.I.I.P.P.K.J.J.J.J.J.J.A.A.A.A.C.C.C.B.B.M.M.M.M.M.M.n.n.n.n.n.n.n.n.b.n.n.b.#.8                     < ` ` ` ` ` R.R.R.R.R.R.R.R.R.R.R.R.R.R.R.R.R.R.R.R.R.R.R.R.R.R.",
"R.R.R.R.R.R.R.R.R.R.R.R.R.R.R.R.R.R.R.R.R.R.R.R.R.` ` ` ` ^ O                   q 1.I.I.I.I.I.P.P.K.J.J.J.J.J.J.A.A.A.A.C.C.C.B.M.M.M.M.M.M.M.n.n.n.n.n.n.n.n.n.b.b.b.b.b.b.2.e                   . ^ ` ` ` ` R.R.R.R.R.R.R.R.R.R.R.R.R.R.R.R.R.R.R.R.R.R.R.R.R.",
"R.R.R.R.R.R.R.R.R.R.R.R.R.R.R.R.R.R.R.R.R.R.R.R.` ` ` ` I                   4 5.I.I.I.I.I.I.P.P.K.J.J.J.J.J.J.A.A.A.A.A.C.C.B.B.M.M.M.n.M.M.n.n.n.n.n.n.n.n.n.n.b.b.b.b.b.b.b.v.*.3                   g ` ` ` ` R.R.R.R.R.R.R.R.R.R.R.R.R.R.R.R.R.R.R.R.R.R.R.R.",
"R.R.R.R.R.R.R.R.R.R.R.R.R.R.R.R.R.R.R.R.R.R.R.` ` ` ` t                 X P J.I.I.I.I.I.I.P.P.K.J.J.J.J.J.J.A.A.A.A.C.C.C.B.B.M.M.M.M.M.n.n.n.n.n.n.n.n.n.b.n.n.b.b.b.b.b.b.v.v.v.z.K X                 y ` ` ` ` R.R.R.R.R.R.R.R.R.R.R.R.R.R.R.R.R.R.R.R.R.R.R.",
"R.R.R.R.R.R.R.R.R.R.R.R.R.R.R.R.R.R.R.R.R.R.` ` ` ` ,                 k j.I.I.I.I.I.I.I.P.P.K.J.J.J.J.J.J.A.A.A.A.C.C.C.B.B.M.M.M.M.M.M.n.n.n.n.n.n.n.n.b.b.b.b.b.b.b.b.b.v.v.v.x.x.x.t.h                 , ` ` ` ` R.R.R.R.R.R.R.R.R.R.R.R.R.R.R.R.R.R.R.R.R.R.",
"R.R.R.R.R.R.R.R.R.R.R.R.R.R.R.R.R.R.R.R.R.` ` ` ` ;               X L I.I.I.I.I.I.I.I.P.P.K.M.1. .$.g.J.A.A.A.A.C.C.C.B.B.M.M.M.M.M.M.n.n.n.n.n.n.n.n.n.b.u.X.[ &.l.b.b.v.v.v.x.x.x.x.x.x.K X               ; ` ` ` ` R.R.R.R.R.R.R.R.R.R.R.R.R.R.R.R.R.R.R.R.R.",
"R.R.R.R.R.R.R.R.R.R.R.R.R.R.R.R.R.R.R.R.` ` ` _ +               - q.I.I.I.I.I.I.I.I.P.P.K.X.&         v c.A.A.C.C.C.B.B.M.M.M.M.M.M.n.n.n.n.n.n.n.n.n.h.x         % } v.v.v.x.x.x.x.x.x.x.x.4.-               + _ ` ` ` R.R.R.R.R.R.R.R.R.R.R.R.R.R.R.R.R.R.R.R.",
"R.R.R.R.R.R.R.R.R.R.R.R.R.R.R.R.R.R.R.` ` ` _ +               z n.I.I.I.I.I.I.I.I.P.P.K.L               7 v.C.C.C.B.B.M.M.M.M.M.n.n.n.n.n.n.n.n.n.n.l.6               J v.x.x.x.x.x.x.x.z.z.z.a.h               + _ ` ` ` R.R.R.R.R.R.R.R.R.R.R.R.R.R.R.R.R.R.R.",
"R.R.R.R.R.R.R.R.R.R.R.R.R.R.R.R.R.R.` ` ` ` ;               M P.I.I.I.I.I.I.I.I.P.P.K.i.                  S C.C.B.B.M.M.M.M.M.M.n.n.n.n.n.n.n.n.n.n.C                   7.x.x.x.x.x.x.z.z.l.l.l.h.n               ; ` ` ` ` R.R.R.R.R.R.R.R.R.R.R.R.R.R.R.R.R.R.",
"R.R.R.R.R.R.R.R.R.R.R.R.R.R.R.R.R.` ` ` ` ,               F Y.Y.I.I.I.I.I.I.I.I.P.K.J.S                   X g.B.B.M.M.M.M.M.M.n.n.n.n.n.n.n.n.n.n.a.X                   V x.x.x.x.x.x.z.l.l.l.k.k.h.F               > ` ` ` ` R.R.R.R.R.R.R.R.R.R.R.R.R.R.R.R.R.",
"R.R.R.R.R.R.R.R.R.R.R.R.R.R.R.R.` ` ` ` y                .Y.Y.Y.I.I.I.I.I.I.I.P.K.J.J.q                     M B.M.M.M.M.M.M.n.n.n.n.n.n.n.n.n.n.n.n                     0 x.x.x.x.x.z.z.l.l.k.k.h.h.h.J               t ` ` ` ` R.R.R.R.R.R.R.R.R.R.R.R.R.R.R.R.",
"R.R.R.R.R.R.R.R.R.R.R.R.R.R.R.R.` ` ` g               } Y.I.I.I.I.I.I.I.I.P.P.K.J.J.J.0                       *.M.M.M.M.n.n.n.n.n.n.n.n.n.n.n.n.@.                      8 x.x.x.x.x.z.l.l.l.k.h.h.h.h.h.J               I ` ` ` R.R.R.R.R.R.R.R.R.R.R.R.R.R.R.R.",
"R.R.R.R.R.R.R.R.R.R.R.R.R.R.R.` ` ` /               P Y.I.I.I.I.I.I.I.I.P.P.K.J.J.J.J.M                       X 5.M.M.M.n.n.n.n.n.n.n.n.n.n.n.:.X                       v x.x.x.x.z.l.l.l.k.h.h.h.h.h.h.h.C               ^ ` ` ` R.R.R.R.R.R.R.R.R.R.R.R.R.R.R.",
"R.R.R.R.R.R.R.R.R.R.R.R.R.R.` ` ` ` .             V Y.I.I.I.I.I.I.I.I.P.P.K.J.J.J.J.J.2.                        X  .M.n.n.n.n.n.n.n.n.b.n.n.} X                         -.x.x.x.z.l.l.l.k.h.h.h.h.h.h.h.d.s.c             O ` ` ` ` R.R.R.R.R.R.R.R.R.R.R.R.R.R.",
"R.R.R.R.R.R.R.R.R.R.R.R.R.R.` ` ` <             z I.I.I.I.I.I.I.I.I.P.P.K.J.J.J.J.J.J.A.w                           e 5.n.n.n.n.n.n.b.n.2.w                           q x.x.x.l.l.l.l.k.h.h.h.h.h.h.h.d.s.s.a.w             1 ` ` ` R.R.R.R.R.R.R.R.R.R.R.R.R.R.",
"R.R.R.R.R.R.R.R.R.R.R.R.R.` ` ` Y             - v.I.I.I.I.I.I.I.I.P.P.K.J.J.J.J.J.J.A.A.5.                              4 C X.*.*.X.C 4                               :.x.x.z.l.l.l.k.h.h.h.h.h.h.h.d.s.s.s.a.0.-             Y ` ` ` R.R.R.R.R.R.R.R.R.R.R.R.R.",
"R.R.R.R.R.R.R.R.R.R.R.R.` ` ` ` .           X q.I.I.I.I.I.I.I.I.P.P.K.J.J.J.J.J.J.A.A.A.A.x                                                                         x x.x.z.l.l.l.k.h.h.h.h.h.h.h.d.s.s.s.a.a.a.#.X           . _ ` ` ` R.R.R.R.R.R.R.R.R.R.R.R.",
"R.R.R.R.R.R.R.R.R.R.R.R.` ` ` u             } Y.I.I.I.I.I.I.I.P.P.K.J.J.J.J.J.J.A.A.A.A.C.z.-                                                                     * s.x.z.l.l.k.k.h.h.h.h.h.h.h.d.s.s.s.a.a.a.a.p.A             t ` ` ` R.R.R.R.R.R.R.R.R.R.R.R.",
"R.R.R.R.R.R.R.R.R.R.R.` ` ` ^             k I.I.I.I.I.I.I.I.P.P.K.J.J.J.J.J.J.A.A.A.A.C.C.C.2.                                                                    -.x.z.l.l.k.h.h.h.h.h.h.h.h.d.s.s.s.a.a.a.a.p.p.t.q             ^ ` ` ` R.R.R.R.R.R.R.R.R.R.R.",
"R.R.R.R.R.R.R.R.R.R.R.` ` ` @           X j.I.I.I.I.I.I.I.P.P.P.J.J.J.J.J.J.A.A.A.A.C.C.C.B.B.X.                                                                | x.z.l.l.l.k.k.h.h.h.h.h.h.d.s.s.s.a.a.a.a.p.p.p.t.>.X           @ ` ` ` R.R.R.R.R.R.R.R.R.R.R.",
"R.R.R.R.R.R.R.R.R.R.` ` ` T             L I.I.I.I.I.I.I.P.P.P.H.J.J.J.J.J.A.A.A.A.C.C.C.B.B.M.M. .                                                            ] x.z.l.l.k.k.k.h.h.h.h.h.h.d.s.s.a.a.a.a.a.p.p.p.t.t.t.C             E ` ` ` R.R.R.R.R.R.R.R.R.R.",
"R.R.R.R.R.R.R.R.R.R.` ` ` #           4 J.I.I.I.I.I.I.I.P.K.J.J.J.J.J.J.A.A.A.A.C.C.C.B.B.M.M.M.M.]                                                         K x.z.l.l.l.k.k.h.h.h.h.h.d.d.s.s.s.a.a.a.p.p.p.p.t.t.t.t.0.-           + ` ` ` R.R.R.R.R.R.R.R.R.R.",
"R.R.R.R.R.R.R.R.R.` ` ` !             5.I.I.I.I.I.I.I.I.K.J.J.J.J.J.J.A.A.A.A.C.C.C.B.B.M.M.M.M.w.*                                                         * 5.l.l.l.k.k.h.h.h.h.h.h.d.s.s.s.a.a.a.a.p.p.p.t.t.t.t.t.r.{             ! ` ` ` R.R.R.R.R.R.R.R.R.",
"R.R.R.R.R.R.R.R.R.` ` ` @           w I.I.I.I.I.I.P.P.K.H.H.J.J.J.J.A.A.A.A.C.C.C.B.B.M.M.M.M.w.%                                                             o 6.k.k.h.h.h.h.h.h.d.d.s.s.s.a.a.a.a.p.p.p.t.t.t.t.t.r.r.r.7           ; ` ` ` R.R.R.R.R.R.R.R.R.",
"R.R.R.R.R.R.R.R.` ` ` ~             5.I.I.I.I.I.P.P.K.J.J.J.J.J.J.A.A.A.A.C.C.C.B.B.M.M.M.M.a.*                                                                 * t.h.h.h.h.h.h.h.d.s.s.s.a.a.a.a.p.p.p.t.t.t.t.t.r.r.r.e.{             ~ ` ` ` R.R.R.R.R.R.R.R.",
"R.R.R.R.R.R.R.R.` ` ` <           7 I.I.I.I.I.P.P.P.J.J.J.J.J.J.A.A.A.A.C.C.C.B.B.M.M.M.M.n.0                                                                     7 h.h.h.h.h.d.d.s.s.s.a.a.a.a.p.p.p.t.t.t.t.t.r.r.r.e.9.9.4           < ` ` ` R.R.R.R.R.R.R.R.",
"R.R.R.R.R.R.R.R.` ` `             -.I.I.I.I.P.P.P.J.J.J.J.J.J.A.A.A.A.A.C.C.B.B.M.M.M.M.M.A                                                                         C h.h.h.h.d.s.s.s.a.a.a.a.p.p.p.t.t.t.t.t.r.r.r.e.9.9.9.K             _ ` ` R.R.R.R.R.R.R.R.",
"R.R.R.R.R.R.R.` ` ` U           - I.I.I.I.P.P.K.J.J.J.J.J.J.A.A.A.A.C.C.C.B.B.M.M.M.M.M.w.                                o 0 l l 8 o                               X 4.h.h.s.s.s.s.a.a.a.a.p.p.p.t.t.t.t.t.r.r.r.e.9.9.9.9.8.*           Y ` ` ` R.R.R.R.R.R.R.",
"R.R.R.R.R.R.R.` ` ` ;           P I.I.I.P.P.K.J.J.J.J.J.J.A.A.A.A.C.C.C.B.B.M.M.M.M.M.M.e                           X m 2.x.v.v.x.x.l.>.n X                           w h.d.s.s.s.a.a.a.a.p.p.p.t.t.t.t.t.r.r.r.e.9.9.9.9.9.8.m           ; ` ` ` R.R.R.R.R.R.R.",
"R.R.R.R.R.R.R.` ` (             f.I.I.P.P.K.J.J.J.J.J.J.A.A.A.A.C.C.C.B.B.M.M.M.M.M.M.7.                          e y.b.v.v.v.x.x.x.x.x.x.t.w                           -.s.s.s.a.a.a.a.p.p.p.t.t.t.t.t.r.r.r.e.9.9.9.9.9.8.8.O.            ( ` ` R.R.R.R.R.R.R.",
"R.R.R.R.R.R.` ` ` g           q I.I.P.P.K.J.J.J.J.J.J.A.A.A.A.C.C.C.B.B.M.M.M.M.M.M.n.x                         S v.b.v.v.v.x.x.x.x.x.x.x.x.l.C                         l s.s.a.a.a.a.p.p.p.t.t.t.t.t.r.r.r.e.9.9.9.9.9.8.8.8.6.4           I ` ` ` R.R.R.R.R.R.",
"R.R.R.R.R.R.` ` ` >            .I.P.P.K.H.H.J.J.J.J.A.A.A.A.C.C.B.B.M.M.M.M.M.M.M.n.l.X                       S b.b.v.x.x.x.x.x.x.x.x.x.z.z.z.l.V                       X t.a.a.a.a.p.p.p.t.t.t.t.t.r.r.r.e.9.9.9.9.9.8.8.8.6.4.Z           , ` ` ` R.R.R.R.R.R.",
"R.R.R.R.R.R.` ` `             j.P.P.K.J.J.J.J.J.J.A.A.A.A.C.C.C.M.B.M.M.M.M.M.M.n.n.X.                      w v.b.v.v.v.x.x.x.x.x.x.x.z.z.l.l.l.h.0                       ] a.a.a.p.p.p.t.t.t.t.t.r.r.r.e.9.9.9.9.9.8.8.8.6.4.4.O.            ` ` ` R.R.R.R.R.R.",
"R.R.R.R.R.R.` ` ^           4 P.P.P.J.J.J.J.J.J.A.A.A.A.C.C.C.B.M.M.M.M.M.M.M.n.n.n.n                       w.b.v.v.v.x.x.x.x.x.x.x.x.z.l.l.l.k.k.6.                      z a.a.p.p.p.t.t.t.t.t.r.r.r.e.9.9.9.9.9.8.8.8.6.4.4.4.4.*           ^ ` ` R.R.R.R.R.R.",
"R.R.R.R.R.` ` ` f           N P.P.J.J.J.J.J.J.A.A.A.A.C.C.C.B.B.M.M.M.M.M.M.n.n.n.n.-                     x b.v.v.v.x.x.x.x.x.x.x.x.z.z.l.l.k.k.k.h.l                     - a.p.p.p.t.t.t.t.t.r.r.r.e.9.9.9.9.9.8.8.8.6.4.4.4.4.<.j           g ` ` ` R.R.R.R.R.",
"R.R.R.R.R.` ` ` :           #.K.J.J.J.J.J.J.A.A.A.A.C.C.C.B.B.M.M.M.M.M.M.n.n.n.n.x.                      *.v.v.x.x.x.x.x.x.x.x.x.x.z.l.l.l.k.h.h.h.o.                      t.p.p.t.t.t.t.t.r.r.r.e.9.9.9.9.9.8.8.8.6.4.4.4.4.<.<.D           : ` ` ` R.R.R.R.R.",
"R.R.R.R.R.` ` `             l.J.J.J.J.J.J.A.A.A.A.C.C.C.B.B.M.M.M.M.M.M.n.n.n.n.n.q.                    X l.v.v.x.x.x.x.x.x.x.x.x.z.l.l.l.k.h.h.h.h.a.X                     =.p.t.t.t.t.t.r.r.r.e.9.9.9.9.9.8.8.8.6.4.4.4.4.<.<.<.%.            ` ` ` R.R.R.R.R.",
"R.R.R.R.R.` ` _           * J.J.J.J.J.J.A.A.A.A.C.C.C.B.B.M.M.M.n.M.M.n.n.n.n.n.n.1.                    4 v.v.x.x.x.x.x.x.x.x.x.z.l.l.l.k.h.h.h.h.h.h.3                     O.t.t.t.t.t.r.r.r.e.9.9.9.9.9.8.8.8.6.4.4.4.4.<.<.<.<.,.o           _ ` ` R.R.R.R.R.",
"R.R.R.R.R.` ` ~           w J.J.J.J.J.A.A.A.A.C.C.C.B.B.M.M.M.M.n.M.n.n.n.n.n.n.n.&.                    0 v.x.x.x.x.x.x.x.x.x.l.l.l.l.k.h.h.h.h.h.h.h.9                     | t.t.t.t.r.r.r.e.9.9.9.9.9.8.8.8.6.4.4.4.4.<.<.<.<.,.:.5           ^ ` ` R.R.R.R.R.",
"R.R.R.R.` ` ` Y           N J.J.J.J.A.A.A.A.C.C.C.B.B.M.M.M.M.M.n.n.n.n.n.n.n.n.n.&.                    0 x.x.x.x.x.x.x.z.z.l.l.l.l.k.h.h.h.h.h.h.h.d.8                     | t.t.t.r.r.r.e.9.9.9.9.9.8.8.8.6.4.4.4.4.<.<.<.<.,.:.,.j           T ` ` ` R.R.R.R.",
"R.R.R.R.` ` ` a           ] J.J.J.A.A.A.A.C.C.C.B.B.M.M.M.M.M.M.n.n.n.n.n.n.n.n.n.1.                    2 x.x.x.x.x.x.z.z.l.l.l.l.k.h.h.h.h.h.h.h.d.s.-                     o.t.t.r.r.r.e.9.9.9.9.9.8.8.8.6.4.4.4.4.<.<.<.<.,.:.,.<.B           s ` ` ` R.R.R.R.",
"R.R.R.R.` ` ` t           -.J.J.A.A.A.A.C.C.C.B.B.M.M.M.M.M.M.n.n.n.n.n.n.n.n.n.n.w.                      h.x.x.x.x.x.x.z.l.l.k.k.h.h.h.h.h.h.h.d.s.t.                      =.t.r.r.r.e.9.9.9.9.9.8.8.8.6.4.4.4.4.<.<.<.<.,.:.,.<.<.H           t ` ` ` R.R.R.R.",
"R.R.R.R.` ` ` ,           7.J.A.A.A.A.C.C.C.B.B.M.M.M.n.M.M.n.n.n.n.n.n.n.n.n.n.n.x.X                     o.x.x.x.x.x.l.l.l.k.k.h.h.h.h.h.h.h.d.s.s.{                     X r.r.r.r.e.9.9.9.9.9.8.8.8.6.4.4.4.4.<.<.<.<.,.:.,.<.<.<.{           , ` ` ` R.R.R.R.",
"R.R.R.R.` ` ` @           y.A.A.A.A.C.C.C.B.B.M.M.M.M.M.n.n.n.n.n.n.n.n.n.b.b.b.b.b.4                     e x.x.x.x.z.l.l.l.k.k.h.h.h.h.h.h.d.s.s.s.q                     3 r.r.r.e.9.9.9.9.9.8.8.8.6.4.4.4.4.<.<.<.<.,.:.,.<.<.<.4...          @ ` ` ` R.R.R.R.",
"R.R.R.R.` ` ` O           g.A.A.A.C.C.C.B.B.M.M.M.M.M.M.n.n.n.n.n.n.n.n.b.b.b.b.b.b.M                       >.x.x.z.l.l.l.k.k.h.h.h.h.h.h.d.s.s.s.O.                      c r.r.e.9.9.9.9.9.8.8.8.6.4.4.4.4.<.<.<.<.,.:.,.<.<.<.4.4.O.          . ` ` ` R.R.R.R.",
"R.R.R.R.` ` ` .           z.A.A.C.C.C.B.B.M.M.M.n.M.M.n.n.n.n.n.n.n.n.n.b.b.b.b.b.b.O.                      4 h.z.l.l.l.k.k.h.h.h.h.h.h.d.s.s.s.t.3                       [ r.e.9.9.9.9.9.8.8.8.6.4.4.4.4.<.<.<.<.,.:.,.<.<.<.4.4.4.;.          . ` ` ` R.R.R.R.",
"R.R.R.R.` ` `             n.A.C.C.C.B.B.M.M.M.n.n.M.n.n.n.n.n.n.n.n.n.b.b.b.b.b.b.b.l.o                       l k.l.l.k.k.h.h.h.h.h.h.d.s.s.s.a.h                       o 9.e.9.9.9.9.9.8.8.8.6.4.4.4.4.<.<.<.<.,.:.,.<.<.<.4.4.4.4.<.            ` ` ` R.R.R.R.",
"R.R.R.R.` ` `             n.C.C.C.B.B.M.M.M.M.M.M.n.n.n.n.n.n.n.n.b.b.b.b.b.b.v.v.v.v.M                         k s.k.h.h.h.h.h.h.h.d.s.s.a.t.e                         c e.9.9.9.9.9.8.8.8.6.4.4.4.4.<.<.<.<.,.:.,.<.<.<.4.4.4.4.8.4.            ` ` ` R.R.R.R.",
"R.R.R.R.` ` ` .           l.C.C.B.B.M.M.M.M.M.M.n.n.n.n.n.n.n.n.b.b.b.b.b.b.b.b.v.v.x.w.                          3 #.h.h.h.h.h.h.d.s.s.a.o.-                           &.9.9.9.9.9.8.8.8.6.4.4.4.4.<.<.<.<.,.:.,.<.<.<.4.4.4.4.8.8.:.          . ` ` ` R.R.R.R.",
"R.R.R.R.` ` ` O           f.C.B.B.M.M.M.M.M.M.n.n.n.n.n.n.n.n.b.b.b.b.b.b.b.b.b.v.v.x.x.c                             8 ' 0.h.h.d.s.7.K 7                             l 9.9.9.9.9.8.8.8.6.4.4.4.4.<.<.<.<.,.:.,.<.<.<.4.4.4.4.8.8.8.&.          O ` ` ` R.R.R.R.",
"R.R.R.R.` ` ` @           y.B.B.M.M.M.M.M.M.n.n.n.n.n.n.n.n.n.b.b.b.b.b.b.b.b.v.v.v.x.x.y.X                                 X X X X                                 X :.9.9.9.9.8.8.8.6.4.4.4.4.<.<.<.<.,.:.,.<.<.<.4.4.4.4.8.8.8.9.O.          @ ` ` ` R.R.R.R.",
"R.R.R.R.` ` ` ,           7.B.M.M.M.M.M.n.n.n.n.n.n.n.n.n.b.b.b.b.b.b.b.b.b.v.v.v.x.x.x.x.]                                                                         D 9.9.9.9.8.8.8.6.4.4.4.4.<.<.<.<.,.:.,.<.<.<.4.4.4.4.8.8.8.9.9...          , ` ` ` R.R.R.R.",
"R.R.R.R.` ` ` t           *.M.M.M.M.M.M.n.n.n.n.n.n.n.n.b.b.b.b.b.b.b.b.b.v.v.v.x.x.x.x.x.x.k                                                                     h 9.9.9.9.8.8.8.6.4.4.4.4.<.<.<.<.,.:.,.<.<.<.4.4.4.4.8.8.8.9.9.9.'           t ` ` ` R.R.R.R.",
"R.R.R.R.` ` ` d           K M.M.M.M.M.n.n.n.n.n.n.n.n.n.b.b.b.b.b.b.b.b.v.v.v.x.x.x.x.x.x.x.h.5                                                                 4 4.9.9.9.8.8.8.6.4.4.4.4.<.<.<.<.,.:.,.<.<.<.4.4.4.4.8.8.8.9.9.9.9.C           f ` ` ` R.R.R.R.",
"R.R.R.R.R.` ` T           M M.M.M.M.n.n.n.n.n.n.n.n.n.b.b.b.b.b.b.b.b.v.v.v.x.x.x.x.x.x.x.x.x.y.-                                                             - :.9.9.9.8.8.8.6.4.4.4.4.<.<.<.<.,.:.,.<.<.<.4.4.4.4.8.8.8.9.9.9.9.0.l           R ` ` R.R.R.R.R.",
"R.R.R.R.R.` ` ^           q M.M.n.n.n.n.n.n.n.n.n.b.b.b.b.b.b.b.b.b.v.v.v.x.x.x.x.x.x.x.x.x.z.l.t.6                                                         4 :.9.9.9.8.8.8.6.4.4.4.4.<.<.<.<.,.:.,.<.<.<.4.4.4.4.8.8.8.9.9.9.9.0.r.7           / ` ` R.R.R.R.R.",
"R.R.R.R.R.` ` _           & M.M.n.n.n.n.n.n.n.n.b.b.b.b.b.b.b.b.b.v.v.v.x.x.x.x.x.x.x.x.x.z.l.l.l.s.l                                                     j 4.9.9.9.8.8.8.6.4.4.4.4.<.<.<.<.,.:.,.<.<.<.4.4.4.4.8.8.8.9.9.9.9.0.r.r.o           _ ` ` R.R.R.R.R.",
"R.R.R.R.R.` ` ` .           g.n.n.n.n.n.n.n.n.n.b.b.b.b.b.b.b.b.v.v.v.x.x.x.x.x.x.x.x.x.z.l.l.l.k.h.h.' o                                             o G 9.9.9.9.8.8.8.6.4.4.4.4.<.<.<.<.,.:.,.<.<.<.4.4.4.4.8.8.8.9.9.9.9.0.r.r.>.          . ` ` ` R.R.R.R.R.",
"R.R.R.R.R.` ` ` :           o.n.n.n.n.n.n.n.n.b.b.b.b.b.v.b.b.v.v.v.x.x.x.x.x.x.x.z.z.z.l.l.l.k.h.h.h.h.t.v X                                     X z <.9.9.9.9.8.8.8.6.4.4.4.4.<.<.<.<.,.:.,.<.<.<.4.4.4.4.8.8.8.9.9.9.9.0.r.r.t.K           : ` ` ` R.R.R.R.R.",
"R.R.R.R.R.` ` ` f           M n.n.n.n.n.n.b.b.b.b.b.b.b.v.v.v.x.x.x.x.x.x.x.x.x.z.z.l.l.l.l.k.h.h.h.h.h.h.h.9.N &                             & m :.9.9.9.9.9.8.8.8.6.4.4.4.4.<.<.<.<.,.:.,.<.<.<.4.4.4.4.8.8.8.9.9.9.9.0.r.r.t.t.z           g ` ` ` R.R.R.R.R.",
"R.R.R.R.R.R.` ` ^           2 n.n.n.n.n.b.b.b.b.b.b.b.b.v.v.x.x.x.x.x.x.x.x.x.x.z.l.l.l.l.k.h.h.h.h.h.h.h.d.s.s.a.O.7                     7 ..9.e.9.9.9.9.9.8.8.8.6.4.4.4.4.<.<.<.<.,.:.,.<.<.<.4.4.4.4.8.8.8.9.9.9.9.0.r.r.t.t.t.=           ^ ` ` R.R.R.R.R.R.",
"R.R.R.R.R.R.` ` `             i.n.n.n.n.b.b.b.b.b.b.b.b.v.v.x.x.x.x.x.x.x.x.x.x.z.l.l.k.k.h.h.h.h.h.h.h.d.s.s.a.a.a.V                     M r.e.9.9.9.9.9.8.8.8.6.4.4.4.4.<.<.<.<.,.:.,.<.<.<.4.4.4.4.8.8.8.9.9.9.9.0.r.r.t.t.t.:.            ` ` ` R.R.R.R.R.R.",
"R.R.R.R.R.R.` ` ` >           [ n.n.n.n.b.b.b.b.b.b.b.v.v.v.x.x.x.x.x.x.x.z.x.z.l.l.k.k.h.h.h.h.h.h.h.d.s.s.a.a.a.a.V                     M e.9.9.9.9.9.8.8.8.6.4.4.4.4.<.<.<.<.,.:.,.<.<.<.4.4.4.4.8.8.8.9.9.9.9.0.r.r.t.t.t.t.D           , ` ` ` R.R.R.R.R.R.",
"R.R.R.R.R.R.` ` ` I           0 n.b.b.b.b.b.b.b.v.v.v.v.v.x.x.x.x.x.x.x.z.z.z.l.l.l.k.k.h.h.h.h.h.h.d.s.s.s.a.a.a.a.V                     M 9.9.9.9.9.8.8.8.6.4.4.4.4.<.<.<.<.,.:.,.<.<.<.4.4.4.4.8.8.8.9.9.9.9.0.r.r.t.t.t.t.t.6           I ` ` ` R.R.R.R.R.R.",
"R.R.R.R.R.R.R.` ` (             w.b.b.b.b.b.b.b.v.v.v.x.x.x.x.x.x.x.x.z.z.l.l.l.l.k.k.h.h.h.h.h.h.d.s.s.s.a.a.a.a.p.B                     m 9.9.9.9.8.8.8.6.4.4.4.4.<.<.<.<.,.:.,.<.<.<.4.4.4.4.8.8.8.9.9.9.9.0.r.r.t.t.t.t.t.;.            ( ` ` R.R.R.R.R.R.R.",
"R.R.R.R.R.R.R.` ` ` ;           F b.b.b.b.b.b.b.v.x.x.x.x.x.x.x.x.x.x.z.l.l.l.k.k.k.h.h.h.h.t.t.t.t.t.r.0.0.0.0.9.9.m                     v <.>.>.>.:.:.:.;.;.;.;.;.<.<.<.,.:.,.<.<.<.4.4.4.4.8.8.8.9.9.9.9.0.r.r.t.t.t.t.t.t.N           ; ` ` ` R.R.R.R.R.R.R.",
"R.R.R.R.R.R.R.` ` ` U           - v.b.b.b.b.b.v.x.x.x.x.x.x.x.x.x.x.z.z.l.l.k.k.k.h.h.t.M &                                                                         $ z %.:.,.<.<.<.4.4.4.4.8.8.8.9.9.9.9.0.r.r.t.t.t.t.t.t.t.*           Y ` ` ` R.R.R.R.R.R.R.",
"R.R.R.R.R.R.R.R.` ` `             @.b.b.b.b.v.x.x.x.x.x.x.x.x.x.x.x.z.l.l.l.k.h.h.h.6.*                                                                                 & ..<.<.<.4.4.4.4.8.8.8.9.9.9.9.0.r.r.t.t.t.t.t.t.u.[             _ ` ` R.R.R.R.R.R.R.R.",
"R.R.R.R.R.R.R.R.` ` ` <           7 v.b.b.v.v.x.x.x.x.x.x.x.x.x.x.z.l.l.l.k.h.h.h.d.3                                                                                     - :.<.4.4.4.4.8.8.8.9.9.9.9.0.r.r.t.t.t.t.t.t.u.a.5           < ` ` ` R.R.R.R.R.R.R.R.",
"R.R.R.R.R.R.R.R.` ` ` ~             *.b.v.v.v.x.x.x.x.x.x.x.x.x.z.l.l.l.k.h.h.h.h.[                                                                                         D 4.4.4.4.8.8.8.9.9.9.9.0.r.r.t.t.t.t.t.t.u.a.|             ~ ` ` ` R.R.R.R.R.R.R.R.",
"R.R.R.R.R.R.R.R.R.` ` ` ;           9 v.v.v.x.x.x.x.x.x.x.x.x.l.l.l.l.k.h.h.h.h.h.z                                                                                         h 4.4.4.8.8.8.9.9.9.9.0.r.r.t.t.t.t.t.t.u.a.a.7           ; ` ` ` R.R.R.R.R.R.R.R.R.",
"R.R.R.R.R.R.R.R.R.` ` ` !             &.v.x.x.x.x.x.x.x.z.z.l.l.l.l.k.h.h.h.h.h.h.e                                                                                         9 4.4.8.8.8.9.9.9.9.0.r.r.t.t.t.t.t.t.u.a.a. .            Q ` ` ` R.R.R.R.R.R.R.R.R.",
"R.R.R.R.R.R.R.R.R.R.` ` ` @           2 l.x.x.x.x.x.x.z.z.l.l.l.l.k.h.h.h.h.h.h.h.c                                                                                         k 4.8.8.8.9.9.9.9.0.r.r.t.t.t.t.t.t.u.a.a.t.-           @ ` ` ` R.R.R.R.R.R.R.R.R.R.",
"R.R.R.R.R.R.R.R.R.R.` ` ` T             F x.x.x.x.x.x.x.z.l.l.k.k.h.h.h.h.h.h.h.d.|                                                                                         K 8.8.8.9.9.9.9.0.r.r.t.t.t.t.t.t.u.a.a.a.C             E ` ` ` R.R.R.R.R.R.R.R.R.R.",
"R.R.R.R.R.R.R.R.R.R.R.` ` ` @           X t.x.x.x.x.x.l.l.l.k.k.h.h.h.h.h.h.h.d.s.s.7                                                                                     6 4.8.8.9.9.9.9.0.r.r.t.t.t.t.t.t.u.a.a.a.2.X           ; ` ` ` R.R.R.R.R.R.R.R.R.R.R.",
"R.R.R.R.R.R.R.R.R.R.R.` ` ` ^             e x.x.x.x.z.l.l.l.k.k.h.h.h.h.h.h.d.s.s.s.9.4                                                                                 3 &.8.8.9.9.9.9.0.r.r.t.t.t.t.t.t.u.a.a.a.a.q             / ` ` ` R.R.R.R.R.R.R.R.R.R.R.",
"R.R.R.R.R.R.R.R.R.R.R.R.` ` ` u             J x.x.z.l.l.l.k.k.h.h.h.h.h.h.d.s.s.s.a.a.t.F 6 o o o o o o o o o o o o X                     X o o o o o o o o o o o o 4 C <.8.8.9.9.9.9.0.r.r.t.t.t.t.t.t.u.a.a.a.a.A             i ` ` ` R.R.R.R.R.R.R.R.R.R.R.R.",
"R.R.R.R.R.R.R.R.R.R.R.R.` ` ` ` .           X :.z.l.l.l.k.k.h.h.h.h.h.h.d.s.s.s.a.a.a.p.p.p.p.t.t.t.t.t.r.r.r.e.9.9.m                     v <.<.<.,.:.,.<.<.<.4.4.4.4.8.8.8.9.9.9.9.0.r.r.t.t.t.t.t.t.u.a.a.a.a.&.            . ` ` ` ` R.R.R.R.R.R.R.R.R.R.R.R.",
"R.R.R.R.R.R.R.R.R.R.R.R.R.` ` ` Y             = a.l.l.k.k.h.h.h.h.h.h.d.s.s.s.a.a.a.a.p.p.p.t.t.t.t.t.r.r.r.e.9.9.9.m                     v <.<.,.:.,.<.<.<.4.4.4.4.8.8.8.9.9.9.9.0.r.r.t.t.t.t.t.t.u.u.a.a.a.0.-             Y ` ` ` R.R.R.R.R.R.R.R.R.R.R.R.R.",
"R.R.R.R.R.R.R.R.R.R.R.R.R.R.` ` ` <             h h.k.h.h.h.h.h.h.h.d.s.s.s.a.a.a.p.p.p.p.t.t.t.t.t.r.r.r.e.9.9.9.9.m                     v <.,.:.,.<.<.<.4.4.4.4.8.8.8.9.9.9.9.0.r.r.t.t.t.t.t.t.u.a.a.a.a.a.w             1 ` ` ` R.R.R.R.R.R.R.R.R.R.R.R.R.R.",
"R.R.R.R.R.R.R.R.R.R.R.R.R.R.` ` ` ` O             x h.h.h.h.h.h.d.d.s.s.s.a.a.a.a.p.p.p.t.t.t.t.t.r.r.r.e.9.9.9.9.9.m                     v ,.:.,.<.<.<.4.4.4.4.8.8.8.9.9.9.9.0.r.r.t.t.t.t.t.t.u.a.a.a.a.a.x             O ` ` ` ` R.R.R.R.R.R.R.R.R.R.R.R.R.R.",
"R.R.R.R.R.R.R.R.R.R.R.R.R.R.R.` ` ` /               C h.h.h.h.h.d.s.s.s.a.a.a.a.p.p.p.t.t.t.t.t.r.r.r.e.9.9.9.9.9.8.b                     v :.,.<.<.<.4.4.4.4.8.8.8.9.9.9.9.0.r.r.t.t.t.t.t.t.u.a.a.a.a.s.V               ^ ` ` ` R.R.R.R.R.R.R.R.R.R.R.R.R.R.R.",
"R.R.R.R.R.R.R.R.R.R.R.R.R.R.R.R.` ` ` I               G h.h.h.d.s.s.s.a.a.a.a.p.p.p.t.t.t.t.t.r.r.r.e.9.9.9.9.9.8.8.b                     c ,.<.<.<.4.4.4.4.8.8.8.9.9.9.9.0.r.r.t.t.t.t.t.t.u.a.a.a.a.s.H               I ` ` ` R.R.R.R.R.R.R.R.R.R.R.R.R.R.R.R.",
"R.R.R.R.R.R.R.R.R.R.R.R.R.R.R.R.` ` ` ` r               H h.d.s.s.s.a.a.a.a.p.p.p.t.t.t.t.t.r.r.r.e.9.9.9.9.9.8.8.8.m                     v <.<.<.4.4.4.4.8.8.8.9.9.9.9.0.r.r.t.t.t.t.t.t.u.a.a.a.a.a.G               t ` ` ` ` R.R.R.R.R.R.R.R.R.R.R.R.R.R.R.R.",
"R.R.R.R.R.R.R.R.R.R.R.R.R.R.R.R.R.` ` ` ` ,               V s.s.s.a.a.a.a.p.p.p.t.t.t.t.t.r.r.r.e.9.9.9.9.9.8.8.8.6.Z                     C <.<.4.4.4.4.8.8.8.9.9.9.9.0.r.r.t.t.t.t.t.t.u.a.a.a.a.a.C               , ` ` ` ` R.R.R.R.R.R.R.R.R.R.R.R.R.R.R.R.R.",
"R.R.R.R.R.R.R.R.R.R.R.R.R.R.R.R.R.R.` ` ` ` ;               z a.a.a.a.a.p.p.p.t.t.t.t.t.r.r.r.e.9.9.9.9.9.8.8.8.6.4.O.                    +.<.4.4.4.4.8.8.8.9.9.9.9.0.r.r.t.t.t.t.t.t.u.a.a.a.a.a.c               ; ` ` ` ` R.R.R.R.R.R.R.R.R.R.R.R.R.R.R.R.R.R.",
"R.R.R.R.R.R.R.R.R.R.R.R.R.R.R.R.R.R.R.` ` ` ` +               w 0.a.a.p.p.p.t.t.t.t.t.r.r.r.e.9.9.9.9.9.8.8.8.6.4.4.4.h                 h <.4.4.4.4.8.8.8.9.9.9.9.0.r.r.t.t.t.t.t.t.u.a.a.a.a.0.q               + ` ` ` ` R.R.R.R.R.R.R.R.R.R.R.R.R.R.R.R.R.R.R.",
"R.R.R.R.R.R.R.R.R.R.R.R.R.R.R.R.R.R.R.R.` ` ` _ +               * O.p.p.p.t.t.t.t.t.r.r.r.e.9.9.9.9.9.8.8.8.6.4.4.4.4.;.5             5 ;.4.4.4.4.8.8.8.9.9.9.9.0.r.r.t.t.t.t.t.t.u.a.a.a.a.&.-               + _ ` ` ` R.R.R.R.R.R.R.R.R.R.R.R.R.R.R.R.R.R.R.R.",
"R.R.R.R.R.R.R.R.R.R.R.R.R.R.R.R.R.R.R.R.R.` ` ` ` ;                 C t.t.t.t.t.t.r.r.r.e.9.9.9.9.9.8.8.8.6.4.4.4.4.<.<.:.B -     - B >.4.4.4.4.8.8.8.9.9.9.9.0.r.r.t.t.t.t.t.t.u.a.a.a.a.G X               ; ` ` ` ` R.R.R.R.R.R.R.R.R.R.R.R.R.R.R.R.R.R.R.R.R.",
"R.R.R.R.R.R.R.R.R.R.R.R.R.R.R.R.R.R.R.R.R.R.` ` ` ` ,                 q :.t.t.t.r.r.r.e.9.9.9.9.9.8.8.8.6.4.4.4.4.<.<.<.<.,.:.;.;.<.<.4.4.4.4.8.8.8.9.9.9.9.0.r.r.t.t.t.t.t.t.u.a.a.a.2.q                 , ` ` ` ` R.R.R.R.R.R.R.R.R.R.R.R.R.R.R.R.R.R.R.R.R.R.",
"R.R.R.R.R.R.R.R.R.R.R.R.R.R.R.R.R.R.R.R.R.R.R.` ` ` ` t                 X V 9.r.r.r.e.9.9.9.9.9.8.8.8.6.4.4.4.4.<.<.<.<.,.:.,.<.<.<.4.4.4.4.8.8.8.9.9.9.9.0.r.r.t.t.t.t.t.t.u.a.a.t.A X                 r ` ` ` ` R.R.R.R.R.R.R.R.R.R.R.R.R.R.R.R.R.R.R.R.R.R.R.",
"R.R.R.R.R.R.R.R.R.R.R.R.R.R.R.R.R.R.R.R.R.R.R.R.` ` ` ` U                   - { r.e.9.9.9.9.9.8.8.8.6.4.4.4.4.<.<.<.<.,.:.,.<.<.<.4.4.4.4.8.8.8.9.9.9.9.0.r.r.t.t.t.t.t.t.u.a.a. .-                   g ` ` ` ` R.R.R.R.R.R.R.R.R.R.R.R.R.R.R.R.R.R.R.R.R.R.R.R.",
"R.R.R.R.R.R.R.R.R.R.R.R.R.R.R.R.R.R.R.R.R.R.R.R.R.` ` ` ` / O                   6 [ 9.9.9.9.8.8.8.6.4.4.4.4.<.<.<.<.,.:.,.<.<.<.4.4.4.4.8.8.8.9.9.9.9.0.r.r.t.t.t.t.t.t.u.a.X.7                   O / ` ` ` ` R.R.R.R.R.R.R.R.R.R.R.R.R.R.R.R.R.R.R.R.R.R.R.R.R.",
"R.R.R.R.R.R.R.R.R.R.R.R.R.R.R.R.R.R.R.R.R.R.R.R.R.R.` ` ` ` ` <                     3 G 8.8.8.8.6.4.4.4.4.<.<.<.<.,.:.,.<.<.<.4.4.4.4.8.8.8.9.9.9.9.0.r.r.t.t.t.t.t.t.t.} 6                     < ` ` ` ` ` R.R.R.R.R.R.R.R.R.R.R.R.R.R.R.R.R.R.R.R.R.R.R.R.R.R.",
"R.R.R.R.R.R.R.R.R.R.R.R.R.R.R.R.R.R.R.R.R.R.R.R.R.R.R.` ` ` ` ` Y .                     & c +.6.4.4.4.4.<.<.<.<.,.:.,.<.<.<.4.4.4.4.8.8.8.9.9.9.9.0.r.r.t.t.t.t.t.;.C -                     . Y ` ` ` ` ` R.R.R.R.R.R.R.R.R.R.R.R.R.R.R.R.R.R.R.R.R.R.R.R.R.R.R.",
"R.R.R.R.R.R.R.R.R.R.R.R.R.R.R.R.R.R.R.R.R.R.R.R.R.R.R.R.R.` ` ` ` ` p                         4 Z O.4.<.<.<.<.,.:.,.<.<.<.4.4.4.4.8.8.8.9.9.9.9.0.r.r.t.t.t.:.D 6                         i ` ` ` ` ` R.R.R.R.R.R.R.R.R.R.R.R.R.R.R.R.R.R.R.R.R.R.R.R.R.R.R.R.R.",
"R.R.R.R.R.R.R.R.R.R.R.R.R.R.R.R.R.R.R.R.R.R.R.R.R.R.R.R.R.R.` ` ` ` ` ^ @                           * j D %.,.:.,.<.<.<.4.4.4.4.8.8.8.9.9.9.9.0.r.r.>.K z =                           @ ^ ` ` ` ` ` R.R.R.R.R.R.R.R.R.R.R.R.R.R.R.R.R.R.R.R.R.R.R.R.R.R.R.R.R.R.",
"R.R.R.R.R.R.R.R.R.R.R.R.R.R.R.R.R.R.R.R.R.R.R.R.R.R.R.R.R.R.R.R.` ` ` ` ` W @                               o 5 j B H { ..O.;.4.4.:.&.O...' C l 7 o                               @ E ` ` ` ` ` R.R.R.R.R.R.R.R.R.R.R.R.R.R.R.R.R.R.R.R.R.R.R.R.R.R.R.R.R.R.R.R.",
"R.R.R.R.R.R.R.R.R.R.R.R.R.R.R.R.R.R.R.R.R.R.R.R.R.R.R.R.R.R.R.R.R.` ` ` ` ` ` ~ ;                                                                                             @ E ` ` ` ` ` ` R.R.R.R.R.R.R.R.R.R.R.R.R.R.R.R.R.R.R.R.R.R.R.R.R.R.R.R.R.R.R.R.R.",
"R.R.R.R.R.R.R.R.R.R.R.R.R.R.R.R.R.R.R.R.R.R.R.R.R.R.R.R.R.R.R.R.R.R.R.` ` ` ` ` ` ~ <                                                                                     < ~ ` ` ` ` ` ` R.R.R.R.R.R.R.R.R.R.R.R.R.R.R.R.R.R.R.R.R.R.R.R.R.R.R.R.R.R.R.R.R.R.R.",
"R.R.R.R.R.R.R.R.R.R.R.R.R.R.R.R.R.R.R.R.R.R.R.R.R.R.R.R.R.R.R.R.R.R.R.R.R.` ` ` ` ` ` ` T ;                                                                         @ I ` ` ` ` ` ` ` R.R.R.R.R.R.R.R.R.R.R.R.R.R.R.R.R.R.R.R.R.R.R.R.R.R.R.R.R.R.R.R.R.R.R.R.R.",
"R.R.R.R.R.R.R.R.R.R.R.R.R.R.R.R.R.R.R.R.R.R.R.R.R.R.R.R.R.R.R.R.R.R.R.R.R.R.R.` ` ` ` ` ` ` ( I ,                                                             , I ( ` ` ` ` ` ` ` R.R.R.R.R.R.R.R.R.R.R.R.R.R.R.R.R.R.R.R.R.R.R.R.R.R.R.R.R.R.R.R.R.R.R.R.R.R.R.",
"R.R.R.R.R.R.R.R.R.R.R.R.R.R.R.R.R.R.R.R.R.R.R.R.R.R.R.R.R.R.R.R.R.R.R.R.R.R.R.R.R.` ` ` ` ` ` ` ` ` ^ g :                                           . : g ^ ` ` ` ` ` ` ` ` ` R.R.R.R.R.R.R.R.R.R.R.R.R.R.R.R.R.R.R.R.R.R.R.R.R.R.R.R.R.R.R.R.R.R.R.R.R.R.R.R.R.",
"R.R.R.R.R.R.R.R.R.R.R.R.R.R.R.R.R.R.R.R.R.R.R.R.R.R.R.R.R.R.R.R.R.R.R.R.R.R.R.R.R.R.R.R.` ` ` ` ` ` ` ` ` ` _ ^ Y s t , @ . .     . . @ , t f T / ` ` ` ` ` ` ` ` ` ` ` R.R.R.R.R.R.R.R.R.R.R.R.R.R.R.R.R.R.R.R.R.R.R.R.R.R.R.R.R.R.R.R.R.R.R.R.R.R.R.R.R.R.R.R.",
"R.R.R.R.R.R.R.R.R.R.R.R.R.R.R.R.R.R.R.R.R.R.R.R.R.R.R.R.R.R.R.R.R.R.R.R.R.R.R.R.R.R.R.R.R.R.R.` ` ` ` ` ` ` ` ` ` ` ` ` ` ` ` ` ` ` ` ` ` ` ` ` ` ` ` ` ` ` ` ` ` R.R.R.R.R.R.R.R.R.R.R.R.R.R.R.R.R.R.R.R.R.R.R.R.R.R.R.R.R.R.R.R.R.R.R.R.R.R.R.R.R.R.R.R.R.R.R.",
"R.R.R.R.R.R.R.R.R.R.R.R.R.R.R.R.R.R.R.R.R.R.R.R.R.R.R.R.R.R.R.R.R.R.R.R.R.R.R.R.R.R.R.R.R.R.R.R.R.R.R.` ` ` ` ` ` ` ` ` ` ` ` ` ` ` ` ` ` ` ` ` ` ` ` ` ` R.R.R.R.R.R.R.R.R.R.R.R.R.R.R.R.R.R.R.R.R.R.R.R.R.R.R.R.R.R.R.R.R.R.R.R.R.R.R.R.R.R.R.R.R.R.R.R.R.R.R.",
"R.R.R.R.R.R.R.R.R.R.R.R.R.R.R.R.R.R.R.R.R.R.R.R.R.R.R.R.R.R.R.R.R.R.R.R.R.R.R.R.R.R.R.R.R.R.R.R.R.R.R.R.R.R.R.R.` ` ` ` ` ` ` ` ` ` ` ` ` ` ` R.R.R.R.R.R.R.R.R.R.R.R.R.R.R.R.R.R.R.R.R.R.R.R.R.R.R.R.R.R.R.R.R.R.R.R.R.R.R.R.R.R.R.R.R.R.R.R.R.R.R.R.R.R.R.R.R.",
"R.R.R.R.R.R.R.R.R.R.R.R.R.R.R.R.R.R.R.R.R.R.R.R.R.R.R.R.R.R.R.R.R.R.R.R.R.R.R.R.R.R.R.R.R.R.R.R.R.R.R.R.R.R.R.R.R.R.R.R.R.R.R.R.R.R.R.R.R.R.R.R.R.R.R.R.R.R.R.R.R.R.R.R.R.R.R.R.R.R.R.R.R.R.R.R.R.R.R.R.R.R.R.R.R.R.R.R.R.R.R.R.R.R.R.R.R.R.R.R.R.R.R.R.R.R.R.R.",
"R.R.R.R.R.R.R.R.R.R.R.R.R.R.R.R.R.R.R.R.R.R.R.R.R.R.R.R.R.R.R.R.R.R.R.R.R.R.R.R.R.R.R.R.R.R.R.R.R.R.R.R.R.R.R.R.R.R.R.R.R.R.R.R.R.R.R.R.R.R.R.R.R.R.R.R.R.R.R.R.R.R.R.R.R.R.R.R.R.R.R.R.R.R.R.R.R.R.R.R.R.R.R.R.R.R.R.R.R.R.R.R.R.R.R.R.R.R.R.R.R.R.R.R.R.R.R.R.",
"R.R.R.R.R.R.R.R.R.R.R.R.R.R.R.R.R.R.R.R.R.R.R.R.R.R.R.R.R.R.R.R.R.R.R.R.R.R.R.R.R.R.R.R.R.R.R.R.R.R.R.R.R.R.R.R.R.R.R.R.R.R.R.R.R.R.R.R.R.R.R.R.R.R.R.R.R.R.R.R.R.R.R.R.R.R.R.R.R.R.R.R.R.R.R.R.R.R.R.R.R.R.R.R.R.R.R.R.R.R.R.R.R.R.R.R.R.R.R.R.R.R.R.R.R.R.R.R.",
"R.R.R.R.R.R.R.R.R.R.R.R.R.R.R.R.R.R.R.R.R.R.R.R.R.R.R.R.R.R.R.R.R.R.R.R.R.R.R.R.R.R.R.R.R.R.R.R.R.R.R.R.R.R.R.R.R.R.R.R.R.R.R.R.R.R.R.R.R.R.R.R.R.R.R.R.R.R.R.R.R.R.R.R.R.R.R.R.R.R.R.R.R.R.R.R.R.R.R.R.R.R.R.R.R.R.R.R.R.R.R.R.R.R.R.R.R.R.R.R.R.R.R.R.R.R.R.R."
};
